(G-CODE GENERATED BY FLATCAM v8.994 - www.flatcam.org - Version Date: 2020/11/7)

(Name: CeilingFanControl-B_Cu.gbr_ncc_cnc)
(Type: G-code from Geometry)
(Units: MM)

(Created on Sunday, 20 August 2023 at 16:52)

(This preprocessor is used with a motion controller loaded with GRBL firmware.)
(It is configured to be compatible with almost any version of GRBL firmware.)

(TOOL DIAMETER: 0.1353 mm)
(Feedrate_XY: 50.0 mm/min)
(Feedrate_Z: 45.0 mm/min)
(Feedrate rapids 1500.0 mm/min)

(Z_Cut: -0.1001 mm)
(Z_Move: 1.0 mm)
(Z Start: None mm)
(Z End: 5.0 mm)
(X,Y End: 0.0000, 0.0000 mm)
(Steps per circle: 64)
(Steps per circle: 64)
(Preprocessor Geometry: GRBL_11_no_M6)

(X range:    2.2777 ...   31.5818  mm)
(Y range:  -26.7969 ...   28.6818  mm)

(Spindle Speed: 1000.0 RPM)
G21
G90
G17
G94


G01 F50.00

M5             
G00 Z5.0000
G00 X0.0000 Y0.0000                
T1
(MSG, Change to Tool Dia = 0.1353)
M0
G00 Z5.0000
        
M03 S1000.0
G01 F50.00
G00 X2.2777 Y1.1899
G01 F45.00
G01 Z-0.1001
G01 F50.00
G01 X2.2889 Y1.1945 F50.00
G01 X2.2962 Y1.1983 F50.00
G01 X2.3031 Y1.2030 F50.00
G01 X2.3093 Y1.2085 F50.00
G01 X2.8114 Y1.7106 F50.00
G01 X2.8692 Y1.7715 F50.00
G01 X2.9178 Y1.8053 F50.00
G01 X2.9640 Y1.8429 F50.00
G01 X2.9958 Y1.8598 F50.00
G01 X3.0249 Y1.8798 F50.00
G01 X3.0794 Y1.9033 F50.00
G01 X3.1096 Y1.9190 F50.00
G01 X3.1154 Y1.9224 F50.00
G01 X3.1220 Y1.9273 F50.00
G01 X3.1269 Y1.9318 F50.00
G01 X3.1369 Y1.9436 F50.00
G01 X3.1408 Y1.9490 F50.00
G01 X3.1456 Y1.9578 F50.00
G01 X3.1491 Y1.9673 F50.00
G01 X3.1514 Y1.9789 F50.00
G01 X3.1521 Y1.9874 F50.00
G01 X3.1521 Y2.5262 F50.00
G01 X3.1660 Y2.6491 F50.00
G01 X3.2205 Y2.8050 F50.00
G01 X3.3084 Y2.9448 F50.00
G01 X3.4252 Y3.0616 F50.00
G01 X3.5650 Y3.1494 F50.00
G01 X3.7209 Y3.2040 F50.00
G01 X3.8438 Y3.2179 F50.00
G01 X5.2762 Y3.2179 F50.00
G01 X5.3991 Y3.2040 F50.00
G01 X5.5550 Y3.1495 F50.00
G01 X5.6948 Y3.0616 F50.00
G01 X5.7538 Y3.0026 F50.00
G01 X5.7601 Y2.9973 F50.00
G01 X5.7657 Y2.9936 F50.00
G01 X5.7730 Y2.9898 F50.00
G01 X5.7842 Y2.9851 F50.00
G01 X5.7921 Y2.9826 F50.00
G01 X5.7987 Y2.9813 F50.00
G01 X5.8069 Y2.9806 F50.00
G01 X5.8152 Y2.9809 F50.00
G01 X5.8234 Y2.9823 F50.00
G01 X5.8314 Y2.9846 F50.00
G01 X5.8441 Y2.9898 F50.00
G01 X5.8501 Y2.9928 F50.00
G01 X5.8583 Y2.9983 F50.00
G01 X5.8645 Y3.0038 F50.00
G01 X7.1814 Y4.3207 F50.00
G01 X7.2392 Y4.3815 F50.00
G01 X7.2878 Y4.4153 F50.00
G01 X7.3340 Y4.4529 F50.00
G01 X7.3658 Y4.4697 F50.00
G01 X7.3950 Y4.4898 F50.00
G01 X7.4496 Y4.5134 F50.00
G01 X7.5022 Y4.5408 F50.00
G01 X7.5368 Y4.5508 F50.00
G01 X7.5693 Y4.5647 F50.00
G01 X7.6274 Y4.5767 F50.00
G01 X7.6846 Y4.5930 F50.00
G01 X7.7205 Y4.5959 F50.00
G01 X7.7551 Y4.6029 F50.00
G01 X7.8144 Y4.6029 F50.00
G01 X7.8738 Y4.6074 F50.00
G01 X7.9060 Y4.6033 F50.00
G01 X7.9138 Y4.6029 F50.00
G01 X11.1373 Y4.6029 F50.00
G01 X11.2212 Y4.6050 F50.00
G01 X11.2798 Y4.5945 F50.00
G01 X11.3387 Y4.5885 F50.00
G01 X11.3726 Y4.5780 F50.00
G01 X11.4079 Y4.5715 F50.00
G01 X11.4630 Y4.5495 F50.00
G01 X11.5198 Y4.5317 F50.00
G01 X11.5509 Y4.5146 F50.00
G01 X11.5841 Y4.5011 F50.00
G01 X11.6338 Y4.4684 F50.00
G01 X11.6857 Y4.4396 F50.00
G01 X11.7131 Y4.4163 F50.00
G01 X11.7425 Y4.3967 F50.00
G01 X11.7847 Y4.3547 F50.00
G01 X11.8296 Y4.3160 F50.00
G01 X11.8495 Y4.2903 F50.00
G01 X11.8547 Y4.2845 F50.00
G01 X13.7707 Y2.3685 F50.00
G01 X13.8315 Y2.3108 F50.00
G01 X13.8653 Y2.2622 F50.00
G01 X13.9029 Y2.2160 F50.00
G01 X13.9194 Y2.1847 F50.00
G01 X13.9398 Y2.1550 F50.00
G01 X13.9633 Y2.1006 F50.00
G01 X13.9908 Y2.0478 F50.00
G01 X14.0008 Y2.0133 F50.00
G01 X14.0147 Y1.9807 F50.00
G01 X14.0267 Y1.9226 F50.00
G01 X14.0430 Y1.8654 F50.00
G01 X14.0458 Y1.8302 F50.00
G01 X14.0529 Y1.7949 F50.00
G01 X14.0529 Y1.7356 F50.00
G01 X14.0574 Y1.6762 F50.00
G01 X14.0533 Y1.6440 F50.00
G01 X14.0529 Y1.6362 F50.00
G01 X14.0529 Y1.0013 F50.00
G01 X14.0536 Y0.9914 F50.00
G01 X14.0553 Y0.9833 F50.00
G01 X14.0574 Y0.9769 F50.00
G01 X14.0620 Y0.9657 F50.00
G01 X14.0667 Y0.9570 F50.00
G01 X14.0737 Y0.9477 F50.00
G01 X14.0822 Y0.9398 F50.00
G01 X14.0932 Y0.9323 F50.00
G01 X14.1187 Y0.9187 F50.00
G01 X14.2213 Y0.8344 F50.00
G01 X14.2280 Y0.8296 F50.00
G01 X14.2384 Y0.8242 F50.00
G01 X14.2530 Y0.8194 F50.00
G01 X14.2627 Y0.8173 F50.00
G01 X14.2727 Y0.8165 F50.00
G01 X14.2793 Y0.8169 F50.00
G01 X14.2859 Y0.8178 F50.00
G01 X14.2923 Y0.8194 F50.00
G01 X14.3001 Y0.8223 F50.00
G01 X14.3166 Y0.8312 F50.00
G01 X14.3220 Y0.8350 F50.00
G01 X14.3282 Y0.8405 F50.00
G01 X14.3327 Y0.8454 F50.00
G01 X14.3366 Y0.8507 F50.00
G01 X14.3401 Y0.8564 F50.00
G01 X14.3429 Y0.8624 F50.00
G01 X14.3486 Y0.8791 F50.00
G01 X14.3499 Y0.8856 F50.00
G01 X14.3507 Y0.8938 F50.00
G01 X14.3575 Y4.3725 F50.00
G01 X31.5818 Y4.4122 F50.00
G01 X31.5814 Y3.7420 F50.00
G01 X15.4407 Y3.7048 F50.00
G01 X15.4340 Y3.7045 F50.00
G01 X15.4275 Y3.7035 F50.00
G01 X15.4163 Y3.7002 F50.00
G01 X15.4007 Y3.6934 F50.00
G01 X15.3937 Y3.6890 F50.00
G01 X15.3885 Y3.6849 F50.00
G01 X15.3837 Y3.6804 F50.00
G01 X15.3794 Y3.6754 F50.00
G01 X15.3731 Y3.6657 F50.00
G01 X15.3657 Y3.6486 F50.00
G01 X15.3638 Y3.6423 F50.00
G01 X15.3625 Y3.6358 F50.00
G01 X15.3617 Y3.6259 F50.00
G01 X15.3488 Y0.1623 F50.00
G01 X15.3492 Y0.1540 F50.00
G01 X15.3507 Y0.1458 F50.00
G01 X15.3538 Y0.1364 F50.00
G01 X15.3578 Y0.1267 F50.00
G01 X15.3608 Y0.1208 F50.00
G01 X15.3673 Y0.1112 F50.00
G01 X15.3754 Y0.1028 F50.00
G01 X15.3806 Y0.0987 F50.00
G01 X15.3862 Y0.0952 F50.00
G01 X15.3921 Y0.0922 F50.00
G01 X15.4017 Y0.0881 F50.00
G01 X15.4129 Y0.0845 F50.00
G01 X15.4245 Y0.0829 F50.00
G01 X16.8380 Y0.0829 F50.00
G01 X16.8913 Y0.0722 F50.00
G01 X16.9518 Y0.0318 F50.00
G01 X16.9922 Y-0.0287 F50.00
G01 X17.0029 Y-0.0820 F50.00
G01 X17.0029 Y-2.1180 F50.00
G01 X16.9922 Y-2.1713 F50.00
G01 X16.9518 Y-2.2318 F50.00
G01 X16.8913 Y-2.2722 F50.00
G01 X16.8380 Y-2.2829 F50.00
G01 X16.7937 Y-2.2829 F50.00
G01 X16.7838 Y-2.2838 F50.00
G01 X16.7726 Y-2.2868 F50.00
G01 X16.7553 Y-2.2942 F50.00
G01 X16.7469 Y-2.2995 F50.00
G01 X16.7406 Y-2.3049 F50.00
G01 X16.7339 Y-2.3122 F50.00
G01 X16.7292 Y-2.3191 F50.00
G01 X16.7254 Y-2.3265 F50.00
G01 X16.7191 Y-2.3424 F50.00
G01 X16.7169 Y-2.3521 F50.00
G01 X16.7162 Y-2.3603 F50.00
G01 X16.7164 Y-2.3670 F50.00
G01 X16.7172 Y-2.3736 F50.00
G01 X16.7202 Y-2.3848 F50.00
G01 X16.7276 Y-2.4020 F50.00
G01 X16.7319 Y-2.4091 F50.00
G01 X16.7360 Y-2.4143 F50.00
G01 X16.9454 Y-2.6240 F50.00
G01 X16.9503 Y-2.6284 F50.00
G01 X16.9557 Y-2.6324 F50.00
G01 X16.9643 Y-2.6373 F50.00
G01 X16.9801 Y-2.6437 F50.00
G01 X16.9914 Y-2.6464 F50.00
G01 X17.0014 Y-2.6471 F50.00
G01 X24.6969 Y-2.6471 F50.00
G01 X24.7051 Y-2.6467 F50.00
G01 X24.7370 Y-2.6431 F50.00
G01 X24.7866 Y-2.6525 F50.00
G01 X24.8369 Y-2.6601 F50.00
G01 X24.8501 Y-2.6644 F50.00
G01 X24.8951 Y-2.6882 F50.00
G01 X24.9409 Y-2.7102 F50.00
G01 X24.9522 Y-2.7183 F50.00
G01 X24.9882 Y-2.7542 F50.00
G01 X25.0254 Y-2.7888 F50.00
G01 X25.0315 Y-2.7970 F50.00
G01 X25.0362 Y-2.8023 F50.00
G01 X25.6929 Y-3.4590 F50.00
G01 X25.6991 Y-3.4645 F50.00
G01 X25.7060 Y-3.4692 F50.00
G01 X25.7133 Y-3.4730 F50.00
G01 X25.7292 Y-3.4792 F50.00
G01 X25.7389 Y-3.4814 F50.00
G01 X25.7472 Y-3.4821 F50.00
G01 X26.3642 Y-3.4822 F50.00
G01 X26.4118 Y-3.4873 F50.00
G01 X26.5296 Y-3.5312 F50.00
G01 X26.6292 Y-3.6058 F50.00
G01 X26.7038 Y-3.7054 F50.00
G01 X26.7477 Y-3.8232 F50.00
G01 X26.7529 Y-3.8708 F50.00
G01 X26.7528 Y-4.4842 F50.00
G01 X26.7477 Y-4.5318 F50.00
G01 X26.7038 Y-4.6496 F50.00
G01 X26.6292 Y-4.7492 F50.00
G01 X26.5296 Y-4.8238 F50.00
G01 X26.4118 Y-4.8677 F50.00
G01 X26.3642 Y-4.8729 F50.00
G01 X25.3758 Y-4.8729 F50.00
G01 X25.3282 Y-4.8677 F50.00
G01 X25.2104 Y-4.8238 F50.00
G01 X25.1108 Y-4.7492 F50.00
G01 X25.0362 Y-4.6496 F50.00
G01 X24.9923 Y-4.5318 F50.00
G01 X24.9871 Y-4.4842 F50.00
G01 X24.9871 Y-3.8672 F50.00
G01 X24.9862 Y-3.8573 F50.00
G01 X24.9842 Y-3.8492 F50.00
G01 X24.9786 Y-3.8349 F50.00
G01 X24.9758 Y-3.8288 F50.00
G01 X24.9705 Y-3.8204 F50.00
G01 X24.9640 Y-3.8129 F50.00
G01 X24.5871 Y-3.4360 F50.00
G01 X24.5822 Y-3.4316 F50.00
G01 X24.5768 Y-3.4276 F50.00
G01 X24.5712 Y-3.4242 F50.00
G01 X24.5539 Y-3.4168 F50.00
G01 X24.5427 Y-3.4138 F50.00
G01 X24.5311 Y-3.4129 F50.00
G01 X23.6427 Y-3.4129 F50.00
G01 X23.6328 Y-3.4136 F50.00
G01 X23.6247 Y-3.4153 F50.00
G01 X23.6184 Y-3.4174 F50.00
G01 X23.6042 Y-3.4234 F50.00
G01 X23.5943 Y-3.4295 F50.00
G01 X23.5856 Y-3.4372 F50.00
G01 X23.5813 Y-3.4422 F50.00
G01 X23.5774 Y-3.4477 F50.00
G01 X23.5721 Y-3.4580 F50.00
G01 X23.5665 Y-3.4724 F50.00
G01 X23.5649 Y-3.4788 F50.00
G01 X23.5639 Y-3.4854 F50.00
G01 X23.5636 Y-3.4920 F50.00
G01 X23.5639 Y-3.4986 F50.00
G01 X23.5649 Y-3.5052 F50.00
G01 X23.5665 Y-3.5116 F50.00
G01 X23.5687 Y-3.5179 F50.00
G01 X23.5742 Y-3.5305 F50.00
G01 X23.5774 Y-3.5363 F50.00
G01 X23.5812 Y-3.5417 F50.00
G01 X23.5855 Y-3.5467 F50.00
G01 X23.5915 Y-3.5523 F50.00
G01 X23.6092 Y-3.5658 F50.00
G01 X23.6838 Y-3.6654 F50.00
G01 X23.7277 Y-3.7832 F50.00
G01 X23.7329 Y-3.8308 F50.00
G01 X23.7328 Y-4.4442 F50.00
G01 X23.7277 Y-4.4918 F50.00
G01 X23.6838 Y-4.6096 F50.00
G01 X23.6092 Y-4.7092 F50.00
G01 X23.5096 Y-4.7838 F50.00
G01 X23.3918 Y-4.8277 F50.00
G01 X23.3442 Y-4.8329 F50.00
G01 X22.3558 Y-4.8329 F50.00
G01 X22.3082 Y-4.8277 F50.00
G01 X22.1904 Y-4.7838 F50.00
G01 X22.1538 Y-4.7567 F50.00
G01 X22.1436 Y-4.7513 F50.00
G01 X22.1341 Y-4.7481 F50.00
G01 X22.1224 Y-4.7452 F50.00
G01 X22.1158 Y-4.7442 F50.00
G01 X22.1075 Y-4.7438 F50.00
G01 X22.0992 Y-4.7445 F50.00
G01 X22.0910 Y-4.7462 F50.00
G01 X22.0831 Y-4.7489 F50.00
G01 X22.0706 Y-4.7550 F50.00
G01 X22.0649 Y-4.7584 F50.00
G01 X22.0595 Y-4.7624 F50.00
G01 X22.0545 Y-4.7669 F50.00
G01 X21.7549 Y-5.0666 F50.00
G01 X21.7486 Y-5.0743 F50.00
G01 X21.7442 Y-5.0813 F50.00
G01 X21.7380 Y-5.0955 F50.00
G01 X21.7353 Y-5.1033 F50.00
G01 X21.7334 Y-5.1131 F50.00
G01 X21.7329 Y-5.1214 F50.00
G01 X21.7329 Y-5.9844 F50.00
G01 X21.7333 Y-5.9926 F50.00
G01 X21.7369 Y-6.0245 F50.00
G01 X21.7275 Y-6.0742 F50.00
G01 X21.7199 Y-6.1244 F50.00
G01 X21.7156 Y-6.1376 F50.00
G01 X21.6918 Y-6.1826 F50.00
G01 X21.6698 Y-6.2284 F50.00
G01 X21.6617 Y-6.2397 F50.00
G01 X21.6258 Y-6.2757 F50.00
G01 X21.5912 Y-6.3129 F50.00
G01 X21.5830 Y-6.3190 F50.00
G01 X21.5777 Y-6.3237 F50.00
G01 X20.9088 Y-6.9926 F50.00
G01 X20.9033 Y-6.9987 F50.00
G01 X20.8833 Y-7.0238 F50.00
G01 X20.8416 Y-7.0523 F50.00
G01 X20.8007 Y-7.0825 F50.00
G01 X20.7883 Y-7.0887 F50.00
G01 X20.7397 Y-7.1037 F50.00
G01 X20.6917 Y-7.1205 F50.00
G01 X20.6780 Y-7.1229 F50.00
G01 X20.6272 Y-7.1229 F50.00
G01 X20.5764 Y-7.1248 F50.00
G01 X20.5663 Y-7.1232 F50.00
G01 X20.5592 Y-7.1229 F50.00
G01 X19.9114 Y-7.1229 F50.00
G01 X19.8998 Y-7.1238 F50.00
G01 X19.8901 Y-7.1263 F50.00
G01 X19.8758 Y-7.1320 F50.00
G01 X19.8699 Y-7.1350 F50.00
G01 X19.8629 Y-7.1395 F50.00
G01 X19.8566 Y-7.1449 F50.00
G01 X19.5060 Y-7.4954 F50.00
G01 X19.4995 Y-7.5029 F50.00
G01 X19.4942 Y-7.5113 F50.00
G01 X19.4880 Y-7.5255 F50.00
G01 X19.4853 Y-7.5333 F50.00
G01 X19.4834 Y-7.5431 F50.00
G01 X19.4829 Y-7.5514 F50.00
G01 X19.4829 Y-11.3944 F50.00
G01 X19.4833 Y-11.4026 F50.00
G01 X19.4869 Y-11.4345 F50.00
G01 X19.4775 Y-11.4842 F50.00
G01 X19.4699 Y-11.5344 F50.00
G01 X19.4656 Y-11.5476 F50.00
G01 X19.4418 Y-11.5926 F50.00
G01 X19.4198 Y-11.6384 F50.00
G01 X19.4117 Y-11.6497 F50.00
G01 X19.3758 Y-11.6857 F50.00
G01 X19.3412 Y-11.7229 F50.00
G01 X19.3330 Y-11.7290 F50.00
G01 X19.3277 Y-11.7337 F50.00
G01 X19.0849 Y-11.9766 F50.00
G01 X19.0795 Y-11.9829 F50.00
G01 X19.0750 Y-11.9899 F50.00
G01 X19.0720 Y-11.9958 F50.00
G01 X19.0663 Y-12.0101 F50.00
G01 X19.0636 Y-12.0214 F50.00
G01 X19.0629 Y-12.0314 F50.00
G01 X19.0629 Y-12.5289 F50.00
G01 X19.0638 Y-12.5371 F50.00
G01 X19.0658 Y-12.5452 F50.00
G01 X19.0714 Y-12.5596 F50.00
G01 X19.0750 Y-12.5670 F50.00
G01 X19.0795 Y-12.5740 F50.00
G01 X19.0849 Y-12.5803 F50.00
G01 X19.0910 Y-12.5860 F50.00
G01 X19.0991 Y-12.5917 F50.00
G01 X19.1080 Y-12.5962 F50.00
G01 X19.1192 Y-12.6007 F50.00
G01 X19.1256 Y-12.6027 F50.00
G01 X19.1370 Y-12.6045 F50.00
G01 X19.1437 Y-12.6047 F50.00
G01 X19.1503 Y-12.6042 F50.00
G01 X19.1568 Y-12.6030 F50.00
G01 X19.1632 Y-12.6013 F50.00
G01 X19.1806 Y-12.5941 F50.00
G01 X19.1905 Y-12.5879 F50.00
G01 X19.1993 Y-12.5802 F50.00
G01 X19.2046 Y-12.5738 F50.00
G01 X19.2091 Y-12.5667 F50.00
G01 X19.2146 Y-12.5563 F50.00
G01 X19.2182 Y-12.5468 F50.00
G01 X19.2225 Y-12.5259 F50.00
G01 X19.2301 Y-12.4756 F50.00
G01 X19.2344 Y-12.4624 F50.00
G01 X19.2582 Y-12.4174 F50.00
G01 X19.2802 Y-12.3716 F50.00
G01 X19.2883 Y-12.3603 F50.00
G01 X19.3242 Y-12.3243 F50.00
G01 X19.3588 Y-12.2871 F50.00
G01 X19.3670 Y-12.2810 F50.00
G01 X19.3723 Y-12.2763 F50.00
G01 X20.1112 Y-11.5374 F50.00
G01 X20.1187 Y-11.5285 F50.00
G01 X20.1222 Y-11.5229 F50.00
G01 X20.1252 Y-11.5169 F50.00
G01 X20.1298 Y-11.5058 F50.00
G01 X20.1319 Y-11.4996 F50.00
G01 X20.1333 Y-11.4932 F50.00
G01 X20.1343 Y-11.4851 F50.00
G01 X20.1343 Y-11.4786 F50.00
G01 X20.1337 Y-11.4721 F50.00
G01 X20.1328 Y-11.4658 F50.00
G01 X20.1314 Y-11.4597 F50.00
G01 X20.0804 Y-11.2806 F50.00
G01 X20.0627 Y-11.0900 F50.00
G01 X20.0804 Y-10.8994 F50.00
G01 X20.1328 Y-10.7153 F50.00
G01 X20.2181 Y-10.5439 F50.00
G01 X20.3334 Y-10.3912 F50.00
G01 X20.4749 Y-10.2622 F50.00
G01 X20.6376 Y-10.1615 F50.00
G01 X20.8161 Y-10.0923 F50.00
G01 X21.0043 Y-10.0571 F50.00
G01 X21.1957 Y-10.0571 F50.00
G01 X21.3839 Y-10.0923 F50.00
G01 X21.5624 Y-10.1615 F50.00
G01 X21.7251 Y-10.2622 F50.00
G01 X21.8666 Y-10.3912 F50.00
G01 X21.9819 Y-10.5439 F50.00
G01 X22.0413 Y-10.6633 F50.00
G01 X22.0474 Y-10.6732 F50.00
G01 X22.0516 Y-10.6783 F50.00
G01 X22.0562 Y-10.6831 F50.00
G01 X22.0666 Y-10.6920 F50.00
G01 X22.0733 Y-10.6967 F50.00
G01 X22.0805 Y-10.7005 F50.00
G01 X22.0866 Y-10.7029 F50.00
G01 X22.0944 Y-10.7051 F50.00
G01 X22.1028 Y-10.7065 F50.00
G01 X22.1122 Y-10.7071 F50.00
G01 X23.1855 Y-10.7071 F50.00
G01 X23.1955 Y-10.7064 F50.00
G01 X23.2036 Y-10.7047 F50.00
G01 X23.2099 Y-10.7026 F50.00
G01 X23.2211 Y-10.6980 F50.00
G01 X23.2270 Y-10.6950 F50.00
G01 X23.2325 Y-10.6915 F50.00
G01 X23.2390 Y-10.6864 F50.00
G01 X23.2437 Y-10.6817 F50.00
G01 X23.2479 Y-10.6766 F50.00
G01 X23.2524 Y-10.6697 F50.00
G01 X23.2593 Y-10.6554 F50.00
G01 X23.2629 Y-10.6445 F50.00
G01 X23.2640 Y-10.6381 F50.00
G01 X23.2673 Y-10.6082 F50.00
G01 X23.3112 Y-10.4904 F50.00
G01 X23.3858 Y-10.3908 F50.00
G01 X23.4854 Y-10.3162 F50.00
G01 X23.6032 Y-10.2723 F50.00
G01 X23.6508 Y-10.2671 F50.00
G01 X24.2642 Y-10.2672 F50.00
G01 X24.3118 Y-10.2723 F50.00
G01 X24.4296 Y-10.3162 F50.00
G01 X24.5292 Y-10.3908 F50.00
G01 X24.6038 Y-10.4904 F50.00
G01 X24.6477 Y-10.6082 F50.00
G01 X24.6529 Y-10.6558 F50.00
G01 X24.6528 Y-11.6442 F50.00
G01 X24.6477 Y-11.6918 F50.00
G01 X24.6038 Y-11.8096 F50.00
G01 X24.5292 Y-11.9092 F50.00
G01 X24.4296 Y-11.9838 F50.00
G01 X24.3118 Y-12.0277 F50.00
G01 X24.2642 Y-12.0329 F50.00
G01 X23.6508 Y-12.0329 F50.00
G01 X23.6032 Y-12.0277 F50.00
G01 X23.4854 Y-11.9838 F50.00
G01 X23.3858 Y-11.9092 F50.00
G01 X23.3112 Y-11.8096 F50.00
G01 X23.2673 Y-11.6918 F50.00
G01 X23.2621 Y-11.6442 F50.00
G01 X23.2621 Y-11.5503 F50.00
G01 X23.2612 Y-11.5404 F50.00
G01 X23.2587 Y-11.5308 F50.00
G01 X23.2530 Y-11.5165 F50.00
G01 X23.2492 Y-11.5091 F50.00
G01 X23.2434 Y-11.5010 F50.00
G01 X23.2366 Y-11.4937 F50.00
G01 X23.2301 Y-11.4886 F50.00
G01 X23.2215 Y-11.4834 F50.00
G01 X23.2073 Y-11.4774 F50.00
G01 X23.1978 Y-11.4745 F50.00
G01 X23.1913 Y-11.4734 F50.00
G01 X23.1830 Y-11.4729 F50.00
G01 X22.1122 Y-11.4729 F50.00
G01 X22.1006 Y-11.4738 F50.00
G01 X22.0941 Y-11.4753 F50.00
G01 X22.0878 Y-11.4774 F50.00
G01 X22.0767 Y-11.4820 F50.00
G01 X22.0708 Y-11.4849 F50.00
G01 X22.0640 Y-11.4894 F50.00
G01 X22.0589 Y-11.4935 F50.00
G01 X22.0543 Y-11.4980 F50.00
G01 X22.0501 Y-11.5031 F50.00
G01 X22.0452 Y-11.5099 F50.00
G01 X22.0420 Y-11.5153 F50.00
G01 X21.9819 Y-11.6361 F50.00
G01 X21.8666 Y-11.7888 F50.00
G01 X21.7251 Y-11.9178 F50.00
G01 X21.5624 Y-12.0185 F50.00
G01 X21.3839 Y-12.0877 F50.00
G01 X21.1957 Y-12.1229 F50.00
G01 X21.0043 Y-12.1229 F50.00
G01 X20.8161 Y-12.0877 F50.00
G01 X20.7384 Y-12.0576 F50.00
G01 X20.7272 Y-12.0546 F50.00
G01 X20.7156 Y-12.0536 F50.00
G01 X20.7035 Y-12.0539 F50.00
G01 X20.6955 Y-12.0548 F50.00
G01 X20.6891 Y-12.0561 F50.00
G01 X20.6829 Y-12.0581 F50.00
G01 X20.6769 Y-12.0607 F50.00
G01 X20.6712 Y-12.0639 F50.00
G01 X20.6625 Y-12.0699 F50.00
G01 X20.6554 Y-12.0760 F50.00
G01 X20.0049 Y-12.7266 F50.00
G01 X19.9976 Y-12.7357 F50.00
G01 X19.9942 Y-12.7413 F50.00
G01 X19.9914 Y-12.7474 F50.00
G01 X19.9868 Y-12.7586 F50.00
G01 X19.9849 Y-12.7649 F50.00
G01 X19.9834 Y-12.7731 F50.00
G01 X19.9829 Y-12.7797 F50.00
G01 X19.9828 Y-13.2199 F50.00
G01 X19.9836 Y-13.2298 F50.00
G01 X19.9849 Y-13.2363 F50.00
G01 X19.9868 Y-13.2426 F50.00
G01 X19.9942 Y-13.2599 F50.00
G01 X19.9976 Y-13.2656 F50.00
G01 X20.0016 Y-13.2709 F50.00
G01 X20.0097 Y-13.2792 F50.00
G01 X20.0149 Y-13.2833 F50.00
G01 X20.0220 Y-13.2876 F50.00
G01 X20.0377 Y-13.2945 F50.00
G01 X20.0440 Y-13.2965 F50.00
G01 X20.0504 Y-13.2980 F50.00
G01 X20.0620 Y-13.2990 F50.00
G01 X20.0703 Y-13.2985 F50.00
G01 X20.0800 Y-13.2965 F50.00
G01 X20.0863 Y-13.2945 F50.00
G01 X20.0990 Y-13.2892 F50.00
G01 X20.1048 Y-13.2861 F50.00
G01 X20.1115 Y-13.2815 F50.00
G01 X20.1165 Y-13.2773 F50.00
G01 X20.1221 Y-13.2713 F50.00
G01 X20.1281 Y-13.2632 F50.00
G01 X20.1321 Y-13.2565 F50.00
G01 X20.2181 Y-13.0839 F50.00
G01 X20.3334 Y-12.9312 F50.00
G01 X20.4749 Y-12.8022 F50.00
G01 X20.6376 Y-12.7015 F50.00
G01 X20.8161 Y-12.6323 F50.00
G01 X21.0043 Y-12.5971 F50.00
G01 X21.1957 Y-12.5971 F50.00
G01 X21.3839 Y-12.6323 F50.00
G01 X21.5624 Y-12.7015 F50.00
G01 X21.7251 Y-12.8022 F50.00
G01 X21.8666 Y-12.9312 F50.00
G01 X21.9819 Y-13.0839 F50.00
G01 X22.0413 Y-13.2033 F50.00
G01 X22.0446 Y-13.2091 F50.00
G01 X22.0484 Y-13.2145 F50.00
G01 X22.0550 Y-13.2219 F50.00
G01 X22.0641 Y-13.2299 F50.00
G01 X22.0692 Y-13.2340 F50.00
G01 X22.0761 Y-13.2383 F50.00
G01 X22.0835 Y-13.2418 F50.00
G01 X22.0913 Y-13.2443 F50.00
G01 X22.1013 Y-13.2463 F50.00
G01 X22.1091 Y-13.2471 F50.00
G01 X23.2255 Y-13.2471 F50.00
G01 X23.2321 Y-13.2468 F50.00
G01 X23.2387 Y-13.2459 F50.00
G01 X23.2483 Y-13.2432 F50.00
G01 X23.2610 Y-13.2380 F50.00
G01 X23.2670 Y-13.2350 F50.00
G01 X23.2739 Y-13.2305 F50.00
G01 X23.2803 Y-13.2251 F50.00
G01 X23.2859 Y-13.2190 F50.00
G01 X23.2908 Y-13.2123 F50.00
G01 X23.2948 Y-13.2051 F50.00
G01 X23.3007 Y-13.1908 F50.00
G01 X23.3037 Y-13.1796 F50.00
G01 X23.3045 Y-13.1730 F50.00
G01 X23.3047 Y-13.1658 F50.00
G01 X23.3098 Y-13.1182 F50.00
G01 X23.3537 Y-13.0004 F50.00
G01 X23.4283 Y-12.9008 F50.00
G01 X23.5279 Y-12.8262 F50.00
G01 X23.6457 Y-12.7823 F50.00
G01 X23.6933 Y-12.7771 F50.00
G01 X24.3067 Y-12.7772 F50.00
G01 X24.3543 Y-12.7823 F50.00
G01 X24.4721 Y-12.8262 F50.00
G01 X24.5717 Y-12.9008 F50.00
G01 X24.6463 Y-13.0004 F50.00
G01 X24.6902 Y-13.1182 F50.00
G01 X24.6954 Y-13.1658 F50.00
G01 X24.6953 Y-14.1542 F50.00
G01 X24.6902 Y-14.2018 F50.00
G01 X24.6463 Y-14.3196 F50.00
G01 X24.5717 Y-14.4192 F50.00
G01 X24.4721 Y-14.4938 F50.00
G01 X24.3543 Y-14.5377 F50.00
G01 X24.3067 Y-14.5429 F50.00
G01 X23.6933 Y-14.5429 F50.00
G01 X23.6457 Y-14.5377 F50.00
G01 X23.5279 Y-14.4938 F50.00
G01 X23.4283 Y-14.4192 F50.00
G01 X23.3537 Y-14.3196 F50.00
G01 X23.3098 Y-14.2018 F50.00
G01 X23.3046 Y-14.1542 F50.00
G01 X23.3046 Y-14.0920 F50.00
G01 X23.3043 Y-14.0854 F50.00
G01 X23.3034 Y-14.0788 F50.00
G01 X23.3017 Y-14.0724 F50.00
G01 X23.2955 Y-14.0565 F50.00
G01 X23.2917 Y-14.0491 F50.00
G01 X23.2880 Y-14.0436 F50.00
G01 X23.2826 Y-14.0372 F50.00
G01 X23.2765 Y-14.0316 F50.00
G01 X23.2698 Y-14.0267 F50.00
G01 X23.2640 Y-14.0234 F50.00
G01 X23.2467 Y-14.0163 F50.00
G01 X23.2354 Y-14.0136 F50.00
G01 X23.2255 Y-14.0129 F50.00
G01 X22.1122 Y-14.0129 F50.00
G01 X22.1056 Y-14.0132 F50.00
G01 X22.0990 Y-14.0141 F50.00
G01 X22.0878 Y-14.0174 F50.00
G01 X22.0767 Y-14.0220 F50.00
G01 X22.0694 Y-14.0258 F50.00
G01 X22.0640 Y-14.0294 F50.00
G01 X22.0589 Y-14.0335 F50.00
G01 X22.0543 Y-14.0380 F50.00
G01 X22.0501 Y-14.0431 F50.00
G01 X22.0452 Y-14.0499 F50.00
G01 X22.0420 Y-14.0553 F50.00
G01 X21.9819 Y-14.1761 F50.00
G01 X21.8666 Y-14.3288 F50.00
G01 X21.7251 Y-14.4578 F50.00
G01 X21.5624 Y-14.5585 F50.00
G01 X21.3839 Y-14.6277 F50.00
G01 X21.1957 Y-14.6629 F50.00
G01 X21.0043 Y-14.6629 F50.00
G01 X20.8161 Y-14.6277 F50.00
G01 X20.7390 Y-14.5978 F50.00
G01 X20.7311 Y-14.5955 F50.00
G01 X20.7229 Y-14.5942 F50.00
G01 X20.7163 Y-14.5938 F50.00
G01 X20.7041 Y-14.5941 F50.00
G01 X20.6975 Y-14.5948 F50.00
G01 X20.6910 Y-14.5961 F50.00
G01 X20.6847 Y-14.5980 F50.00
G01 X20.6785 Y-14.6005 F50.00
G01 X20.6727 Y-14.6036 F50.00
G01 X20.6658 Y-14.6083 F50.00
G01 X20.6596 Y-14.6138 F50.00
G01 X20.6502 Y-14.6238 F50.00
G01 X20.6461 Y-14.6289 F50.00
G01 X20.6418 Y-14.6358 F50.00
G01 X20.6384 Y-14.6431 F50.00
G01 X20.6359 Y-14.6509 F50.00
G01 X20.6337 Y-14.6613 F50.00
G01 X20.6329 Y-14.6691 F50.00
G01 X20.6329 Y-15.0344 F50.00
G01 X20.6333 Y-15.0426 F50.00
G01 X20.6369 Y-15.0745 F50.00
G01 X20.6289 Y-15.1166 F50.00
G01 X20.6281 Y-15.1282 F50.00
G01 X20.6289 Y-15.1381 F50.00
G01 X20.6325 Y-15.1548 F50.00
G01 X20.6366 Y-15.1657 F50.00
G01 X20.6416 Y-15.1743 F50.00
G01 X20.6478 Y-15.1821 F50.00
G01 X20.6551 Y-15.1889 F50.00
G01 X20.6678 Y-15.1976 F50.00
G01 X20.6751 Y-15.2018 F50.00
G01 X20.6845 Y-15.2055 F50.00
G01 X20.6926 Y-15.2075 F50.00
G01 X20.7010 Y-15.2086 F50.00
G01 X20.7094 Y-15.2085 F50.00
G01 X20.7224 Y-15.2072 F50.00
G01 X20.7324 Y-15.2047 F50.00
G01 X20.8161 Y-15.1723 F50.00
G01 X21.0043 Y-15.1371 F50.00
G01 X21.1957 Y-15.1371 F50.00
G01 X21.3839 Y-15.1723 F50.00
G01 X21.5624 Y-15.2415 F50.00
G01 X21.7251 Y-15.3422 F50.00
G01 X21.8666 Y-15.4712 F50.00
G01 X21.9819 Y-15.6239 F50.00
G01 X22.0413 Y-15.7433 F50.00
G01 X22.0474 Y-15.7532 F50.00
G01 X22.0516 Y-15.7583 F50.00
G01 X22.0575 Y-15.7642 F50.00
G01 X22.0666 Y-15.7720 F50.00
G01 X22.0747 Y-15.7775 F50.00
G01 X22.0805 Y-15.7805 F50.00
G01 X22.0881 Y-15.7834 F50.00
G01 X22.0944 Y-15.7851 F50.00
G01 X22.1044 Y-15.7867 F50.00
G01 X22.1122 Y-15.7871 F50.00
G01 X26.1036 Y-15.7870 F50.00
G01 X26.1118 Y-15.7859 F50.00
G01 X26.1183 Y-15.7842 F50.00
G01 X26.1342 Y-15.7780 F50.00
G01 X26.1443 Y-15.7724 F50.00
G01 X26.1497 Y-15.7684 F50.00
G01 X26.1546 Y-15.7640 F50.00
G01 X27.2640 Y-14.6546 F50.00
G01 X27.2695 Y-14.6484 F50.00
G01 X27.2750 Y-14.6401 F50.00
G01 X27.2786 Y-14.6327 F50.00
G01 X27.2842 Y-14.6183 F50.00
G01 X27.2864 Y-14.6086 F50.00
G01 X27.2871 Y-14.6003 F50.00
G01 X27.2871 Y-14.0731 F50.00
G01 X27.2868 Y-14.0665 F50.00
G01 X27.2859 Y-14.0599 F50.00
G01 X27.2842 Y-14.0535 F50.00
G01 X27.2780 Y-14.0376 F50.00
G01 X27.2724 Y-14.0274 F50.00
G01 X27.2651 Y-14.0183 F50.00
G01 X27.2564 Y-14.0106 F50.00
G01 X27.2465 Y-14.0045 F50.00
G01 X27.2308 Y-13.9979 F50.00
G01 X27.2245 Y-13.9960 F50.00
G01 X27.2180 Y-13.9947 F50.00
G01 X27.2098 Y-13.9940 F50.00
G01 X27.2015 Y-13.9943 F50.00
G01 X27.1950 Y-13.9952 F50.00
G01 X27.1845 Y-13.9976 F50.00
G01 X27.1705 Y-14.0025 F50.00
G01 X27.1583 Y-14.0087 F50.00
G01 X27.1097 Y-14.0237 F50.00
G01 X27.0617 Y-14.0405 F50.00
G01 X27.0480 Y-14.0429 F50.00
G01 X26.9972 Y-14.0429 F50.00
G01 X26.9464 Y-14.0448 F50.00
G01 X26.9363 Y-14.0432 F50.00
G01 X26.9292 Y-14.0429 F50.00
G01 X26.5978 Y-14.0429 F50.00
G01 X26.5879 Y-14.0438 F50.00
G01 X26.5799 Y-14.0458 F50.00
G01 X26.5655 Y-14.0514 F50.00
G01 X26.5595 Y-14.0542 F50.00
G01 X26.5524 Y-14.0586 F50.00
G01 X26.5472 Y-14.0626 F50.00
G01 X26.5424 Y-14.0672 F50.00
G01 X26.5380 Y-14.0722 F50.00
G01 X26.5342 Y-14.0777 F50.00
G01 X26.5309 Y-14.0835 F50.00
G01 X26.5238 Y-14.1008 F50.00
G01 X26.5216 Y-14.1088 F50.00
G01 X26.5205 Y-14.1170 F50.00
G01 X26.5203 Y-14.1542 F50.00
G01 X26.5152 Y-14.2018 F50.00
G01 X26.4713 Y-14.3196 F50.00
G01 X26.3967 Y-14.4192 F50.00
G01 X26.2971 Y-14.4938 F50.00
G01 X26.1793 Y-14.5377 F50.00
G01 X26.1317 Y-14.5429 F50.00
G01 X25.5183 Y-14.5429 F50.00
G01 X25.4707 Y-14.5377 F50.00
G01 X25.3529 Y-14.4938 F50.00
G01 X25.2533 Y-14.4192 F50.00
G01 X25.1787 Y-14.3196 F50.00
G01 X25.1348 Y-14.2018 F50.00
G01 X25.1296 Y-14.1542 F50.00
G01 X25.1296 Y-13.1658 F50.00
G01 X25.1348 Y-13.1182 F50.00
G01 X25.1787 Y-13.0004 F50.00
G01 X25.2533 Y-12.9008 F50.00
G01 X25.3529 Y-12.8262 F50.00
G01 X25.4707 Y-12.7823 F50.00
G01 X25.5183 Y-12.7771 F50.00
G01 X26.1317 Y-12.7772 F50.00
G01 X26.1793 Y-12.7823 F50.00
G01 X26.2971 Y-12.8262 F50.00
G01 X26.3967 Y-12.9008 F50.00
G01 X26.4713 Y-13.0004 F50.00
G01 X26.5152 Y-13.1182 F50.00
G01 X26.5204 Y-13.1658 F50.00
G01 X26.5205 Y-13.2030 F50.00
G01 X26.5213 Y-13.2096 F50.00
G01 X26.5233 Y-13.2176 F50.00
G01 X26.5295 Y-13.2335 F50.00
G01 X26.5342 Y-13.2423 F50.00
G01 X26.5412 Y-13.2516 F50.00
G01 X26.5459 Y-13.2563 F50.00
G01 X26.5511 Y-13.2605 F50.00
G01 X26.5610 Y-13.2666 F50.00
G01 X26.5767 Y-13.2732 F50.00
G01 X26.5863 Y-13.2759 F50.00
G01 X26.5978 Y-13.2771 F50.00
G01 X26.8020 Y-13.2771 F50.00
G01 X26.8102 Y-13.2762 F50.00
G01 X26.8183 Y-13.2742 F50.00
G01 X26.8326 Y-13.2686 F50.00
G01 X26.8401 Y-13.2650 F50.00
G01 X26.8471 Y-13.2605 F50.00
G01 X26.8546 Y-13.2540 F50.00
G01 X27.2651 Y-12.8434 F50.00
G01 X27.2714 Y-12.8357 F50.00
G01 X27.2758 Y-12.8287 F50.00
G01 X27.2820 Y-12.8145 F50.00
G01 X27.2847 Y-12.8067 F50.00
G01 X27.2866 Y-12.7969 F50.00
G01 X27.2871 Y-12.7886 F50.00
G01 X27.2871 Y-11.7514 F50.00
G01 X27.2868 Y-11.7447 F50.00
G01 X27.2859 Y-11.7382 F50.00
G01 X27.2826 Y-11.7270 F50.00
G01 X27.2780 Y-11.7158 F50.00
G01 X27.2750 Y-11.7099 F50.00
G01 X27.2705 Y-11.7029 F50.00
G01 X27.2663 Y-11.6978 F50.00
G01 X27.1246 Y-11.5560 F50.00
G01 X27.1171 Y-11.5495 F50.00
G01 X27.1087 Y-11.5442 F50.00
G01 X27.0945 Y-11.5380 F50.00
G01 X27.0867 Y-11.5353 F50.00
G01 X27.0769 Y-11.5334 F50.00
G01 X27.0686 Y-11.5329 F50.00
G01 X26.5570 Y-11.5329 F50.00
G01 X26.5504 Y-11.5332 F50.00
G01 X26.5422 Y-11.5345 F50.00
G01 X26.5342 Y-11.5368 F50.00
G01 X26.5199 Y-11.5427 F50.00
G01 X26.5127 Y-11.5467 F50.00
G01 X26.5060 Y-11.5516 F50.00
G01 X26.4999 Y-11.5572 F50.00
G01 X26.4936 Y-11.5649 F50.00
G01 X26.4892 Y-11.5720 F50.00
G01 X26.4818 Y-11.5892 F50.00
G01 X26.4799 Y-11.5956 F50.00
G01 X26.4786 Y-11.6021 F50.00
G01 X26.4779 Y-11.6103 F50.00
G01 X26.4778 Y-11.6442 F50.00
G01 X26.4727 Y-11.6918 F50.00
G01 X26.4288 Y-11.8096 F50.00
G01 X26.3542 Y-11.9092 F50.00
G01 X26.2546 Y-11.9838 F50.00
G01 X26.1368 Y-12.0277 F50.00
G01 X26.0892 Y-12.0329 F50.00
G01 X25.4758 Y-12.0329 F50.00
G01 X25.4282 Y-12.0277 F50.00
G01 X25.3104 Y-11.9838 F50.00
G01 X25.2108 Y-11.9092 F50.00
G01 X25.1362 Y-11.8096 F50.00
G01 X25.0923 Y-11.6918 F50.00
G01 X25.0871 Y-11.6442 F50.00
G01 X25.0871 Y-10.6558 F50.00
G01 X25.0923 Y-10.6082 F50.00
G01 X25.1362 Y-10.4904 F50.00
G01 X25.2108 Y-10.3908 F50.00
G01 X25.3107 Y-10.3160 F50.00
G01 X25.3179 Y-10.3123 F50.00
G01 X25.3248 Y-10.3077 F50.00
G01 X25.3375 Y-10.2963 F50.00
G01 X25.3441 Y-10.2888 F50.00
G01 X25.3495 Y-10.2805 F50.00
G01 X25.3537 Y-10.2714 F50.00
G01 X25.3564 Y-10.2619 F50.00
G01 X25.3578 Y-10.2520 F50.00
G01 X25.3582 Y-10.2366 F50.00
G01 X25.3571 Y-10.2268 F50.00
G01 X25.3540 Y-10.2158 F50.00
G01 X25.3492 Y-10.2054 F50.00
G01 X25.3421 Y-10.1945 F50.00
G01 X25.3357 Y-10.1872 F50.00
G01 X22.5974 Y-7.4488 F50.00
G01 X22.5913 Y-7.4433 F50.00
G01 X22.5662 Y-7.4233 F50.00
G01 X22.5377 Y-7.3816 F50.00
G01 X22.5075 Y-7.3407 F50.00
G01 X22.5013 Y-7.3283 F50.00
G01 X22.4863 Y-7.2797 F50.00
G01 X22.4695 Y-7.2317 F50.00
G01 X22.4671 Y-7.2180 F50.00
G01 X22.4671 Y-7.1672 F50.00
G01 X22.4652 Y-7.1164 F50.00
G01 X22.4668 Y-7.1062 F50.00
G01 X22.4671 Y-7.0992 F50.00
G01 X22.4671 Y-6.7353 F50.00
G01 X22.4664 Y-6.7271 F50.00
G01 X22.4642 Y-6.7174 F50.00
G01 X22.4586 Y-6.7030 F50.00
G01 X22.4558 Y-6.6970 F50.00
G01 X22.4524 Y-6.6913 F50.00
G01 X22.4484 Y-6.6860 F50.00
G01 X22.4440 Y-6.6810 F50.00
G01 X22.4378 Y-6.6755 F50.00
G01 X22.4323 Y-6.6717 F50.00
G01 X22.4265 Y-6.6684 F50.00
G01 X22.4092 Y-6.6613 F50.00
G01 X22.4012 Y-6.6591 F50.00
G01 X22.3930 Y-6.6580 F50.00
G01 X22.3558 Y-6.6579 F50.00
G01 X22.3082 Y-6.6527 F50.00
G01 X22.1904 Y-6.6088 F50.00
G01 X22.0908 Y-6.5342 F50.00
G01 X22.0162 Y-6.4346 F50.00
G01 X21.9723 Y-6.3168 F50.00
G01 X21.9671 Y-6.2692 F50.00
G01 X21.9671 Y-5.6558 F50.00
G01 X21.9723 Y-5.6082 F50.00
G01 X22.0162 Y-5.4904 F50.00
G01 X22.0908 Y-5.3908 F50.00
G01 X22.1904 Y-5.3162 F50.00
G01 X22.3082 Y-5.2723 F50.00
G01 X22.3558 Y-5.2671 F50.00
G01 X23.3442 Y-5.2672 F50.00
G01 X23.3918 Y-5.2723 F50.00
G01 X23.5096 Y-5.3162 F50.00
G01 X23.6092 Y-5.3908 F50.00
G01 X23.6838 Y-5.4904 F50.00
G01 X23.7277 Y-5.6082 F50.00
G01 X23.7329 Y-5.6558 F50.00
G01 X23.7328 Y-6.2692 F50.00
G01 X23.7277 Y-6.3168 F50.00
G01 X23.6838 Y-6.4346 F50.00
G01 X23.6092 Y-6.5342 F50.00
G01 X23.5096 Y-6.6088 F50.00
G01 X23.3918 Y-6.6527 F50.00
G01 X23.3442 Y-6.6579 F50.00
G01 X23.3070 Y-6.6580 F50.00
G01 X23.3004 Y-6.6588 F50.00
G01 X23.2924 Y-6.6608 F50.00
G01 X23.2765 Y-6.6670 F50.00
G01 X23.2663 Y-6.6726 F50.00
G01 X23.2610 Y-6.6766 F50.00
G01 X23.2560 Y-6.6810 F50.00
G01 X23.2516 Y-6.6860 F50.00
G01 X23.2476 Y-6.6913 F50.00
G01 X23.2427 Y-6.6999 F50.00
G01 X23.2368 Y-6.7142 F50.00
G01 X23.2341 Y-6.7238 F50.00
G01 X23.2329 Y-6.7337 F50.00
G01 X23.2329 Y-6.9686 F50.00
G01 X23.2338 Y-6.9802 F50.00
G01 X23.2368 Y-6.9914 F50.00
G01 X23.2434 Y-7.0072 F50.00
G01 X23.2495 Y-7.0171 F50.00
G01 X23.2560 Y-7.0246 F50.00
G01 X26.0351 Y-9.8037 F50.00
G01 X26.0412 Y-9.8091 F50.00
G01 X26.0663 Y-9.8292 F50.00
G01 X26.0948 Y-9.8709 F50.00
G01 X26.1250 Y-9.9118 F50.00
G01 X26.1312 Y-9.9242 F50.00
G01 X26.1462 Y-9.9728 F50.00
G01 X26.1630 Y-10.0208 F50.00
G01 X26.1654 Y-10.0345 F50.00
G01 X26.1654 Y-10.0853 F50.00
G01 X26.1673 Y-10.1361 F50.00
G01 X26.1659 Y-10.1445 F50.00
G01 X26.1654 Y-10.1516 F50.00
G01 X26.1654 Y-10.2313 F50.00
G01 X26.1663 Y-10.2395 F50.00
G01 X26.1678 Y-10.2460 F50.00
G01 X26.1699 Y-10.2523 F50.00
G01 X26.1752 Y-10.2650 F50.00
G01 X26.1791 Y-10.2722 F50.00
G01 X26.1839 Y-10.2788 F50.00
G01 X26.1895 Y-10.2849 F50.00
G01 X26.1971 Y-10.2912 F50.00
G01 X26.2066 Y-10.2973 F50.00
G01 X26.2138 Y-10.3009 F50.00
G01 X26.2546 Y-10.3162 F50.00
G01 X26.3542 Y-10.3908 F50.00
G01 X26.4288 Y-10.4904 F50.00
G01 X26.4727 Y-10.6082 F50.00
G01 X26.4779 Y-10.6558 F50.00
G01 X26.4780 Y-10.6930 F50.00
G01 X26.4788 Y-10.6996 F50.00
G01 X26.4808 Y-10.7076 F50.00
G01 X26.4870 Y-10.7235 F50.00
G01 X26.4908 Y-10.7309 F50.00
G01 X26.4966 Y-10.7390 F50.00
G01 X26.5034 Y-10.7463 F50.00
G01 X26.5127 Y-10.7533 F50.00
G01 X26.5230 Y-10.7586 F50.00
G01 X26.5327 Y-10.7626 F50.00
G01 X26.5390 Y-10.7647 F50.00
G01 X26.5471 Y-10.7664 F50.00
G01 X26.5537 Y-10.7671 F50.00
G01 X27.2344 Y-10.7671 F50.00
G01 X27.2426 Y-10.7667 F50.00
G01 X27.2745 Y-10.7631 F50.00
G01 X27.3241 Y-10.7725 F50.00
G01 X27.3744 Y-10.7801 F50.00
G01 X27.3876 Y-10.7844 F50.00
G01 X27.4326 Y-10.8082 F50.00
G01 X27.4784 Y-10.8302 F50.00
G01 X27.4897 Y-10.8383 F50.00
G01 X27.5257 Y-10.8742 F50.00
G01 X27.5629 Y-10.9088 F50.00
G01 X27.5690 Y-10.9170 F50.00
G01 X27.5737 Y-10.9223 F50.00
G01 X27.8420 Y-11.1906 F50.00
G01 X27.8470 Y-11.1951 F50.00
G01 X27.8537 Y-11.1999 F50.00
G01 X27.8609 Y-11.2039 F50.00
G01 X27.8737 Y-11.2093 F50.00
G01 X27.8816 Y-11.2118 F50.00
G01 X27.8897 Y-11.2133 F50.00
G01 X27.8980 Y-11.2138 F50.00
G01 X27.9063 Y-11.2133 F50.00
G01 X27.9144 Y-11.2118 F50.00
G01 X27.9208 Y-11.2098 F50.00
G01 X27.9320 Y-11.2053 F50.00
G01 X27.9409 Y-11.2008 F50.00
G01 X27.9503 Y-11.1940 F50.00
G01 X27.9584 Y-11.1857 F50.00
G01 X27.9624 Y-11.1803 F50.00
G01 X27.9658 Y-11.1747 F50.00
G01 X27.9726 Y-11.1590 F50.00
G01 X27.9759 Y-11.1478 F50.00
G01 X27.9771 Y-11.1363 F50.00
G01 X27.9771 Y-9.6314 F50.00
G01 X27.9764 Y-9.6214 F50.00
G01 X27.9742 Y-9.6117 F50.00
G01 X27.9680 Y-9.5958 F50.00
G01 X27.9642 Y-9.5885 F50.00
G01 X27.9595 Y-9.5816 F50.00
G01 X27.9540 Y-9.5754 F50.00
G01 X25.8598 Y-7.4813 F50.00
G01 X25.8532 Y-7.4758 F50.00
G01 X25.8475 Y-7.4720 F50.00
G01 X25.8414 Y-7.4688 F50.00
G01 X25.8294 Y-7.4635 F50.00
G01 X25.8228 Y-7.4615 F50.00
G01 X25.8144 Y-7.4598 F50.00
G01 X25.7838 Y-7.4575 F50.00
G01 X25.6764 Y-7.4153 F50.00
G01 X25.5862 Y-7.3433 F50.00
G01 X25.5212 Y-7.2480 F50.00
G01 X25.4871 Y-7.1377 F50.00
G01 X25.4871 Y-6.9584 F50.00
G01 X25.4852 Y-6.9064 F50.00
G01 X25.4866 Y-6.8980 F50.00
G01 X25.4871 Y-6.8909 F50.00
G01 X25.4871 Y-6.7753 F50.00
G01 X25.4862 Y-6.7654 F50.00
G01 X25.4842 Y-6.7574 F50.00
G01 X25.4780 Y-6.7415 F50.00
G01 X25.4742 Y-6.7341 F50.00
G01 X25.4705 Y-6.7286 F50.00
G01 X25.4663 Y-6.7234 F50.00
G01 X25.4616 Y-6.7187 F50.00
G01 X25.4564 Y-6.7145 F50.00
G01 X25.4509 Y-6.7108 F50.00
G01 X25.4451 Y-6.7077 F50.00
G01 X25.4292 Y-6.7013 F50.00
G01 X25.4212 Y-6.6991 F50.00
G01 X25.4130 Y-6.6980 F50.00
G01 X25.3758 Y-6.6979 F50.00
G01 X25.3282 Y-6.6927 F50.00
G01 X25.2104 Y-6.6488 F50.00
G01 X25.1108 Y-6.5742 F50.00
G01 X25.0362 Y-6.4746 F50.00
G01 X24.9923 Y-6.3568 F50.00
G01 X24.9871 Y-6.3092 F50.00
G01 X24.9871 Y-5.6958 F50.00
G01 X24.9923 Y-5.6482 F50.00
G01 X25.0362 Y-5.5304 F50.00
G01 X25.1108 Y-5.4308 F50.00
G01 X25.2104 Y-5.3562 F50.00
G01 X25.3282 Y-5.3123 F50.00
G01 X25.3758 Y-5.3071 F50.00
G01 X26.3642 Y-5.3072 F50.00
G01 X26.4118 Y-5.3123 F50.00
G01 X26.5296 Y-5.3562 F50.00
G01 X26.6292 Y-5.4308 F50.00
G01 X26.7038 Y-5.5304 F50.00
G01 X26.7477 Y-5.6482 F50.00
G01 X26.7529 Y-5.6958 F50.00
G01 X26.7528 Y-6.3092 F50.00
G01 X26.7477 Y-6.3568 F50.00
G01 X26.7038 Y-6.4746 F50.00
G01 X26.6292 Y-6.5742 F50.00
G01 X26.5296 Y-6.6488 F50.00
G01 X26.4118 Y-6.6927 F50.00
G01 X26.3642 Y-6.6979 F50.00
G01 X26.3470 Y-6.6979 F50.00
G01 X26.3372 Y-6.6991 F50.00
G01 X26.3276 Y-6.7018 F50.00
G01 X26.3163 Y-6.7064 F50.00
G01 X26.3103 Y-6.7092 F50.00
G01 X26.3033 Y-6.7136 F50.00
G01 X26.2980 Y-6.7176 F50.00
G01 X26.2932 Y-6.7222 F50.00
G01 X26.2879 Y-6.7286 F50.00
G01 X26.2842 Y-6.7341 F50.00
G01 X26.2804 Y-6.7415 F50.00
G01 X26.2757 Y-6.7527 F50.00
G01 X26.2737 Y-6.7590 F50.00
G01 X26.2722 Y-6.7654 F50.00
G01 X26.2714 Y-6.7720 F50.00
G01 X26.2712 Y-6.7787 F50.00
G01 X26.2717 Y-6.7853 F50.00
G01 X26.2729 Y-6.7918 F50.00
G01 X26.2764 Y-6.8029 F50.00
G01 X26.2811 Y-6.8141 F50.00
G01 X26.2842 Y-6.8199 F50.00
G01 X26.2889 Y-6.8268 F50.00
G01 X26.2944 Y-6.8330 F50.00
G01 X28.6126 Y-9.1512 F50.00
G01 X28.6187 Y-9.1566 F50.00
G01 X28.6438 Y-9.1767 F50.00
G01 X28.6723 Y-9.2184 F50.00
G01 X28.7025 Y-9.2593 F50.00
G01 X28.7087 Y-9.2717 F50.00
G01 X28.7237 Y-9.3203 F50.00
G01 X28.7405 Y-9.3683 F50.00
G01 X28.7428 Y-9.3820 F50.00
G01 X28.7429 Y-9.4328 F50.00
G01 X28.7448 Y-9.4836 F50.00
G01 X28.7432 Y-9.4938 F50.00
G01 X28.7428 Y-9.5008 F50.00
G01 X28.7428 Y-15.6944 F50.00
G01 X28.7433 Y-15.7026 F50.00
G01 X28.7469 Y-15.7345 F50.00
G01 X28.7375 Y-15.7841 F50.00
G01 X28.7299 Y-15.8344 F50.00
G01 X28.7256 Y-15.8476 F50.00
G01 X28.7018 Y-15.8926 F50.00
G01 X28.6798 Y-15.9384 F50.00
G01 X28.6717 Y-15.9497 F50.00
G01 X28.6358 Y-15.9857 F50.00
G01 X28.6012 Y-16.0229 F50.00
G01 X28.5930 Y-16.0290 F50.00
G01 X28.5877 Y-16.0337 F50.00
G01 X26.4548 Y-18.1667 F50.00
G01 X26.4505 Y-18.1717 F50.00
G01 X26.4458 Y-18.1785 F50.00
G01 X26.4394 Y-18.1907 F50.00
G01 X26.4369 Y-18.1968 F50.00
G01 X26.4339 Y-18.2080 F50.00
G01 X26.4299 Y-18.2344 F50.00
G01 X26.4256 Y-18.2476 F50.00
G01 X26.4018 Y-18.2926 F50.00
G01 X26.3798 Y-18.3384 F50.00
G01 X26.3717 Y-18.3497 F50.00
G01 X26.3358 Y-18.3857 F50.00
G01 X26.3012 Y-18.4229 F50.00
G01 X26.2930 Y-18.4290 F50.00
G01 X26.2877 Y-18.4337 F50.00
G01 X24.1088 Y-20.6126 F50.00
G01 X24.1033 Y-20.6187 F50.00
G01 X24.0833 Y-20.6438 F50.00
G01 X24.0416 Y-20.6723 F50.00
G01 X24.0007 Y-20.7025 F50.00
G01 X23.9883 Y-20.7087 F50.00
G01 X23.9397 Y-20.7237 F50.00
G01 X23.8917 Y-20.7405 F50.00
G01 X23.8780 Y-20.7429 F50.00
G01 X23.8272 Y-20.7429 F50.00
G01 X23.7764 Y-20.7448 F50.00
G01 X23.7663 Y-20.7432 F50.00
G01 X23.7592 Y-20.7429 F50.00
G01 X18.6456 Y-20.7429 F50.00
G01 X18.6374 Y-20.7433 F50.00
G01 X18.6055 Y-20.7469 F50.00
G01 X18.5558 Y-20.7375 F50.00
G01 X18.5468 Y-20.7362 F50.00
G01 X18.5401 Y-20.7359 F50.00
G01 X18.5335 Y-20.7362 F50.00
G01 X18.5269 Y-20.7371 F50.00
G01 X18.5135 Y-20.7404 F50.00
G01 X18.5072 Y-20.7425 F50.00
G01 X18.5012 Y-20.7452 F50.00
G01 X18.4954 Y-20.7484 F50.00
G01 X18.4899 Y-20.7522 F50.00
G01 X18.4849 Y-20.7565 F50.00
G01 X18.4803 Y-20.7613 F50.00
G01 X18.4762 Y-20.7666 F50.00
G01 X18.4689 Y-20.7783 F50.00
G01 X18.4658 Y-20.7841 F50.00
G01 X18.4633 Y-20.7902 F50.00
G01 X18.4613 Y-20.7966 F50.00
G01 X18.4600 Y-20.8031 F50.00
G01 X18.4593 Y-20.8097 F50.00
G01 X18.4594 Y-20.8180 F50.00
G01 X18.4602 Y-20.8246 F50.00
G01 X18.4647 Y-20.8428 F50.00
G01 X18.4671 Y-20.8490 F50.00
G01 X18.4701 Y-20.8550 F50.00
G01 X18.4736 Y-20.8606 F50.00
G01 X18.4788 Y-20.8671 F50.00
G01 X19.2826 Y-21.6712 F50.00
G01 X19.2887 Y-21.6766 F50.00
G01 X19.3138 Y-21.6967 F50.00
G01 X19.3423 Y-21.7384 F50.00
G01 X19.3725 Y-21.7793 F50.00
G01 X19.3787 Y-21.7917 F50.00
G01 X19.3937 Y-21.8403 F50.00
G01 X19.4105 Y-21.8883 F50.00
G01 X19.4129 Y-21.9020 F50.00
G01 X19.4129 Y-21.9528 F50.00
G01 X19.4148 Y-22.0036 F50.00
G01 X19.4132 Y-22.0138 F50.00
G01 X19.4129 Y-22.0208 F50.00
G01 X19.4129 Y-22.6565 F50.00
G01 X19.4132 Y-22.6631 F50.00
G01 X19.4141 Y-22.6696 F50.00
G01 X19.4174 Y-22.6808 F50.00
G01 X19.4235 Y-22.6951 F50.00
G01 X19.4287 Y-22.7038 F50.00
G01 X19.4329 Y-22.7091 F50.00
G01 X19.4364 Y-22.7128 F50.00
G01 X19.4415 Y-22.7173 F50.00
G01 X19.4455 Y-22.7203 F50.00
G01 X19.4539 Y-22.7257 F50.00
G01 X19.4602 Y-22.7289 F50.00
G01 X19.4924 Y-22.7415 F50.00
G01 X19.6551 Y-22.8422 F50.00
G01 X19.7966 Y-22.9712 F50.00
G01 X19.9119 Y-23.1239 F50.00
G01 X19.9972 Y-23.2953 F50.00
G01 X20.0496 Y-23.4794 F50.00
G01 X20.0673 Y-23.6700 F50.00
G01 X20.0496 Y-23.8606 F50.00
G01 X19.9972 Y-24.0447 F50.00
G01 X19.9119 Y-24.2161 F50.00
G01 X19.7966 Y-24.3688 F50.00
G01 X19.6551 Y-24.4978 F50.00
G01 X19.4924 Y-24.5985 F50.00
G01 X19.3139 Y-24.6677 F50.00
G01 X19.1257 Y-24.7029 F50.00
G01 X18.9343 Y-24.7029 F50.00
G01 X18.7461 Y-24.6677 F50.00
G01 X18.5677 Y-24.5985 F50.00
G01 X18.4049 Y-24.4978 F50.00
G01 X18.2634 Y-24.3688 F50.00
G01 X18.1481 Y-24.2161 F50.00
G01 X18.0628 Y-24.0447 F50.00
G01 X18.0104 Y-23.8606 F50.00
G01 X17.9927 Y-23.6700 F50.00
G01 X18.0104 Y-23.4794 F50.00
G01 X18.0628 Y-23.2953 F50.00
G01 X18.1481 Y-23.1239 F50.00
G01 X18.2634 Y-22.9712 F50.00
G01 X18.4049 Y-22.8422 F50.00
G01 X18.5676 Y-22.7415 F50.00
G01 X18.5981 Y-22.7296 F50.00
G01 X18.6084 Y-22.7243 F50.00
G01 X18.6164 Y-22.7183 F50.00
G01 X18.6288 Y-22.7064 F50.00
G01 X18.6350 Y-22.6984 F50.00
G01 X18.6399 Y-22.6895 F50.00
G01 X18.6430 Y-22.6816 F50.00
G01 X18.6447 Y-22.6751 F50.00
G01 X18.6466 Y-22.6652 F50.00
G01 X18.6471 Y-22.6565 F50.00
G01 X18.6471 Y-22.1514 F50.00
G01 X18.6464 Y-22.1414 F50.00
G01 X18.6442 Y-22.1317 F50.00
G01 X18.6386 Y-22.1174 F50.00
G01 X18.6350 Y-22.1099 F50.00
G01 X18.6305 Y-22.1029 F50.00
G01 X18.6240 Y-22.0954 F50.00
G01 X17.0746 Y-20.5460 F50.00
G01 X17.0697 Y-20.5416 F50.00
G01 X17.0643 Y-20.5376 F50.00
G01 X17.0587 Y-20.5342 F50.00
G01 X17.0527 Y-20.5314 F50.00
G01 X17.0414 Y-20.5268 F50.00
G01 X17.0351 Y-20.5249 F50.00
G01 X17.0269 Y-20.5234 F50.00
G01 X17.0186 Y-20.5229 F50.00
G01 X15.8334 Y-20.5230 F50.00
G01 X15.8268 Y-20.5238 F50.00
G01 X15.8187 Y-20.5258 F50.00
G01 X15.8013 Y-20.5327 F50.00
G01 X15.7954 Y-20.5358 F50.00
G01 X15.7899 Y-20.5395 F50.00
G01 X15.7848 Y-20.5437 F50.00
G01 X15.7801 Y-20.5484 F50.00
G01 X15.7759 Y-20.5536 F50.00
G01 X15.7714 Y-20.5605 F50.00
G01 X15.7684 Y-20.5665 F50.00
G01 X15.7637 Y-20.5777 F50.00
G01 X15.7616 Y-20.5840 F50.00
G01 X15.7602 Y-20.5904 F50.00
G01 X15.7594 Y-20.5970 F50.00
G01 X15.7592 Y-20.6037 F50.00
G01 X15.7605 Y-20.6152 F50.00
G01 X15.7621 Y-20.6216 F50.00
G01 X15.7643 Y-20.6279 F50.00
G01 X15.7690 Y-20.6390 F50.00
G01 X15.7722 Y-20.6449 F50.00
G01 X15.7768 Y-20.6517 F50.00
G01 X15.7811 Y-20.6567 F50.00
G01 X15.7884 Y-20.6633 F50.00
G01 X15.7969 Y-20.6694 F50.00
G01 X15.8025 Y-20.6726 F50.00
G01 X15.8184 Y-20.6802 F50.00
G01 X15.8297 Y-20.6883 F50.00
G01 X15.8657 Y-20.7242 F50.00
G01 X15.9029 Y-20.7588 F50.00
G01 X15.9090 Y-20.7670 F50.00
G01 X15.9137 Y-20.7723 F50.00
G01 X16.7426 Y-21.6012 F50.00
G01 X16.7487 Y-21.6066 F50.00
G01 X16.7738 Y-21.6267 F50.00
G01 X16.8023 Y-21.6684 F50.00
G01 X16.8325 Y-21.7093 F50.00
G01 X16.8387 Y-21.7217 F50.00
G01 X16.8537 Y-21.7703 F50.00
G01 X16.8705 Y-21.8183 F50.00
G01 X16.8729 Y-21.8320 F50.00
G01 X16.8729 Y-21.8828 F50.00
G01 X16.8748 Y-21.9336 F50.00
G01 X16.8732 Y-21.9437 F50.00
G01 X16.8729 Y-21.9508 F50.00
G01 X16.8729 Y-22.6565 F50.00
G01 X16.8732 Y-22.6631 F50.00
G01 X16.8741 Y-22.6696 F50.00
G01 X16.8774 Y-22.6808 F50.00
G01 X16.8835 Y-22.6951 F50.00
G01 X16.8887 Y-22.7038 F50.00
G01 X16.8929 Y-22.7091 F50.00
G01 X16.8964 Y-22.7128 F50.00
G01 X16.9015 Y-22.7173 F50.00
G01 X16.9055 Y-22.7203 F50.00
G01 X16.9139 Y-22.7257 F50.00
G01 X16.9202 Y-22.7289 F50.00
G01 X16.9524 Y-22.7415 F50.00
G01 X17.1151 Y-22.8422 F50.00
G01 X17.2566 Y-22.9712 F50.00
G01 X17.3719 Y-23.1239 F50.00
G01 X17.4572 Y-23.2953 F50.00
G01 X17.5096 Y-23.4794 F50.00
G01 X17.5273 Y-23.6700 F50.00
G01 X17.5096 Y-23.8606 F50.00
G01 X17.4572 Y-24.0447 F50.00
G01 X17.3719 Y-24.2161 F50.00
G01 X17.2566 Y-24.3688 F50.00
G01 X17.1151 Y-24.4978 F50.00
G01 X16.9524 Y-24.5985 F50.00
G01 X16.7739 Y-24.6677 F50.00
G01 X16.5857 Y-24.7029 F50.00
G01 X16.3943 Y-24.7029 F50.00
G01 X16.2061 Y-24.6677 F50.00
G01 X16.0277 Y-24.5985 F50.00
G01 X15.8649 Y-24.4978 F50.00
G01 X15.7234 Y-24.3688 F50.00
G01 X15.6081 Y-24.2161 F50.00
G01 X15.5228 Y-24.0447 F50.00
G01 X15.4704 Y-23.8606 F50.00
G01 X15.4527 Y-23.6700 F50.00
G01 X15.4704 Y-23.4794 F50.00
G01 X15.5228 Y-23.2953 F50.00
G01 X15.6081 Y-23.1239 F50.00
G01 X15.7234 Y-22.9712 F50.00
G01 X15.8649 Y-22.8422 F50.00
G01 X16.0276 Y-22.7415 F50.00
G01 X16.0581 Y-22.7296 F50.00
G01 X16.0641 Y-22.7268 F50.00
G01 X16.0698 Y-22.7234 F50.00
G01 X16.0777 Y-22.7172 F50.00
G01 X16.0899 Y-22.7051 F50.00
G01 X16.0959 Y-22.6969 F50.00
G01 X16.1006 Y-22.6879 F50.00
G01 X16.1035 Y-22.6800 F50.00
G01 X16.1057 Y-22.6704 F50.00
G01 X16.1068 Y-22.6635 F50.00
G01 X16.1071 Y-22.6565 F50.00
G01 X16.1071 Y-22.0814 F50.00
G01 X16.1064 Y-22.0714 F50.00
G01 X16.1047 Y-22.0633 F50.00
G01 X16.1026 Y-22.0570 F50.00
G01 X16.0966 Y-22.0428 F50.00
G01 X16.0905 Y-22.0329 F50.00
G01 X16.0840 Y-22.0254 F50.00
G01 X15.4646 Y-21.4060 F50.00
G01 X15.4584 Y-21.4005 F50.00
G01 X15.4515 Y-21.3958 F50.00
G01 X15.4442 Y-21.3920 F50.00
G01 X15.4283 Y-21.3858 F50.00
G01 X15.4202 Y-21.3838 F50.00
G01 X15.4103 Y-21.3829 F50.00
G01 X14.7656 Y-21.3829 F50.00
G01 X14.7574 Y-21.3833 F50.00
G01 X14.7255 Y-21.3869 F50.00
G01 X14.6759 Y-21.3775 F50.00
G01 X14.6256 Y-21.3699 F50.00
G01 X14.6124 Y-21.3656 F50.00
G01 X14.5674 Y-21.3418 F50.00
G01 X14.5216 Y-21.3198 F50.00
G01 X14.5103 Y-21.3117 F50.00
G01 X14.4743 Y-21.2758 F50.00
G01 X14.4371 Y-21.2412 F50.00
G01 X14.4310 Y-21.2330 F50.00
G01 X14.4263 Y-21.2277 F50.00
G01 X13.8868 Y-20.6882 F50.00
G01 X13.8804 Y-20.6829 F50.00
G01 X13.8749 Y-20.6792 F50.00
G01 X13.8691 Y-20.6761 F50.00
G01 X13.8579 Y-20.6714 F50.00
G01 X13.8516 Y-20.6691 F50.00
G01 X13.8452 Y-20.6675 F50.00
G01 X13.8386 Y-20.6665 F50.00
G01 X13.8320 Y-20.6662 F50.00
G01 X13.8204 Y-20.6672 F50.00
G01 X13.8140 Y-20.6687 F50.00
G01 X13.8077 Y-20.6708 F50.00
G01 X13.7920 Y-20.6776 F50.00
G01 X13.7849 Y-20.6819 F50.00
G01 X13.7797 Y-20.6860 F50.00
G01 X13.7716 Y-20.6943 F50.00
G01 X13.7650 Y-20.7039 F50.00
G01 X13.7620 Y-20.7098 F50.00
G01 X13.7574 Y-20.7210 F50.00
G01 X13.7541 Y-20.7322 F50.00
G01 X13.7532 Y-20.7387 F50.00
G01 X13.7529 Y-20.7454 F50.00
G01 X13.7529 Y-21.1644 F50.00
G01 X13.7533 Y-21.1726 F50.00
G01 X13.7569 Y-21.2045 F50.00
G01 X13.7475 Y-21.2542 F50.00
G01 X13.7399 Y-21.3044 F50.00
G01 X13.7356 Y-21.3176 F50.00
G01 X13.7118 Y-21.3626 F50.00
G01 X13.6898 Y-21.4084 F50.00
G01 X13.6817 Y-21.4197 F50.00
G01 X13.6458 Y-21.4557 F50.00
G01 X13.6112 Y-21.4929 F50.00
G01 X13.6030 Y-21.4990 F50.00
G01 X13.5977 Y-21.5037 F50.00
G01 X12.2053 Y-22.8961 F50.00
G01 X12.1979 Y-22.9050 F50.00
G01 X12.1943 Y-22.9106 F50.00
G01 X12.1913 Y-22.9165 F50.00
G01 X12.1867 Y-22.9277 F50.00
G01 X12.1842 Y-22.9357 F50.00
G01 X12.1826 Y-22.9439 F50.00
G01 X12.1821 Y-22.9522 F50.00
G01 X12.1827 Y-22.9606 F50.00
G01 X12.1842 Y-22.9688 F50.00
G01 X12.1885 Y-22.9821 F50.00
G01 X12.1911 Y-22.9883 F50.00
G01 X12.1943 Y-22.9942 F50.00
G01 X12.1981 Y-22.9998 F50.00
G01 X12.2919 Y-23.1239 F50.00
G01 X12.3772 Y-23.2953 F50.00
G01 X12.4296 Y-23.4794 F50.00
G01 X12.4473 Y-23.6700 F50.00
G01 X12.4296 Y-23.8606 F50.00
G01 X12.3772 Y-24.0447 F50.00
G01 X12.2919 Y-24.2161 F50.00
G01 X12.1766 Y-24.3688 F50.00
G01 X12.0351 Y-24.4978 F50.00
G01 X11.8724 Y-24.5985 F50.00
G01 X11.6939 Y-24.6677 F50.00
G01 X11.5057 Y-24.7029 F50.00
G01 X11.3143 Y-24.7029 F50.00
G01 X11.1261 Y-24.6677 F50.00
G01 X10.9477 Y-24.5985 F50.00
G01 X10.7849 Y-24.4978 F50.00
G01 X10.6434 Y-24.3688 F50.00
G01 X10.5281 Y-24.2161 F50.00
G01 X10.4428 Y-24.0447 F50.00
G01 X10.3904 Y-23.8606 F50.00
G01 X10.3727 Y-23.6700 F50.00
G01 X10.3904 Y-23.4794 F50.00
G01 X10.4428 Y-23.2953 F50.00
G01 X10.5281 Y-23.1239 F50.00
G01 X10.6434 Y-22.9712 F50.00
G01 X10.7849 Y-22.8422 F50.00
G01 X10.9476 Y-22.7415 F50.00
G01 X11.1261 Y-22.6723 F50.00
G01 X11.3143 Y-22.6371 F50.00
G01 X11.3503 Y-22.6371 F50.00
G01 X11.3618 Y-22.6359 F50.00
G01 X11.3714 Y-22.6332 F50.00
G01 X11.3857 Y-22.6273 F50.00
G01 X11.3943 Y-22.6224 F50.00
G01 X11.4022 Y-22.6163 F50.00
G01 X12.9640 Y-21.0546 F50.00
G01 X12.9705 Y-21.0471 F50.00
G01 X12.9766 Y-21.0372 F50.00
G01 X12.9832 Y-21.0214 F50.00
G01 X12.9862 Y-21.0102 F50.00
G01 X12.9871 Y-21.0003 F50.00
G01 X12.9871 Y-20.0720 F50.00
G01 X12.9864 Y-20.0654 F50.00
G01 X12.9847 Y-20.0573 F50.00
G01 X12.9826 Y-20.0510 F50.00
G01 X12.9780 Y-20.0398 F50.00
G01 X12.9750 Y-20.0339 F50.00
G01 X12.9714 Y-20.0283 F50.00
G01 X12.9674 Y-20.0230 F50.00
G01 X12.9628 Y-20.0182 F50.00
G01 X12.9564 Y-20.0129 F50.00
G01 X12.9509 Y-20.0092 F50.00
G01 X12.9451 Y-20.0061 F50.00
G01 X12.9339 Y-20.0014 F50.00
G01 X12.9276 Y-19.9991 F50.00
G01 X12.9212 Y-19.9975 F50.00
G01 X12.9146 Y-19.9965 F50.00
G01 X12.9080 Y-19.9962 F50.00
G01 X12.8997 Y-19.9967 F50.00
G01 X12.8916 Y-19.9982 F50.00
G01 X12.8852 Y-20.0002 F50.00
G01 X12.8740 Y-20.0047 F50.00
G01 X12.8680 Y-20.0076 F50.00
G01 X12.8623 Y-20.0110 F50.00
G01 X12.8570 Y-20.0149 F50.00
G01 X12.8520 Y-20.0194 F50.00
G01 X11.4888 Y-21.3826 F50.00
G01 X11.4834 Y-21.3887 F50.00
G01 X11.4633 Y-21.4138 F50.00
G01 X11.4216 Y-21.4423 F50.00
G01 X11.3807 Y-21.4725 F50.00
G01 X11.3683 Y-21.4787 F50.00
G01 X11.3197 Y-21.4937 F50.00
G01 X11.2717 Y-21.5105 F50.00
G01 X11.2580 Y-21.5129 F50.00
G01 X11.2072 Y-21.5129 F50.00
G01 X11.1564 Y-21.5148 F50.00
G01 X11.1463 Y-21.5132 F50.00
G01 X11.1392 Y-21.5129 F50.00
G01 X10.6397 Y-21.5129 F50.00
G01 X10.6314 Y-21.5136 F50.00
G01 X10.6217 Y-21.5158 F50.00
G01 X10.6058 Y-21.5220 F50.00
G01 X10.5985 Y-21.5258 F50.00
G01 X10.5916 Y-21.5305 F50.00
G01 X10.5854 Y-21.5360 F50.00
G01 X9.6194 Y-22.5020 F50.00
G01 X9.6149 Y-22.5070 F50.00
G01 X9.6110 Y-22.5123 F50.00
G01 X9.6054 Y-22.5225 F50.00
G01 X9.6007 Y-22.5337 F50.00
G01 X9.5987 Y-22.5400 F50.00
G01 X9.5965 Y-22.5514 F50.00
G01 X9.5964 Y-22.5630 F50.00
G01 X9.5972 Y-22.5696 F50.00
G01 X9.5991 Y-22.5776 F50.00
G01 X9.6054 Y-22.5935 F50.00
G01 X9.6084 Y-22.5995 F50.00
G01 X9.6119 Y-22.6051 F50.00
G01 X9.6194 Y-22.6140 F50.00
G01 X9.6269 Y-22.6205 F50.00
G01 X9.6368 Y-22.6266 F50.00
G01 X9.6526 Y-22.6332 F50.00
G01 X9.6622 Y-22.6359 F50.00
G01 X9.6737 Y-22.6371 F50.00
G01 X9.7380 Y-22.6371 F50.00
G01 X9.7913 Y-22.6478 F50.00
G01 X9.8518 Y-22.6882 F50.00
G01 X9.8922 Y-22.7487 F50.00
G01 X9.9029 Y-22.8020 F50.00
G01 X9.9029 Y-24.5380 F50.00
G01 X9.8922 Y-24.5913 F50.00
G01 X9.8518 Y-24.6518 F50.00
G01 X9.7913 Y-24.6922 F50.00
G01 X9.7380 Y-24.7029 F50.00
G01 X8.0020 Y-24.7029 F50.00
G01 X7.9487 Y-24.6922 F50.00
G01 X7.8882 Y-24.6518 F50.00
G01 X7.8478 Y-24.5913 F50.00
G01 X7.8371 Y-24.5380 F50.00
G01 X7.8371 Y-22.8020 F50.00
G01 X7.8478 Y-22.7487 F50.00
G01 X7.8882 Y-22.6882 F50.00
G01 X7.9487 Y-22.6478 F50.00
G01 X8.0020 Y-22.6371 F50.00
G01 X8.4319 Y-22.6371 F50.00
G01 X8.4418 Y-22.6359 F50.00
G01 X8.4529 Y-22.6326 F50.00
G01 X8.4671 Y-22.6265 F50.00
G01 X8.4730 Y-22.6232 F50.00
G01 X8.4784 Y-22.6194 F50.00
G01 X8.4835 Y-22.6150 F50.00
G01 X8.4881 Y-22.6102 F50.00
G01 X8.4922 Y-22.6049 F50.00
G01 X8.4957 Y-22.5992 F50.00
G01 X8.5277 Y-22.5384 F50.00
G01 X8.5502 Y-22.4916 F50.00
G01 X8.5583 Y-22.4803 F50.00
G01 X8.5942 Y-22.4443 F50.00
G01 X8.6288 Y-22.4071 F50.00
G01 X8.6370 Y-22.4010 F50.00
G01 X8.6423 Y-22.3963 F50.00
G01 X10.1612 Y-20.8774 F50.00
G01 X10.1667 Y-20.8713 F50.00
G01 X10.1867 Y-20.8462 F50.00
G01 X10.2284 Y-20.8177 F50.00
G01 X10.2693 Y-20.7875 F50.00
G01 X10.2817 Y-20.7813 F50.00
G01 X10.3303 Y-20.7663 F50.00
G01 X10.3783 Y-20.7495 F50.00
G01 X10.3920 Y-20.7471 F50.00
G01 X10.4428 Y-20.7471 F50.00
G01 X10.4936 Y-20.7452 F50.00
G01 X10.5038 Y-20.7468 F50.00
G01 X10.5108 Y-20.7471 F50.00
G01 X11.0103 Y-20.7471 F50.00
G01 X11.0218 Y-20.7459 F50.00
G01 X11.0314 Y-20.7432 F50.00
G01 X11.0472 Y-20.7366 F50.00
G01 X11.0571 Y-20.7305 F50.00
G01 X11.0646 Y-20.7240 F50.00
G01 X12.3640 Y-19.4246 F50.00
G01 X12.3714 Y-19.4157 F50.00
G01 X12.3773 Y-19.4057 F50.00
G01 X12.3837 Y-19.3899 F50.00
G01 X12.3855 Y-19.3835 F50.00
G01 X12.3866 Y-19.3769 F50.00
G01 X12.3871 Y-19.3686 F50.00
G01 X12.3871 Y-15.0014 F50.00
G01 X12.3866 Y-14.9931 F50.00
G01 X12.3851 Y-14.9849 F50.00
G01 X12.3826 Y-14.9770 F50.00
G01 X12.3780 Y-14.9658 F50.00
G01 X12.3724 Y-14.9557 F50.00
G01 X12.3651 Y-14.9466 F50.00
G01 X12.1622 Y-14.7437 F50.00
G01 X12.1530 Y-14.7367 F50.00
G01 X12.1427 Y-14.7314 F50.00
G01 X12.1330 Y-14.7274 F50.00
G01 X12.1267 Y-14.7253 F50.00
G01 X12.1186 Y-14.7236 F50.00
G01 X12.1120 Y-14.7229 F50.00
G01 X11.9819 Y-14.7229 F50.00
G01 X11.9704 Y-14.7241 F50.00
G01 X11.9592 Y-14.7274 F50.00
G01 X11.9480 Y-14.7320 F50.00
G01 X11.9407 Y-14.7358 F50.00
G01 X11.9338 Y-14.7405 F50.00
G01 X11.9264 Y-14.7472 F50.00
G01 X11.9187 Y-14.7567 F50.00
G01 X11.8918 Y-14.7968 F50.00
G01 X11.8313 Y-14.8372 F50.00
G01 X11.7780 Y-14.8479 F50.00
G01 X10.2420 Y-14.8479 F50.00
G01 X10.1887 Y-14.8372 F50.00
G01 X10.1282 Y-14.7968 F50.00
G01 X10.0878 Y-14.7363 F50.00
G01 X10.0771 Y-14.6830 F50.00
G01 X10.0771 Y-13.9970 F50.00
G01 X10.0878 Y-13.9437 F50.00
G01 X10.1282 Y-13.8832 F50.00
G01 X10.1887 Y-13.8428 F50.00
G01 X10.2420 Y-13.8321 F50.00
G01 X11.7780 Y-13.8321 F50.00
G01 X11.8313 Y-13.8428 F50.00
G01 X11.8918 Y-13.8832 F50.00
G01 X11.9197 Y-13.9247 F50.00
G01 X11.9250 Y-13.9310 F50.00
G01 X11.9311 Y-13.9367 F50.00
G01 X11.9364 Y-13.9406 F50.00
G01 X11.9494 Y-13.9489 F50.00
G01 X11.9570 Y-13.9524 F50.00
G01 X11.9665 Y-13.9553 F50.00
G01 X11.9747 Y-13.9566 F50.00
G01 X11.9836 Y-13.9571 F50.00
G01 X12.2744 Y-13.9571 F50.00
G01 X12.2826 Y-13.9567 F50.00
G01 X12.3145 Y-13.9531 F50.00
G01 X12.3641 Y-13.9625 F50.00
G01 X12.4144 Y-13.9701 F50.00
G01 X12.4276 Y-13.9744 F50.00
G01 X12.4726 Y-13.9982 F50.00
G01 X12.5184 Y-14.0202 F50.00
G01 X12.5297 Y-14.0283 F50.00
G01 X12.5657 Y-14.0642 F50.00
G01 X12.6029 Y-14.0988 F50.00
G01 X12.6090 Y-14.1070 F50.00
G01 X12.6137 Y-14.1123 F50.00
G01 X12.8520 Y-14.3506 F50.00
G01 X12.8609 Y-14.3581 F50.00
G01 X12.8665 Y-14.3616 F50.00
G01 X12.8725 Y-14.3646 F50.00
G01 X12.8837 Y-14.3693 F50.00
G01 X12.8900 Y-14.3713 F50.00
G01 X12.9014 Y-14.3735 F50.00
G01 X12.9080 Y-14.3738 F50.00
G01 X12.9146 Y-14.3735 F50.00
G01 X12.9228 Y-14.3721 F50.00
G01 X12.9292 Y-14.3704 F50.00
G01 X12.9465 Y-14.3632 F50.00
G01 X12.9523 Y-14.3599 F50.00
G01 X12.9578 Y-14.3561 F50.00
G01 X12.9628 Y-14.3518 F50.00
G01 X12.9674 Y-14.3470 F50.00
G01 X12.9724 Y-14.3403 F50.00
G01 X12.9758 Y-14.3347 F50.00
G01 X12.9826 Y-14.3190 F50.00
G01 X12.9859 Y-14.3078 F50.00
G01 X12.9868 Y-14.3013 F50.00
G01 X12.9871 Y-14.2946 F50.00
G01 X12.9871 Y-11.1680 F50.00
G01 X12.9864 Y-11.1614 F50.00
G01 X12.9847 Y-11.1533 F50.00
G01 X12.9826 Y-11.1470 F50.00
G01 X12.9786 Y-11.1373 F50.00
G01 X12.9733 Y-11.1270 F50.00
G01 X12.9663 Y-11.1178 F50.00
G01 X12.7834 Y-10.9349 F50.00
G01 X12.7743 Y-10.9276 F50.00
G01 X12.7642 Y-10.9220 F50.00
G01 X12.7530 Y-10.9174 F50.00
G01 X12.7451 Y-10.9149 F50.00
G01 X12.7369 Y-10.9134 F50.00
G01 X12.7286 Y-10.9129 F50.00
G01 X11.9836 Y-10.9129 F50.00
G01 X11.9753 Y-10.9134 F50.00
G01 X11.9639 Y-10.9158 F50.00
G01 X11.9495 Y-10.9214 F50.00
G01 X11.9407 Y-10.9258 F50.00
G01 X11.9338 Y-10.9305 F50.00
G01 X11.9264 Y-10.9372 F50.00
G01 X11.9197 Y-10.9453 F50.00
G01 X11.8918 Y-10.9868 F50.00
G01 X11.8313 Y-11.0272 F50.00
G01 X11.7780 Y-11.0379 F50.00
G01 X10.2420 Y-11.0379 F50.00
G01 X10.1887 Y-11.0272 F50.00
G01 X10.1712 Y-11.0157 F50.00
G01 X10.1608 Y-11.0106 F50.00
G01 X10.1529 Y-11.0081 F50.00
G01 X10.1410 Y-11.0057 F50.00
G01 X10.1345 Y-11.0047 F50.00
G01 X10.1278 Y-11.0044 F50.00
G01 X10.1163 Y-11.0054 F50.00
G01 X10.1050 Y-11.0083 F50.00
G01 X10.0989 Y-11.0109 F50.00
G01 X10.0901 Y-11.0155 F50.00
G01 X10.0816 Y-11.0208 F50.00
G01 X10.0741 Y-11.0273 F50.00
G01 X9.2560 Y-11.8454 F50.00
G01 X9.2505 Y-11.8516 F50.00
G01 X9.2450 Y-11.8599 F50.00
G01 X9.2414 Y-11.8674 F50.00
G01 X9.2358 Y-11.8817 F50.00
G01 X9.2336 Y-11.8914 F50.00
G01 X9.2329 Y-11.9014 F50.00
G01 X9.2329 Y-13.7444 F50.00
G01 X9.2333 Y-13.7526 F50.00
G01 X9.2369 Y-13.7845 F50.00
G01 X9.2275 Y-13.8342 F50.00
G01 X9.2199 Y-13.8844 F50.00
G01 X9.2156 Y-13.8976 F50.00
G01 X9.1918 Y-13.9426 F50.00
G01 X9.1698 Y-13.9884 F50.00
G01 X9.1617 Y-13.9997 F50.00
G01 X9.1258 Y-14.0357 F50.00
G01 X9.0912 Y-14.0729 F50.00
G01 X9.0830 Y-14.0790 F50.00
G01 X9.0777 Y-14.0837 F50.00
G01 X7.4388 Y-15.7226 F50.00
G01 X7.4343 Y-15.7275 F50.00
G01 X7.4304 Y-15.7329 F50.00
G01 X7.4248 Y-15.7431 F50.00
G01 X7.4202 Y-15.7542 F50.00
G01 X7.4177 Y-15.7620 F50.00
G01 X7.4164 Y-15.7684 F50.00
G01 X7.4157 Y-15.7749 F50.00
G01 X7.4157 Y-15.7814 F50.00
G01 X7.4163 Y-15.7879 F50.00
G01 X7.4172 Y-15.7942 F50.00
G01 X7.4186 Y-15.8003 F50.00
G01 X7.4696 Y-15.9794 F50.00
G01 X7.4873 Y-16.1700 F50.00
G01 X7.4696 Y-16.3606 F50.00
G01 X7.4172 Y-16.5447 F50.00
G01 X7.3319 Y-16.7161 F50.00
G01 X7.2166 Y-16.8688 F50.00
G01 X7.0751 Y-16.9978 F50.00
G01 X6.9124 Y-17.0985 F50.00
G01 X6.7339 Y-17.1677 F50.00
G01 X6.5457 Y-17.2029 F50.00
G01 X6.3543 Y-17.2029 F50.00
G01 X6.1661 Y-17.1677 F50.00
G01 X5.9877 Y-17.0985 F50.00
G01 X5.8249 Y-16.9978 F50.00
G01 X5.6834 Y-16.8688 F50.00
G01 X5.5681 Y-16.7161 F50.00
G01 X5.4828 Y-16.5447 F50.00
G01 X5.4304 Y-16.3606 F50.00
G01 X5.4127 Y-16.1700 F50.00
G01 X5.4304 Y-15.9794 F50.00
G01 X5.4828 Y-15.7953 F50.00
G01 X5.5681 Y-15.6239 F50.00
G01 X5.6834 Y-15.4712 F50.00
G01 X5.8249 Y-15.3422 F50.00
G01 X5.9876 Y-15.2415 F50.00
G01 X6.1661 Y-15.1723 F50.00
G01 X6.3543 Y-15.1371 F50.00
G01 X6.5457 Y-15.1371 F50.00
G01 X6.7339 Y-15.1723 F50.00
G01 X6.8116 Y-15.2024 F50.00
G01 X6.8228 Y-15.2054 F50.00
G01 X6.8344 Y-15.2064 F50.00
G01 X6.8464 Y-15.2061 F50.00
G01 X6.8545 Y-15.2052 F50.00
G01 X6.8625 Y-15.2034 F50.00
G01 X6.8686 Y-15.2013 F50.00
G01 X6.8745 Y-15.1985 F50.00
G01 X6.8801 Y-15.1953 F50.00
G01 X6.8887 Y-15.1892 F50.00
G01 X6.8946 Y-15.1840 F50.00
G01 X8.4440 Y-13.6346 F50.00
G01 X8.4514 Y-13.6257 F50.00
G01 X8.4573 Y-13.6157 F50.00
G01 X8.4637 Y-13.5999 F50.00
G01 X8.4662 Y-13.5902 F50.00
G01 X8.4671 Y-13.5786 F50.00
G01 X8.4671 Y-11.7356 F50.00
G01 X8.4667 Y-11.7274 F50.00
G01 X8.4631 Y-11.6955 F50.00
G01 X8.4725 Y-11.6459 F50.00
G01 X8.4801 Y-11.5956 F50.00
G01 X8.4844 Y-11.5824 F50.00
G01 X8.5082 Y-11.5374 F50.00
G01 X8.5302 Y-11.4916 F50.00
G01 X8.5383 Y-11.4803 F50.00
G01 X8.5742 Y-11.4443 F50.00
G01 X8.6088 Y-11.4071 F50.00
G01 X8.6170 Y-11.4010 F50.00
G01 X8.6223 Y-11.3963 F50.00
G01 X9.7412 Y-10.2774 F50.00
G01 X9.7467 Y-10.2713 F50.00
G01 X9.7667 Y-10.2462 F50.00
G01 X9.8084 Y-10.2177 F50.00
G01 X9.8493 Y-10.1875 F50.00
G01 X9.8617 Y-10.1813 F50.00
G01 X9.9103 Y-10.1663 F50.00
G01 X9.9583 Y-10.1495 F50.00
G01 X9.9720 Y-10.1471 F50.00
G01 X10.0228 Y-10.1471 F50.00
G01 X10.0431 Y-10.1463 F50.00
G01 X10.0529 Y-10.1447 F50.00
G01 X10.0639 Y-10.1411 F50.00
G01 X10.0750 Y-10.1360 F50.00
G01 X10.0809 Y-10.1328 F50.00
G01 X10.0877 Y-10.1279 F50.00
G01 X10.0939 Y-10.1222 F50.00
G01 X10.1016 Y-10.1129 F50.00
G01 X10.1282 Y-10.0732 F50.00
G01 X10.1887 Y-10.0328 F50.00
G01 X10.2420 Y-10.0221 F50.00
G01 X11.7780 Y-10.0221 F50.00
G01 X11.8313 Y-10.0328 F50.00
G01 X11.8918 Y-10.0732 F50.00
G01 X11.9197 Y-10.1147 F50.00
G01 X11.9250 Y-10.1210 F50.00
G01 X11.9311 Y-10.1267 F50.00
G01 X11.9451 Y-10.1364 F50.00
G01 X11.9524 Y-10.1404 F50.00
G01 X11.9617 Y-10.1440 F50.00
G01 X11.9714 Y-10.1462 F50.00
G01 X11.9836 Y-10.1471 F50.00
G01 X12.8944 Y-10.1471 F50.00
G01 X12.9026 Y-10.1467 F50.00
G01 X12.9345 Y-10.1431 F50.00
G01 X12.9841 Y-10.1525 F50.00
G01 X13.0344 Y-10.1601 F50.00
G01 X13.0476 Y-10.1644 F50.00
G01 X13.0926 Y-10.1882 F50.00
G01 X13.1384 Y-10.2102 F50.00
G01 X13.1497 Y-10.2183 F50.00
G01 X13.1857 Y-10.2542 F50.00
G01 X13.2229 Y-10.2888 F50.00
G01 X13.2290 Y-10.2970 F50.00
G01 X13.2337 Y-10.3023 F50.00
G01 X13.6226 Y-10.6912 F50.00
G01 X13.6287 Y-10.6966 F50.00
G01 X13.6538 Y-10.7167 F50.00
G01 X13.6823 Y-10.7584 F50.00
G01 X13.7125 Y-10.7993 F50.00
G01 X13.7187 Y-10.8117 F50.00
G01 X13.7337 Y-10.8603 F50.00
G01 X13.7505 Y-10.9083 F50.00
G01 X13.7528 Y-10.9220 F50.00
G01 X13.7529 Y-10.9728 F50.00
G01 X13.7548 Y-11.0236 F50.00
G01 X13.7532 Y-11.0337 F50.00
G01 X13.7528 Y-11.0408 F50.00
G01 X13.7529 Y-12.2980 F50.00
G01 X13.7536 Y-12.3046 F50.00
G01 X13.7553 Y-12.3127 F50.00
G01 X13.7574 Y-12.3190 F50.00
G01 X13.7614 Y-12.3287 F50.00
G01 X13.7667 Y-12.3390 F50.00
G01 X13.7737 Y-12.3482 F50.00
G01 X13.7822 Y-12.3561 F50.00
G01 X13.7920 Y-12.3624 F50.00
G01 X13.8092 Y-12.3698 F50.00
G01 X13.8204 Y-12.3728 F50.00
G01 X13.8287 Y-12.3737 F50.00
G01 X13.8370 Y-12.3736 F50.00
G01 X13.8452 Y-12.3725 F50.00
G01 X13.8532 Y-12.3704 F50.00
G01 X13.8675 Y-12.3646 F50.00
G01 X13.8735 Y-12.3616 F50.00
G01 X13.8804 Y-12.3571 F50.00
G01 X13.8868 Y-12.3518 F50.00
G01 X14.6912 Y-11.5474 F50.00
G01 X14.6967 Y-11.5413 F50.00
G01 X14.7167 Y-11.5162 F50.00
G01 X14.7584 Y-11.4877 F50.00
G01 X14.7993 Y-11.4575 F50.00
G01 X14.8117 Y-11.4513 F50.00
G01 X14.8603 Y-11.4363 F50.00
G01 X14.9083 Y-11.4195 F50.00
G01 X14.9220 Y-11.4171 F50.00
G01 X14.9728 Y-11.4171 F50.00
G01 X15.0236 Y-11.4152 F50.00
G01 X15.0338 Y-11.4168 F50.00
G01 X15.0408 Y-11.4171 F50.00
G01 X15.4364 Y-11.4171 F50.00
G01 X15.4480 Y-11.4162 F50.00
G01 X15.4577 Y-11.4137 F50.00
G01 X15.4720 Y-11.4080 F50.00
G01 X15.4808 Y-11.4033 F50.00
G01 X15.4875 Y-11.3984 F50.00
G01 X15.4936 Y-11.3928 F50.00
G01 X15.5003 Y-11.3847 F50.00
G01 X15.5282 Y-11.3432 F50.00
G01 X15.5887 Y-11.3028 F50.00
G01 X15.6420 Y-11.2921 F50.00
G01 X17.1780 Y-11.2921 F50.00
G01 X17.2313 Y-11.3028 F50.00
G01 X17.2918 Y-11.3432 F50.00
G01 X17.3322 Y-11.4037 F50.00
G01 X17.3429 Y-11.4570 F50.00
G01 X17.3429 Y-12.1430 F50.00
G01 X17.3322 Y-12.1963 F50.00
G01 X17.2918 Y-12.2568 F50.00
G01 X17.2313 Y-12.2972 F50.00
G01 X17.1780 Y-12.3079 F50.00
G01 X15.6420 Y-12.3079 F50.00
G01 X15.5887 Y-12.2972 F50.00
G01 X15.5282 Y-12.2568 F50.00
G01 X15.5013 Y-12.2167 F50.00
G01 X15.4938 Y-12.2078 F50.00
G01 X15.4863 Y-12.2013 F50.00
G01 X15.4735 Y-12.1927 F50.00
G01 X15.4646 Y-12.1882 F50.00
G01 X15.4551 Y-12.1851 F50.00
G01 X15.4470 Y-12.1836 F50.00
G01 X15.4364 Y-12.1829 F50.00
G01 X15.1714 Y-12.1829 F50.00
G01 X15.1631 Y-12.1834 F50.00
G01 X15.1549 Y-12.1849 F50.00
G01 X15.1470 Y-12.1874 F50.00
G01 X15.1313 Y-12.1942 F50.00
G01 X15.1229 Y-12.1995 F50.00
G01 X15.1154 Y-12.2060 F50.00
G01 X14.3760 Y-12.9454 F50.00
G01 X14.3695 Y-12.9529 F50.00
G01 X14.3634 Y-12.9628 F50.00
G01 X14.3568 Y-12.9786 F50.00
G01 X14.3538 Y-12.9898 F50.00
G01 X14.3529 Y-13.0014 F50.00
G01 X14.3529 Y-13.3146 F50.00
G01 X14.3532 Y-13.3213 F50.00
G01 X14.3541 Y-13.3278 F50.00
G01 X14.3574 Y-13.3390 F50.00
G01 X14.3620 Y-13.3502 F50.00
G01 X14.3650 Y-13.3561 F50.00
G01 X14.3686 Y-13.3617 F50.00
G01 X14.3726 Y-13.3670 F50.00
G01 X14.3772 Y-13.3718 F50.00
G01 X14.3822 Y-13.3761 F50.00
G01 X14.3877 Y-13.3799 F50.00
G01 X14.3935 Y-13.3832 F50.00
G01 X14.4061 Y-13.3886 F50.00
G01 X14.4124 Y-13.3909 F50.00
G01 X14.4188 Y-13.3925 F50.00
G01 X14.4254 Y-13.3935 F50.00
G01 X14.4320 Y-13.3938 F50.00
G01 X14.4386 Y-13.3935 F50.00
G01 X14.4452 Y-13.3925 F50.00
G01 X14.4516 Y-13.3909 F50.00
G01 X14.4675 Y-13.3846 F50.00
G01 X14.4777 Y-13.3790 F50.00
G01 X14.4868 Y-13.3718 F50.00
G01 X15.0412 Y-12.8174 F50.00
G01 X15.0467 Y-12.8113 F50.00
G01 X15.0667 Y-12.7862 F50.00
G01 X15.1084 Y-12.7577 F50.00
G01 X15.1493 Y-12.7275 F50.00
G01 X15.1617 Y-12.7213 F50.00
G01 X15.2103 Y-12.7063 F50.00
G01 X15.2583 Y-12.6895 F50.00
G01 X15.2720 Y-12.6871 F50.00
G01 X15.3228 Y-12.6871 F50.00
G01 X15.3736 Y-12.6852 F50.00
G01 X15.3820 Y-12.6866 F50.00
G01 X15.3891 Y-12.6871 F50.00
G01 X15.4381 Y-12.6871 F50.00
G01 X15.4447 Y-12.6866 F50.00
G01 X15.4513 Y-12.6855 F50.00
G01 X15.4623 Y-12.6820 F50.00
G01 X15.4735 Y-12.6773 F50.00
G01 X15.4793 Y-12.6742 F50.00
G01 X15.4862 Y-12.6695 F50.00
G01 X15.4936 Y-12.6628 F50.00
G01 X15.5013 Y-12.6533 F50.00
G01 X15.5282 Y-12.6132 F50.00
G01 X15.5887 Y-12.5728 F50.00
G01 X15.6420 Y-12.5621 F50.00
G01 X17.1780 Y-12.5621 F50.00
G01 X17.2313 Y-12.5728 F50.00
G01 X17.2918 Y-12.6132 F50.00
G01 X17.3322 Y-12.6737 F50.00
G01 X17.3429 Y-12.7270 F50.00
G01 X17.3429 Y-13.4130 F50.00
G01 X17.3322 Y-13.4663 F50.00
G01 X17.2918 Y-13.5268 F50.00
G01 X17.2313 Y-13.5672 F50.00
G01 X17.1780 Y-13.5779 F50.00
G01 X15.6420 Y-13.5779 F50.00
G01 X15.5887 Y-13.5672 F50.00
G01 X15.5147 Y-13.5176 F50.00
G01 X15.5042 Y-13.5118 F50.00
G01 X15.4982 Y-13.5090 F50.00
G01 X15.4902 Y-13.5063 F50.00
G01 X15.4803 Y-13.5044 F50.00
G01 X15.4703 Y-13.5040 F50.00
G01 X15.4603 Y-13.5051 F50.00
G01 X15.4453 Y-13.5084 F50.00
G01 X15.4345 Y-13.5125 F50.00
G01 X15.4247 Y-13.5184 F50.00
G01 X15.4145 Y-13.5269 F50.00
G01 X14.9749 Y-13.9666 F50.00
G01 X14.9686 Y-13.9743 F50.00
G01 X14.9634 Y-13.9828 F50.00
G01 X14.9568 Y-13.9986 F50.00
G01 X14.9541 Y-14.0082 F50.00
G01 X14.9532 Y-14.0147 F50.00
G01 X14.9529 Y-14.0214 F50.00
G01 X14.9529 Y-18.8186 F50.00
G01 X14.9536 Y-18.8286 F50.00
G01 X14.9563 Y-18.8399 F50.00
G01 X14.9627 Y-18.8557 F50.00
G01 X14.9686 Y-18.8657 F50.00
G01 X14.9760 Y-18.8746 F50.00
G01 X15.8354 Y-19.7340 F50.00
G01 X15.8429 Y-19.7405 F50.00
G01 X15.8513 Y-19.7458 F50.00
G01 X15.8655 Y-19.7520 F50.00
G01 X15.8733 Y-19.7547 F50.00
G01 X15.8814 Y-19.7564 F50.00
G01 X15.8914 Y-19.7571 F50.00
G01 X17.1844 Y-19.7571 F50.00
G01 X17.1926 Y-19.7567 F50.00
G01 X17.2245 Y-19.7531 F50.00
G01 X17.2754 Y-19.7627 F50.00
G01 X17.2849 Y-19.7639 F50.00
G01 X17.2932 Y-19.7641 F50.00
G01 X17.3047 Y-19.7625 F50.00
G01 X17.3164 Y-19.7596 F50.00
G01 X17.3243 Y-19.7569 F50.00
G01 X17.3303 Y-19.7541 F50.00
G01 X17.3374 Y-19.7498 F50.00
G01 X17.3426 Y-19.7457 F50.00
G01 X17.3474 Y-19.7411 F50.00
G01 X17.3518 Y-19.7361 F50.00
G01 X17.3556 Y-19.7307 F50.00
G01 X17.3619 Y-19.7203 F50.00
G01 X17.3655 Y-19.7129 F50.00
G01 X17.3683 Y-19.7050 F50.00
G01 X17.3697 Y-19.6986 F50.00
G01 X17.3706 Y-19.6920 F50.00
G01 X17.3707 Y-19.6837 F50.00
G01 X17.3691 Y-19.6722 F50.00
G01 X17.3662 Y-19.6604 F50.00
G01 X17.3635 Y-19.6525 F50.00
G01 X17.3607 Y-19.6465 F50.00
G01 X17.3573 Y-19.6408 F50.00
G01 X17.3534 Y-19.6354 F50.00
G01 X17.3489 Y-19.6304 F50.00
G01 X16.3996 Y-18.6810 F50.00
G01 X16.3934 Y-18.6755 F50.00
G01 X16.3865 Y-18.6708 F50.00
G01 X16.3792 Y-18.6670 F50.00
G01 X16.3633 Y-18.6608 F50.00
G01 X16.3552 Y-18.6588 F50.00
G01 X16.3453 Y-18.6579 F50.00
G01 X15.6420 Y-18.6579 F50.00
G01 X15.5887 Y-18.6472 F50.00
G01 X15.5282 Y-18.6068 F50.00
G01 X15.4878 Y-18.5463 F50.00
G01 X15.4771 Y-18.4930 F50.00
G01 X15.4771 Y-17.8070 F50.00
G01 X15.4878 Y-17.7537 F50.00
G01 X15.5282 Y-17.6932 F50.00
G01 X15.5887 Y-17.6528 F50.00
G01 X15.6420 Y-17.6421 F50.00
G01 X17.1780 Y-17.6421 F50.00
G01 X17.2313 Y-17.6528 F50.00
G01 X17.2918 Y-17.6932 F50.00
G01 X17.3322 Y-17.7537 F50.00
G01 X17.3429 Y-17.8070 F50.00
G01 X17.3429 Y-18.4931 F50.00
G01 X17.3420 Y-18.5001 F50.00
G01 X17.3418 Y-18.5068 F50.00
G01 X17.3428 Y-18.5167 F50.00
G01 X17.3464 Y-18.5334 F50.00
G01 X17.3507 Y-18.5441 F50.00
G01 X17.3558 Y-18.5527 F50.00
G01 X17.3603 Y-18.5584 F50.00
G01 X17.3647 Y-18.5633 F50.00
G01 X18.7554 Y-19.9540 F50.00
G01 X18.7629 Y-19.9605 F50.00
G01 X18.7699 Y-19.9650 F50.00
G01 X18.7758 Y-19.9680 F50.00
G01 X18.7886 Y-19.9732 F50.00
G01 X18.7998 Y-19.9762 F50.00
G01 X18.8114 Y-19.9771 F50.00
G01 X23.6286 Y-19.9771 F50.00
G01 X23.6402 Y-19.9762 F50.00
G01 X23.6467 Y-19.9747 F50.00
G01 X23.6530 Y-19.9726 F50.00
G01 X23.6642 Y-19.9680 F50.00
G01 X23.6715 Y-19.9642 F50.00
G01 X23.6784 Y-19.9595 F50.00
G01 X23.6846 Y-19.9540 F50.00
G01 X25.6640 Y-17.9745 F50.00
G01 X25.6695 Y-17.9683 F50.00
G01 X25.6742 Y-17.9615 F50.00
G01 X25.6806 Y-17.9493 F50.00
G01 X25.6831 Y-17.9432 F50.00
G01 X25.6861 Y-17.9320 F50.00
G01 X25.6901 Y-17.9056 F50.00
G01 X25.6944 Y-17.8924 F50.00
G01 X25.7182 Y-17.8474 F50.00
G01 X25.7402 Y-17.8016 F50.00
G01 X25.7483 Y-17.7903 F50.00
G01 X25.7842 Y-17.7543 F50.00
G01 X25.8188 Y-17.7171 F50.00
G01 X25.8270 Y-17.7110 F50.00
G01 X25.8323 Y-17.7063 F50.00
G01 X27.9563 Y-15.5822 F50.00
G01 X27.9633 Y-15.5730 F50.00
G01 X27.9686 Y-15.5627 F50.00
G01 X27.9726 Y-15.5530 F50.00
G01 X27.9747 Y-15.5467 F50.00
G01 X27.9764 Y-15.5386 F50.00
G01 X27.9771 Y-15.5320 F50.00
G01 X27.9771 Y-15.2154 F50.00
G01 X27.9768 Y-15.2087 F50.00
G01 X27.9755 Y-15.2005 F50.00
G01 X27.9726 Y-15.1910 F50.00
G01 X27.9666 Y-15.1768 F50.00
G01 X27.9624 Y-15.1697 F50.00
G01 X27.9563 Y-15.1618 F50.00
G01 X27.9490 Y-15.1549 F50.00
G01 X27.9409 Y-15.1492 F50.00
G01 X27.9335 Y-15.1454 F50.00
G01 X27.9208 Y-15.1402 F50.00
G01 X27.9112 Y-15.1375 F50.00
G01 X27.9030 Y-15.1364 F50.00
G01 X27.8930 Y-15.1364 F50.00
G01 X27.8848 Y-15.1375 F50.00
G01 X27.8752 Y-15.1402 F50.00
G01 X27.8609 Y-15.1461 F50.00
G01 X27.8537 Y-15.1501 F50.00
G01 X27.8470 Y-15.1549 F50.00
G01 X27.8420 Y-15.1594 F50.00
G01 X26.5788 Y-16.4226 F50.00
G01 X26.5733 Y-16.4287 F50.00
G01 X26.5533 Y-16.4538 F50.00
G01 X26.5116 Y-16.4823 F50.00
G01 X26.4707 Y-16.5125 F50.00
G01 X26.4583 Y-16.5187 F50.00
G01 X26.4097 Y-16.5337 F50.00
G01 X26.3617 Y-16.5505 F50.00
G01 X26.3480 Y-16.5529 F50.00
G01 X26.2972 Y-16.5529 F50.00
G01 X26.2464 Y-16.5548 F50.00
G01 X26.2363 Y-16.5532 F50.00
G01 X26.2292 Y-16.5529 F50.00
G01 X22.1122 Y-16.5529 F50.00
G01 X22.1039 Y-16.5534 F50.00
G01 X22.0957 Y-16.5549 F50.00
G01 X22.0894 Y-16.5568 F50.00
G01 X22.0767 Y-16.5620 F50.00
G01 X22.0708 Y-16.5649 F50.00
G01 X22.0653 Y-16.5684 F50.00
G01 X22.0602 Y-16.5724 F50.00
G01 X22.0543 Y-16.5780 F50.00
G01 X22.0501 Y-16.5831 F50.00
G01 X22.0452 Y-16.5899 F50.00
G01 X22.0420 Y-16.5953 F50.00
G01 X21.9819 Y-16.7161 F50.00
G01 X21.8666 Y-16.8688 F50.00
G01 X21.7251 Y-16.9978 F50.00
G01 X21.5624 Y-17.0985 F50.00
G01 X21.3839 Y-17.1677 F50.00
G01 X21.1957 Y-17.2029 F50.00
G01 X21.0043 Y-17.2029 F50.00
G01 X20.8161 Y-17.1677 F50.00
G01 X20.6377 Y-17.0985 F50.00
G01 X20.4749 Y-16.9978 F50.00
G01 X20.3334 Y-16.8688 F50.00
G01 X20.2181 Y-16.7161 F50.00
G01 X20.1328 Y-16.5447 F50.00
G01 X20.0804 Y-16.3606 F50.00
G01 X20.0627 Y-16.1700 F50.00
G01 X20.0804 Y-15.9792 F50.00
G01 X20.0822 Y-15.9683 F50.00
G01 X20.0823 Y-15.9583 F50.00
G01 X20.0802 Y-15.9413 F50.00
G01 X20.0786 Y-15.9349 F50.00
G01 X20.0764 Y-15.9286 F50.00
G01 X20.0729 Y-15.9211 F50.00
G01 X20.0693 Y-15.9155 F50.00
G01 X20.0653 Y-15.9102 F50.00
G01 X20.0608 Y-15.9054 F50.00
G01 X20.0489 Y-15.8956 F50.00
G01 X20.0392 Y-15.8892 F50.00
G01 X20.0332 Y-15.8863 F50.00
G01 X20.0270 Y-15.8840 F50.00
G01 X20.0205 Y-15.8823 F50.00
G01 X20.0140 Y-15.8813 F50.00
G01 X20.0024 Y-15.8811 F50.00
G01 X19.9855 Y-15.8832 F50.00
G01 X19.9791 Y-15.8847 F50.00
G01 X19.9730 Y-15.8868 F50.00
G01 X19.9670 Y-15.8895 F50.00
G01 X19.9614 Y-15.8928 F50.00
G01 X19.9536 Y-15.8985 F50.00
G01 X19.9489 Y-15.9026 F50.00
G01 X18.7188 Y-17.1326 F50.00
G01 X18.7133 Y-17.1387 F50.00
G01 X18.6933 Y-17.1638 F50.00
G01 X18.6516 Y-17.1923 F50.00
G01 X18.6107 Y-17.2225 F50.00
G01 X18.5983 Y-17.2287 F50.00
G01 X18.5497 Y-17.2437 F50.00
G01 X18.5017 Y-17.2605 F50.00
G01 X18.4880 Y-17.2629 F50.00
G01 X18.4372 Y-17.2629 F50.00
G01 X18.3864 Y-17.2648 F50.00
G01 X18.3763 Y-17.2632 F50.00
G01 X18.3692 Y-17.2629 F50.00
G01 X17.3836 Y-17.2629 F50.00
G01 X17.3753 Y-17.2634 F50.00
G01 X17.3639 Y-17.2658 F50.00
G01 X17.3495 Y-17.2714 F50.00
G01 X17.3407 Y-17.2758 F50.00
G01 X17.3338 Y-17.2805 F50.00
G01 X17.3264 Y-17.2872 F50.00
G01 X17.3197 Y-17.2953 F50.00
G01 X17.2918 Y-17.3368 F50.00
G01 X17.2313 Y-17.3772 F50.00
G01 X17.1780 Y-17.3879 F50.00
G01 X15.6420 Y-17.3879 F50.00
G01 X15.5887 Y-17.3772 F50.00
G01 X15.5282 Y-17.3368 F50.00
G01 X15.4878 Y-17.2763 F50.00
G01 X15.4771 Y-17.2230 F50.00
G01 X15.4771 Y-16.5370 F50.00
G01 X15.4878 Y-16.4837 F50.00
G01 X15.5282 Y-16.4232 F50.00
G01 X15.5887 Y-16.3828 F50.00
G01 X15.6420 Y-16.3721 F50.00
G01 X17.1780 Y-16.3721 F50.00
G01 X17.2313 Y-16.3828 F50.00
G01 X17.2918 Y-16.4232 F50.00
G01 X17.3197 Y-16.4647 F50.00
G01 X17.3250 Y-16.4710 F50.00
G01 X17.3311 Y-16.4767 F50.00
G01 X17.3451 Y-16.4864 F50.00
G01 X17.3524 Y-16.4904 F50.00
G01 X17.3633 Y-16.4945 F50.00
G01 X17.3730 Y-16.4964 F50.00
G01 X17.3836 Y-16.4971 F50.00
G01 X18.2386 Y-16.4971 F50.00
G01 X18.2502 Y-16.4962 F50.00
G01 X18.2614 Y-16.4932 F50.00
G01 X18.2742 Y-16.4880 F50.00
G01 X18.2801 Y-16.4850 F50.00
G01 X18.2871 Y-16.4805 F50.00
G01 X18.2946 Y-16.4740 F50.00
G01 X19.8440 Y-14.9246 F50.00
G01 X19.8505 Y-14.9171 F50.00
G01 X19.8558 Y-14.9087 F50.00
G01 X19.8626 Y-14.8930 F50.00
G01 X19.8655 Y-14.8835 F50.00
G01 X19.8668 Y-14.8753 F50.00
G01 X19.8671 Y-14.8686 F50.00
G01 X19.8671 Y-14.5554 F50.00
G01 X19.8668 Y-14.5487 F50.00
G01 X19.8655 Y-14.5405 F50.00
G01 X19.8632 Y-14.5326 F50.00
G01 X19.8586 Y-14.5213 F50.00
G01 X19.8533 Y-14.5110 F50.00
G01 X19.8495 Y-14.5056 F50.00
G01 X19.8451 Y-14.5006 F50.00
G01 X19.8390 Y-14.4949 F50.00
G01 X19.8337 Y-14.4910 F50.00
G01 X19.8280 Y-14.4876 F50.00
G01 X19.8220 Y-14.4847 F50.00
G01 X19.8108 Y-14.4802 F50.00
G01 X19.8028 Y-14.4779 F50.00
G01 X19.7946 Y-14.4765 F50.00
G01 X19.7880 Y-14.4762 F50.00
G01 X19.7814 Y-14.4765 F50.00
G01 X19.7732 Y-14.4779 F50.00
G01 X19.7637 Y-14.4807 F50.00
G01 X19.7480 Y-14.4876 F50.00
G01 X19.7396 Y-14.4929 F50.00
G01 X19.7320 Y-14.4994 F50.00
G01 X18.3688 Y-15.8626 F50.00
G01 X18.3633 Y-15.8687 F50.00
G01 X18.3433 Y-15.8938 F50.00
G01 X18.3016 Y-15.9223 F50.00
G01 X18.2607 Y-15.9525 F50.00
G01 X18.2483 Y-15.9587 F50.00
G01 X18.1997 Y-15.9737 F50.00
G01 X18.1517 Y-15.9905 F50.00
G01 X18.1380 Y-15.9929 F50.00
G01 X18.0872 Y-15.9929 F50.00
G01 X18.0364 Y-15.9948 F50.00
G01 X18.0263 Y-15.9932 F50.00
G01 X18.0192 Y-15.9929 F50.00
G01 X17.3836 Y-15.9929 F50.00
G01 X17.3753 Y-15.9934 F50.00
G01 X17.3639 Y-15.9958 F50.00
G01 X17.3495 Y-16.0014 F50.00
G01 X17.3407 Y-16.0058 F50.00
G01 X17.3338 Y-16.0105 F50.00
G01 X17.3264 Y-16.0172 F50.00
G01 X17.3197 Y-16.0253 F50.00
G01 X17.2918 Y-16.0668 F50.00
G01 X17.2313 Y-16.1072 F50.00
G01 X17.1780 Y-16.1179 F50.00
G01 X15.6420 Y-16.1179 F50.00
G01 X15.5887 Y-16.1072 F50.00
G01 X15.5282 Y-16.0668 F50.00
G01 X15.4878 Y-16.0063 F50.00
G01 X15.4771 Y-15.9530 F50.00
G01 X15.4771 Y-15.2670 F50.00
G01 X15.4878 Y-15.2137 F50.00
G01 X15.5282 Y-15.1532 F50.00
G01 X15.5887 Y-15.1128 F50.00
G01 X15.6420 Y-15.1021 F50.00
G01 X17.1780 Y-15.1021 F50.00
G01 X17.2313 Y-15.1128 F50.00
G01 X17.2918 Y-15.1532 F50.00
G01 X17.3197 Y-15.1947 F50.00
G01 X17.3250 Y-15.2010 F50.00
G01 X17.3311 Y-15.2067 F50.00
G01 X17.3437 Y-15.2155 F50.00
G01 X17.3509 Y-15.2197 F50.00
G01 X17.3601 Y-15.2235 F50.00
G01 X17.3698 Y-15.2259 F50.00
G01 X17.3769 Y-15.2268 F50.00
G01 X17.3836 Y-15.2271 F50.00
G01 X17.8886 Y-15.2271 F50.00
G01 X17.9002 Y-15.2262 F50.00
G01 X17.9099 Y-15.2237 F50.00
G01 X17.9242 Y-15.2180 F50.00
G01 X17.9301 Y-15.2150 F50.00
G01 X17.9371 Y-15.2105 F50.00
G01 X17.9446 Y-15.2040 F50.00
G01 X19.1940 Y-13.9546 F50.00
G01 X19.2005 Y-13.9471 F50.00
G01 X19.2058 Y-13.9387 F50.00
G01 X19.2126 Y-13.9230 F50.00
G01 X19.2151 Y-13.9151 F50.00
G01 X19.2166 Y-13.9069 F50.00
G01 X19.2171 Y-13.8986 F50.00
G01 X19.2171 Y-13.1245 F50.00
G01 X19.2168 Y-13.1178 F50.00
G01 X19.2159 Y-13.1113 F50.00
G01 X19.2137 Y-13.1032 F50.00
G01 X19.2066 Y-13.0859 F50.00
G01 X19.2033 Y-13.0801 F50.00
G01 X19.1995 Y-13.0747 F50.00
G01 X19.1951 Y-13.0697 F50.00
G01 X19.1903 Y-13.0651 F50.00
G01 X19.1851 Y-13.0610 F50.00
G01 X19.1780 Y-13.0567 F50.00
G01 X19.1720 Y-13.0538 F50.00
G01 X19.1592 Y-13.0487 F50.00
G01 X19.1512 Y-13.0466 F50.00
G01 X19.1446 Y-13.0456 F50.00
G01 X19.1380 Y-13.0453 F50.00
G01 X19.1314 Y-13.0456 F50.00
G01 X19.1232 Y-13.0470 F50.00
G01 X19.1152 Y-13.0493 F50.00
G01 X19.1009 Y-13.0552 F50.00
G01 X19.0936 Y-13.0592 F50.00
G01 X19.0868 Y-13.0641 F50.00
G01 X19.0807 Y-13.0698 F50.00
G01 X19.0754 Y-13.0762 F50.00
G01 X19.0709 Y-13.0833 F50.00
G01 X19.0647 Y-13.0953 F50.00
G01 X19.0623 Y-13.1016 F50.00
G01 X19.0609 Y-13.1065 F50.00
G01 X19.0575 Y-13.1241 F50.00
G01 X19.0499 Y-13.1744 F50.00
G01 X19.0456 Y-13.1876 F50.00
G01 X19.0218 Y-13.2326 F50.00
G01 X18.9998 Y-13.2784 F50.00
G01 X18.9917 Y-13.2897 F50.00
G01 X18.9558 Y-13.3257 F50.00
G01 X18.9212 Y-13.3629 F50.00
G01 X18.9130 Y-13.3690 F50.00
G01 X18.9077 Y-13.3737 F50.00
G01 X17.6888 Y-14.5926 F50.00
G01 X17.6833 Y-14.5987 F50.00
G01 X17.6633 Y-14.6238 F50.00
G01 X17.6216 Y-14.6523 F50.00
G01 X17.5807 Y-14.6825 F50.00
G01 X17.5683 Y-14.6887 F50.00
G01 X17.5197 Y-14.7037 F50.00
G01 X17.4717 Y-14.7205 F50.00
G01 X17.4580 Y-14.7229 F50.00
G01 X17.4072 Y-14.7229 F50.00
G01 X17.3783 Y-14.7240 F50.00
G01 X17.3684 Y-14.7253 F50.00
G01 X17.3573 Y-14.7287 F50.00
G01 X17.3448 Y-14.7344 F50.00
G01 X17.3389 Y-14.7376 F50.00
G01 X17.3320 Y-14.7425 F50.00
G01 X17.3258 Y-14.7482 F50.00
G01 X17.3181 Y-14.7575 F50.00
G01 X17.2918 Y-14.7968 F50.00
G01 X17.2313 Y-14.8372 F50.00
G01 X17.1780 Y-14.8479 F50.00
G01 X15.6420 Y-14.8479 F50.00
G01 X15.5887 Y-14.8372 F50.00
G01 X15.5282 Y-14.7968 F50.00
G01 X15.4878 Y-14.7363 F50.00
G01 X15.4771 Y-14.6830 F50.00
G01 X15.4771 Y-13.9970 F50.00
G01 X15.4878 Y-13.9437 F50.00
G01 X15.5282 Y-13.8832 F50.00
G01 X15.5887 Y-13.8428 F50.00
G01 X15.6420 Y-13.8321 F50.00
G01 X17.1780 Y-13.8321 F50.00
G01 X17.2313 Y-13.8428 F50.00
G01 X17.2519 Y-13.8565 F50.00
G01 X17.2576 Y-13.8599 F50.00
G01 X17.2667 Y-13.8640 F50.00
G01 X17.2747 Y-13.8663 F50.00
G01 X17.2899 Y-13.8691 F50.00
G01 X17.2998 Y-13.8696 F50.00
G01 X17.3097 Y-13.8686 F50.00
G01 X17.3209 Y-13.8657 F50.00
G01 X17.3286 Y-13.8624 F50.00
G01 X17.3388 Y-13.8569 F50.00
G01 X17.3457 Y-13.8522 F50.00
G01 X17.3519 Y-13.8467 F50.00
G01 X18.2740 Y-12.9246 F50.00
G01 X18.2795 Y-12.9184 F50.00
G01 X18.2842 Y-12.9115 F50.00
G01 X18.2880 Y-12.9042 F50.00
G01 X18.2942 Y-12.8883 F50.00
G01 X18.2964 Y-12.8786 F50.00
G01 X18.2971 Y-12.8686 F50.00
G01 X18.2971 Y-11.8656 F50.00
G01 X18.2967 Y-11.8574 F50.00
G01 X18.2931 Y-11.8255 F50.00
G01 X18.3025 Y-11.7759 F50.00
G01 X18.3101 Y-11.7256 F50.00
G01 X18.3144 Y-11.7124 F50.00
G01 X18.3382 Y-11.6674 F50.00
G01 X18.3602 Y-11.6216 F50.00
G01 X18.3683 Y-11.6103 F50.00
G01 X18.4042 Y-11.5743 F50.00
G01 X18.4388 Y-11.5371 F50.00
G01 X18.4470 Y-11.5310 F50.00
G01 X18.4523 Y-11.5263 F50.00
G01 X18.6963 Y-11.2822 F50.00
G01 X18.7033 Y-11.2730 F50.00
G01 X18.7086 Y-11.2627 F50.00
G01 X18.7126 Y-11.2530 F50.00
G01 X18.7147 Y-11.2467 F50.00
G01 X18.7162 Y-11.2402 F50.00
G01 X18.7170 Y-11.2336 F50.00
G01 X18.7171 Y-7.3856 F50.00
G01 X18.7167 Y-7.3774 F50.00
G01 X18.7131 Y-7.3455 F50.00
G01 X18.7225 Y-7.2959 F50.00
G01 X18.7301 Y-7.2456 F50.00
G01 X18.7344 Y-7.2324 F50.00
G01 X18.7582 Y-7.1874 F50.00
G01 X18.7802 Y-7.1416 F50.00
G01 X18.7883 Y-7.1303 F50.00
G01 X18.8242 Y-7.0943 F50.00
G01 X18.8588 Y-7.0571 F50.00
G01 X18.8670 Y-7.0510 F50.00
G01 X18.8723 Y-7.0463 F50.00
G01 X19.4312 Y-6.4874 F50.00
G01 X19.4367 Y-6.4813 F50.00
G01 X19.4567 Y-6.4562 F50.00
G01 X19.4984 Y-6.4277 F50.00
G01 X19.5393 Y-6.3975 F50.00
G01 X19.5517 Y-6.3913 F50.00
G01 X19.6003 Y-6.3763 F50.00
G01 X19.6483 Y-6.3595 F50.00
G01 X19.6620 Y-6.3571 F50.00
G01 X19.7128 Y-6.3571 F50.00
G01 X19.7636 Y-6.3552 F50.00
G01 X19.7738 Y-6.3568 F50.00
G01 X19.7808 Y-6.3571 F50.00
G01 X20.4286 Y-6.3571 F50.00
G01 X20.4353 Y-6.3568 F50.00
G01 X20.4418 Y-6.3559 F50.00
G01 X20.4530 Y-6.3526 F50.00
G01 X20.4642 Y-6.3480 F50.00
G01 X20.4701 Y-6.3450 F50.00
G01 X20.4771 Y-6.3405 F50.00
G01 X20.4834 Y-6.3351 F50.00
G01 X20.6279 Y-6.1906 F50.00
G01 X20.6334 Y-6.1844 F50.00
G01 X20.6390 Y-6.1761 F50.00
G01 X20.6426 Y-6.1687 F50.00
G01 X20.6477 Y-6.1559 F50.00
G01 X20.6504 Y-6.1446 F50.00
G01 X20.6511 Y-6.1347 F50.00
G01 X20.6504 Y-6.1247 F50.00
G01 X20.6482 Y-6.1150 F50.00
G01 X20.6443 Y-6.1048 F50.00
G01 X20.6535 Y-6.1075 F50.00
G01 X20.6686 Y-6.1104 F50.00
G01 X20.6769 Y-6.1109 F50.00
G01 X20.6868 Y-6.1102 F50.00
G01 X20.6965 Y-6.1080 F50.00
G01 X20.7043 Y-6.1051 F50.00
G01 X20.7176 Y-6.0981 F50.00
G01 X20.7257 Y-6.0924 F50.00
G01 X20.7306 Y-6.0879 F50.00
G01 X20.9451 Y-5.8734 F50.00
G01 X20.9505 Y-5.8671 F50.00
G01 X20.9558 Y-5.8587 F50.00
G01 X20.9620 Y-5.8445 F50.00
G01 X20.9647 Y-5.8367 F50.00
G01 X20.9666 Y-5.8269 F50.00
G01 X20.9671 Y-5.8186 F50.00
G01 X20.9671 Y-5.0514 F50.00
G01 X20.9666 Y-5.0431 F50.00
G01 X20.9651 Y-5.0349 F50.00
G01 X20.9626 Y-5.0270 F50.00
G01 X20.9558 Y-5.0113 F50.00
G01 X20.9514 Y-5.0043 F50.00
G01 X20.9451 Y-4.9966 F50.00
G01 X20.7005 Y-4.7520 F50.00
G01 X20.6956 Y-4.7475 F50.00
G01 X20.6889 Y-4.7426 F50.00
G01 X20.6816 Y-4.7386 F50.00
G01 X20.6673 Y-4.7327 F50.00
G01 X20.6594 Y-4.7304 F50.00
G01 X20.6512 Y-4.7291 F50.00
G01 X20.6429 Y-4.7288 F50.00
G01 X20.6346 Y-4.7295 F50.00
G01 X20.6249 Y-4.7317 F50.00
G01 X20.6075 Y-4.7386 F50.00
G01 X20.5975 Y-4.7445 F50.00
G01 X20.5922 Y-4.7486 F50.00
G01 X20.5863 Y-4.7544 F50.00
G01 X20.5806 Y-4.7613 F50.00
G01 X20.5768 Y-4.7668 F50.00
G01 X20.5163 Y-4.8072 F50.00
G01 X20.4630 Y-4.8179 F50.00
G01 X18.7770 Y-4.8179 F50.00
G01 X18.7237 Y-4.8072 F50.00
G01 X18.6632 Y-4.7668 F50.00
G01 X18.6228 Y-4.7063 F50.00
G01 X18.6121 Y-4.6530 F50.00
G01 X18.6121 Y-3.9670 F50.00
G01 X18.6228 Y-3.9137 F50.00
G01 X18.6632 Y-3.8532 F50.00
G01 X18.7237 Y-3.8128 F50.00
G01 X18.7770 Y-3.8021 F50.00
G01 X20.4630 Y-3.8021 F50.00
G01 X20.5163 Y-3.8128 F50.00
G01 X20.5768 Y-3.8532 F50.00
G01 X20.6037 Y-3.8933 F50.00
G01 X20.6100 Y-3.9010 F50.00
G01 X20.6174 Y-3.9077 F50.00
G01 X20.6301 Y-3.9164 F50.00
G01 X20.6374 Y-3.9204 F50.00
G01 X20.6451 Y-3.9235 F50.00
G01 X20.6548 Y-3.9259 F50.00
G01 X20.6669 Y-3.9271 F50.00
G01 X20.7744 Y-3.9271 F50.00
G01 X20.7826 Y-3.9267 F50.00
G01 X20.8145 Y-3.9231 F50.00
G01 X20.8641 Y-3.9325 F50.00
G01 X20.9144 Y-3.9401 F50.00
G01 X20.9276 Y-3.9444 F50.00
G01 X20.9726 Y-3.9682 F50.00
G01 X21.0184 Y-3.9902 F50.00
G01 X21.0297 Y-3.9983 F50.00
G01 X21.0657 Y-4.0342 F50.00
G01 X21.1029 Y-4.0688 F50.00
G01 X21.1090 Y-4.0770 F50.00
G01 X21.1137 Y-4.0823 F50.00
G01 X21.3327 Y-4.3010 F50.00
G01 X21.3393 Y-4.3060 F50.00
G01 X21.3450 Y-4.3094 F50.00
G01 X21.3510 Y-4.3123 F50.00
G01 X21.3638 Y-4.3174 F50.00
G01 X21.3702 Y-4.3191 F50.00
G01 X21.3784 Y-4.3205 F50.00
G01 X21.3850 Y-4.3208 F50.00
G01 X21.3933 Y-4.3203 F50.00
G01 X21.3998 Y-4.3191 F50.00
G01 X21.4062 Y-4.3174 F50.00
G01 X21.4205 Y-4.3116 F50.00
G01 X21.4307 Y-4.3060 F50.00
G01 X21.4386 Y-4.2999 F50.00
G01 X21.8537 Y-3.8849 F50.00
G01 X21.8592 Y-3.8788 F50.00
G01 X21.8792 Y-3.8537 F50.00
G01 X21.9209 Y-3.8252 F50.00
G01 X21.9512 Y-3.8029 F50.00
G01 X21.9575 Y-3.7976 F50.00
G01 X21.9630 Y-3.7917 F50.00
G01 X21.9718 Y-3.7799 F50.00
G01 X21.9772 Y-3.7699 F50.00
G01 X22.0162 Y-3.6654 F50.00
G01 X22.0908 Y-3.5658 F50.00
G01 X22.1073 Y-3.5533 F50.00
G01 X22.1145 Y-3.5464 F50.00
G01 X22.1215 Y-3.5371 F50.00
G01 X22.1299 Y-3.5223 F50.00
G01 X22.1335 Y-3.5130 F50.00
G01 X22.1354 Y-3.5049 F50.00
G01 X22.1362 Y-3.4967 F50.00
G01 X22.1359 Y-3.4867 F50.00
G01 X22.1346 Y-3.4785 F50.00
G01 X22.1301 Y-3.4620 F50.00
G01 X22.1268 Y-3.4544 F50.00
G01 X22.1216 Y-3.4459 F50.00
G01 X22.1164 Y-3.4395 F50.00
G01 X22.1092 Y-3.4326 F50.00
G01 X22.1024 Y-3.4278 F50.00
G01 X22.0905 Y-3.4208 F50.00
G01 X22.0830 Y-3.4174 F50.00
G01 X22.0751 Y-3.4149 F50.00
G01 X22.0670 Y-3.4135 F50.00
G01 X22.0573 Y-3.4129 F50.00
G01 X16.8356 Y-3.4129 F50.00
G01 X16.8274 Y-3.4133 F50.00
G01 X16.7955 Y-3.4169 F50.00
G01 X16.7459 Y-3.4075 F50.00
G01 X16.6956 Y-3.3999 F50.00
G01 X16.6824 Y-3.3956 F50.00
G01 X16.6374 Y-3.3718 F50.00
G01 X16.5916 Y-3.3498 F50.00
G01 X16.5803 Y-3.3417 F50.00
G01 X16.5443 Y-3.3058 F50.00
G01 X16.5071 Y-3.2712 F50.00
G01 X16.5010 Y-3.2630 F50.00
G01 X16.4963 Y-3.2577 F50.00
G01 X15.6774 Y-2.4388 F50.00
G01 X15.6713 Y-2.4333 F50.00
G01 X15.6462 Y-2.4133 F50.00
G01 X15.6177 Y-2.3716 F50.00
G01 X15.5871 Y-2.3301 F50.00
G01 X15.5838 Y-2.3238 F50.00
G01 X15.5802 Y-2.3183 F50.00
G01 X15.5702 Y-2.3066 F50.00
G01 X15.5642 Y-2.3007 F50.00
G01 X15.5548 Y-2.2938 F50.00
G01 X15.5459 Y-2.2893 F50.00
G01 X15.5364 Y-2.2861 F50.00
G01 X15.5281 Y-2.2842 F50.00
G01 X15.5215 Y-2.2832 F50.00
G01 X15.5147 Y-2.2829 F50.00
G01 X15.4185 Y-2.2829 F50.00
G01 X15.4069 Y-2.2838 F50.00
G01 X15.3957 Y-2.2868 F50.00
G01 X15.3785 Y-2.2942 F50.00
G01 X15.3688 Y-2.3005 F50.00
G01 X15.3603 Y-2.3084 F50.00
G01 X15.3551 Y-2.3148 F50.00
G01 X15.3515 Y-2.3204 F50.00
G01 X15.3486 Y-2.3263 F50.00
G01 X15.3445 Y-2.3360 F50.00
G01 X15.3410 Y-2.3470 F50.00
G01 X15.3399 Y-2.3535 F50.00
G01 X15.3394 Y-2.3601 F50.00
G01 X15.3226 Y-6.8428 F50.00
G01 X2.2777 Y-6.9219 F50.00
G01 X2.2777 Y-5.8775 F50.00
G01 X2.4301 Y-5.8764 F50.00
G01 X2.4400 Y-5.8754 F50.00
G01 X2.4497 Y-5.8729 F50.00
G01 X2.4640 Y-5.8671 F50.00
G01 X2.4727 Y-5.8623 F50.00
G01 X2.4819 Y-5.8552 F50.00
G01 X2.4897 Y-5.8467 F50.00
G01 X2.4935 Y-5.8412 F50.00
G01 X2.4968 Y-5.8354 F50.00
G01 X2.5033 Y-5.8196 F50.00
G01 X2.5062 Y-5.8084 F50.00
G01 X2.5071 Y-5.7968 F50.00
G01 X2.5067 Y-5.7902 F50.00
G01 X2.5057 Y-5.7836 F50.00
G01 X2.5024 Y-5.7725 F50.00
G01 X2.4977 Y-5.7613 F50.00
G01 X2.4947 Y-5.7555 F50.00
G01 X2.4912 Y-5.7499 F50.00
G01 X2.4860 Y-5.7435 F50.00
G01 X2.4782 Y-5.7361 F50.00
G01 X2.4017 Y-5.6733 F50.00
G01 X2.3225 Y-5.5769 F50.00
G01 X2.3168 Y-5.5708 F50.00
G01 X2.3105 Y-5.5654 F50.00
G01 X2.3021 Y-5.5601 F50.00
G01 X2.2883 Y-5.5531 F50.00
G01 X2.2777 Y-5.5497 F50.00
G01 X2.2777 Y-3.4525 F50.00
G01 X2.2847 Y-3.4501 F50.00
G01 X2.2988 Y-3.4439 F50.00
G01 X2.3058 Y-3.4395 F50.00
G01 X2.3135 Y-3.4332 F50.00
G01 X2.3199 Y-3.4263 F50.00
G01 X2.3770 Y-3.3566 F50.00
G01 X2.3834 Y-3.3469 F50.00
G01 X2.3879 Y-3.3362 F50.00
G01 X2.3926 Y-3.3198 F50.00
G01 X2.3936 Y-3.3132 F50.00
G01 X2.3939 Y-3.3066 F50.00
G01 X2.3929 Y-3.2950 F50.00
G01 X2.3900 Y-3.2838 F50.00
G01 X2.3834 Y-3.2685 F50.00
G01 X2.3800 Y-3.2628 F50.00
G01 X2.3760 Y-3.2575 F50.00
G01 X2.3197 Y-3.1889 F50.00
G01 X2.3141 Y-3.1828 F50.00
G01 X2.3077 Y-3.1775 F50.00
G01 X2.3008 Y-3.1729 F50.00
G01 X2.2871 Y-3.1658 F50.00
G01 X2.2777 Y-3.1624 F50.00
G01 X2.2777 Y1.1899 F50.00
G00 Z1.0000
G00 X3.6548 Y-0.8697
G01 F45.00
G01 Z-0.1001
G01 F50.00
G01 X3.6809 Y-0.8808 F50.00
G01 X3.7072 Y-0.8904 F50.00
G01 X3.7343 Y-0.8989 F50.00
G01 X3.7622 Y-0.9060 F50.00
G01 X3.7911 Y-0.9117 F50.00
G01 X3.8188 Y-0.9158 F50.00
G01 X3.8330 Y-0.9173 F50.00
G01 X3.8400 Y-0.9179 F50.00
G01 X3.8402 Y-0.9179 F50.00
G01 X3.8412 Y-0.9180 F50.00
G01 X3.8417 Y-0.9180 F50.00
G01 X3.8430 Y-0.9181 F50.00
G01 X3.8471 Y-0.9184 F50.00
G01 X3.8759 Y-0.9197 F50.00
G01 X5.2431 Y-0.9197 F50.00
G01 X5.2610 Y-0.9191 F50.00
G01 X5.2798 Y-0.9179 F50.00
G01 X5.2976 Y-0.9162 F50.00
G01 X5.3153 Y-0.9139 F50.00
G01 X5.3339 Y-0.9108 F50.00
G01 X5.3519 Y-0.9073 F50.00
G01 X5.3708 Y-0.9029 F50.00
G01 X5.3879 Y-0.8982 F50.00
G01 X5.3949 Y-0.9253 F50.00
G01 X4.9558 Y-0.9253 F50.00
G01 X4.9356 Y-0.9257 F50.00
G01 X4.9017 Y-0.9274 F50.00
G01 X4.8814 Y-0.9289 F50.00
G01 X4.8610 Y-0.9312 F50.00
G01 X4.8233 Y-0.9367 F50.00
G01 X4.8034 Y-0.9402 F50.00
G01 X4.7816 Y-0.9448 F50.00
G01 X4.7462 Y-0.9537 F50.00
G01 X4.7280 Y-0.9587 F50.00
G01 X4.7098 Y-0.9644 F50.00
G01 X4.6711 Y-0.9781 F50.00
G01 X4.6505 Y-0.9861 F50.00
G01 X4.6287 Y-0.9957 F50.00
G01 X4.5916 Y-1.0133 F50.00
G01 X4.5652 Y-1.0274 F50.00
G01 X4.5316 Y-1.0474 F50.00
G01 X4.5123 Y-1.0596 F50.00
G01 X4.4928 Y-1.0732 F50.00
G01 X4.4618 Y-1.0962 F50.00
G01 X4.4428 Y-1.1114 F50.00
G01 X4.4297 Y-1.1227 F50.00
G01 X4.4080 Y-1.1424 F50.00
G01 X4.3913 Y-1.1581 F50.00
G01 X4.3727 Y-1.1774 F50.00
G01 X4.3427 Y-1.2108 F50.00
G01 X4.3262 Y-1.2311 F50.00
G01 X4.3075 Y-1.2560 F50.00
G01 X4.2909 Y-1.2337 F50.00
G01 X4.2780 Y-1.2176 F50.00
G01 X4.2654 Y-1.2029 F50.00
G01 X4.2441 Y-1.1794 F50.00
G01 X4.2323 Y-1.1668 F50.00
G01 X4.2197 Y-1.1543 F50.00
G01 X4.2095 Y-1.1446 F50.00
G01 X4.2069 Y-1.1423 F50.00
G01 X4.1886 Y-1.1257 F50.00
G01 X4.1880 Y-1.1251 F50.00
G01 X4.1875 Y-1.1247 F50.00
G01 X4.1871 Y-1.1243 F50.00
G01 X4.1726 Y-1.1118 F50.00
G01 X4.1588 Y-1.1005 F50.00
G01 X4.1191 Y-1.0709 F50.00
G01 X4.0941 Y-1.0540 F50.00
G01 X4.0585 Y-1.0325 F50.00
G01 X4.0406 Y-1.0223 F50.00
G01 X4.0221 Y-1.0127 F50.00
G01 X3.9870 Y-0.9960 F50.00
G01 X3.9678 Y-0.9875 F50.00
G01 X3.9473 Y-0.9794 F50.00
G01 X3.9117 Y-0.9666 F50.00
G01 X3.8926 Y-0.9604 F50.00
G01 X3.8728 Y-0.9547 F50.00
G01 X3.8362 Y-0.9455 F50.00
G01 X3.8155 Y-0.9409 F50.00
G01 X3.7933 Y-0.9370 F50.00
G01 X3.7557 Y-0.9314 F50.00
G01 X3.7349 Y-0.9290 F50.00
G01 X3.7150 Y-0.9275 F50.00
G01 X3.6771 Y-0.9256 F50.00
G01 X3.6548 Y-0.9253 F50.00
G01 X3.6548 Y-0.8697 F50.00
G01 X4.1607 Y-1.0009 F50.00
G01 X4.4543 Y-1.0009 F50.00
G01 X4.4113 Y-1.0326 F50.00
G01 X4.3966 Y-1.0443 F50.00
G01 X4.3817 Y-1.0569 F50.00
G01 X4.3524 Y-1.0832 F50.00
G01 X4.3388 Y-1.0959 F50.00
G01 X4.3234 Y-1.1114 F50.00
G01 X4.3075 Y-1.1284 F50.00
G01 X4.2917 Y-1.1115 F50.00
G01 X4.2761 Y-1.0959 F50.00
G01 X4.2628 Y-1.0834 F50.00
G01 X4.2334 Y-1.0570 F50.00
G01 X4.2183 Y-1.0442 F50.00
G01 X4.2038 Y-1.0327 F50.00
G01 X4.1607 Y-1.0009 F50.00
G01 X4.3156 Y-1.7107 F50.00
G01 X4.3151 Y-1.7300 F50.00
G01 X4.3151 Y-2.6311 F50.00
G01 X4.3155 Y-2.6464 F50.00
G01 X4.3171 Y-2.6794 F50.00
G01 X4.3198 Y-2.7062 F50.00
G01 X4.3246 Y-2.7392 F50.00
G01 X4.3273 Y-2.7543 F50.00
G01 X4.3309 Y-2.7707 F50.00
G01 X4.3391 Y-2.8034 F50.00
G01 X4.3433 Y-2.8181 F50.00
G01 X4.3478 Y-2.8319 F50.00
G01 X4.3590 Y-2.8632 F50.00
G01 X4.3653 Y-2.8788 F50.00
G01 X4.3718 Y-2.8934 F50.00
G01 X4.3892 Y-2.9295 F50.00
G01 X4.3975 Y-2.9445 F50.00
G01 X4.4131 Y-2.9707 F50.00
G01 X4.4213 Y-2.9838 F50.00
G01 X4.4300 Y-2.9964 F50.00
G01 X4.4506 Y-3.0243 F50.00
G01 X4.4598 Y-3.0362 F50.00
G01 X4.4711 Y-3.0494 F50.00
G01 X4.4940 Y-3.0746 F50.00
G01 X4.5047 Y-3.0856 F50.00
G01 X4.5161 Y-3.0965 F50.00
G01 X4.5396 Y-3.1177 F50.00
G01 X4.5525 Y-3.1286 F50.00
G01 X4.5649 Y-3.1382 F50.00
G01 X4.5957 Y-3.1608 F50.00
G01 X4.6114 Y-3.1711 F50.00
G01 X4.6392 Y-3.1878 F50.00
G01 X4.6521 Y-3.1951 F50.00
G01 X4.6659 Y-3.2023 F50.00
G01 X4.6963 Y-3.2167 F50.00
G01 X4.7101 Y-3.2228 F50.00
G01 X4.7259 Y-3.2290 F50.00
G01 X4.7542 Y-3.2392 F50.00
G01 X4.7720 Y-3.2450 F50.00
G01 X4.7885 Y-3.2496 F50.00
G01 X4.8215 Y-3.2578 F50.00
G01 X4.8448 Y-3.2623 F50.00
G01 X4.8792 Y-3.2675 F50.00
G01 X4.8975 Y-3.2696 F50.00
G01 X4.9382 Y-3.2719 F50.00
G01 X4.9549 Y-3.2724 F50.00
G01 X5.4825 Y-3.2724 F50.00
G01 X5.4979 Y-3.2721 F50.00
G01 X5.5292 Y-3.2705 F50.00
G01 X5.5445 Y-3.2694 F50.00
G01 X5.5608 Y-3.2675 F50.00
G01 X5.5918 Y-3.2629 F50.00
G01 X5.6061 Y-3.2604 F50.00
G01 X5.6204 Y-3.2573 F50.00
G01 X5.6661 Y-3.2456 F50.00
G01 X5.6819 Y-3.2405 F50.00
G01 X5.7132 Y-3.2294 F50.00
G01 X5.7267 Y-3.2241 F50.00
G01 X5.7406 Y-3.2181 F50.00
G01 X5.7705 Y-3.2041 F50.00
G01 X5.7842 Y-3.1971 F50.00
G01 X5.7987 Y-3.1890 F50.00
G01 X5.8256 Y-3.1729 F50.00
G01 X5.8379 Y-3.1651 F50.00
G01 X5.8500 Y-3.1568 F50.00
G01 X5.8769 Y-3.1368 F50.00
G01 X5.8887 Y-3.1277 F50.00
G01 X5.9017 Y-3.1166 F50.00
G01 X5.9253 Y-3.0951 F50.00
G01 X5.9355 Y-3.0855 F50.00
G01 X5.9457 Y-3.0750 F50.00
G01 X5.9682 Y-3.0502 F50.00
G01 X5.9783 Y-3.0385 F50.00
G01 X5.9886 Y-3.0254 F50.00
G01 X6.0072 Y-3.0003 F50.00
G01 X6.0156 Y-2.9883 F50.00
G01 X6.0236 Y-2.9761 F50.00
G01 X6.0409 Y-2.9473 F50.00
G01 X6.0482 Y-2.9343 F50.00
G01 X6.0560 Y-2.9191 F50.00
G01 X6.0697 Y-2.8902 F50.00
G01 X6.0755 Y-2.8770 F50.00
G01 X6.0809 Y-2.8634 F50.00
G01 X6.0920 Y-2.8323 F50.00
G01 X6.0968 Y-2.8177 F50.00
G01 X6.1014 Y-2.8018 F50.00
G01 X6.1086 Y-2.7728 F50.00
G01 X6.7409 Y-2.7723 F50.00
G01 X6.7795 Y-2.7704 F50.00
G01 X6.8061 Y-2.7674 F50.00
G01 X6.8322 Y-2.7635 F50.00
G01 X6.8466 Y-2.7609 F50.00
G01 X6.8609 Y-2.7577 F50.00
G01 X6.8858 Y-2.7515 F50.00
G01 X6.9123 Y-2.7437 F50.00
G01 X6.9489 Y-2.7305 F50.00
G01 X6.9692 Y-2.7219 F50.00
G01 X7.0023 Y-2.7062 F50.00
G01 X7.0226 Y-2.6950 F50.00
G01 X7.0544 Y-2.6757 F50.00
G01 X7.0720 Y-2.6637 F50.00
G01 X7.1007 Y-2.6422 F50.00
G01 X7.1183 Y-2.6273 F50.00
G01 X7.1469 Y-2.6010 F50.00
G01 X7.4155 Y-2.3324 F50.00
G01 X7.7954 Y-2.3324 F50.00
G01 X7.8205 Y-2.3316 F50.00
G01 X6.9990 Y-3.1532 F50.00
G01 X6.9743 Y-3.1798 F50.00
G01 X6.9627 Y-3.1934 F50.00
G01 X6.9508 Y-3.2085 F50.00
G01 X6.9292 Y-3.2382 F50.00
G01 X6.9204 Y-3.2517 F50.00
G01 X6.9070 Y-3.2740 F50.00
G01 X6.8960 Y-3.2936 F50.00
G01 X6.8780 Y-3.3310 F50.00
G01 X6.8677 Y-3.3557 F50.00
G01 X6.8554 Y-3.3905 F50.00
G01 X6.8479 Y-3.4166 F50.00
G01 X6.8417 Y-3.4414 F50.00
G01 X6.8386 Y-3.4561 F50.00
G01 X6.8361 Y-3.4706 F50.00
G01 X6.8320 Y-3.4984 F50.00
G01 X6.8293 Y-3.5252 F50.00
G01 X6.8275 Y-3.5670 F50.00
G01 X6.8275 Y-3.9874 F50.00
G01 X6.8106 Y-3.9939 F50.00
G01 X6.7947 Y-4.0007 F50.00
G01 X6.7652 Y-4.0148 F50.00
G01 X6.7473 Y-4.0242 F50.00
G01 X6.7173 Y-4.0420 F50.00
G01 X6.7037 Y-4.0506 F50.00
G01 X6.6895 Y-4.0604 F50.00
G01 X6.6662 Y-4.0776 F50.00
G01 X6.6541 Y-4.0871 F50.00
G01 X6.6416 Y-4.0978 F50.00
G01 X6.6182 Y-4.1190 F50.00
G01 X6.6057 Y-4.1313 F50.00
G01 X6.5955 Y-4.1420 F50.00
G01 X6.5727 Y-4.1675 F50.00
G01 X6.5624 Y-4.1801 F50.00
G01 X6.5499 Y-4.1967 F50.00
G01 X6.5049 Y-4.1970 F50.00
G01 X6.3793 Y-4.0718 F50.00
G01 X6.3578 Y-4.0522 F50.00
G01 X6.3451 Y-4.0414 F50.00
G01 X6.3331 Y-4.0320 F50.00
G01 X6.3101 Y-4.0150 F50.00
G01 X6.2919 Y-4.0027 F50.00
G01 X6.2651 Y-3.9864 F50.00
G01 X6.2502 Y-3.9780 F50.00
G01 X6.2334 Y-3.9695 F50.00
G01 X6.2074 Y-3.9572 F50.00
G01 X6.1894 Y-3.9497 F50.00
G01 X6.1549 Y-3.9372 F50.00
G01 X6.1352 Y-3.9310 F50.00
G01 X6.1320 Y-3.9104 F50.00
G01 X6.1287 Y-3.8934 F50.00
G01 X6.1166 Y-3.8449 F50.00
G01 X6.1108 Y-3.8263 F50.00
G01 X6.1000 Y-3.7961 F50.00
G01 X6.0947 Y-3.7822 F50.00
G01 X6.0889 Y-3.7685 F50.00
G01 X6.0741 Y-3.7370 F50.00
G01 X6.0670 Y-3.7231 F50.00
G01 X6.0588 Y-3.7084 F50.00
G01 X6.0413 Y-3.6794 F50.00
G01 X6.0330 Y-3.6665 F50.00
G01 X6.0238 Y-3.6535 F50.00
G01 X6.0044 Y-3.6274 F50.00
G01 X5.9917 Y-3.6116 F50.00
G01 X5.9667 Y-3.5839 F50.00
G01 X5.9556 Y-3.5722 F50.00
G01 X5.9432 Y-3.5602 F50.00
G01 X5.9202 Y-3.5394 F50.00
G01 X5.9089 Y-3.5296 F50.00
G01 X5.8970 Y-3.5201 F50.00
G01 X5.8698 Y-3.4999 F50.00
G01 X5.8560 Y-3.4903 F50.00
G01 X5.8428 Y-3.4819 F50.00
G01 X5.8138 Y-3.4646 F50.00
G01 X5.8002 Y-3.4571 F50.00
G01 X5.7865 Y-3.4502 F50.00
G01 X5.7583 Y-3.4370 F50.00
G01 X5.7428 Y-3.4303 F50.00
G01 X5.7282 Y-3.4247 F50.00
G01 X5.6919 Y-3.4120 F50.00
G01 X5.6736 Y-3.4066 F50.00
G01 X5.6417 Y-3.3986 F50.00
G01 X5.6270 Y-3.3953 F50.00
G01 X5.6122 Y-3.3926 F50.00
G01 X5.5786 Y-3.3876 F50.00
G01 X5.5620 Y-3.3856 F50.00
G01 X5.5464 Y-3.3844 F50.00
G01 X5.5129 Y-3.3828 F50.00
G01 X4.9974 Y-3.3826 F50.00
G01 X4.9832 Y-3.3830 F50.00
G01 X4.9506 Y-3.3846 F50.00
G01 X4.9243 Y-3.3872 F50.00
G01 X4.8898 Y-3.3923 F50.00
G01 X4.8715 Y-3.3956 F50.00
G01 X4.8320 Y-3.4052 F50.00
G01 X4.8152 Y-3.4098 F50.00
G01 X4.7967 Y-3.4158 F50.00
G01 X4.7596 Y-3.4293 F50.00
G01 X4.7424 Y-3.4366 F50.00
G01 X4.7143 Y-3.4499 F50.00
G01 X4.6987 Y-3.4577 F50.00
G01 X4.6829 Y-3.4665 F50.00
G01 X4.6529 Y-3.4846 F50.00
G01 X4.6344 Y-3.4969 F50.00
G01 X4.6057 Y-3.5181 F50.00
G01 X4.5933 Y-3.5278 F50.00
G01 X4.5801 Y-3.5390 F50.00
G01 X4.5541 Y-3.5627 F50.00
G01 X4.5365 Y-3.5804 F50.00
G01 X4.5072 Y-3.6130 F50.00
G01 X4.4934 Y-3.6303 F50.00
G01 X4.4691 Y-3.6634 F50.00
G01 X4.4569 Y-3.6823 F50.00
G01 X4.4349 Y-3.7196 F50.00
G01 X4.4254 Y-3.7382 F50.00
G01 X4.4081 Y-3.7755 F50.00
G01 X4.4001 Y-3.7959 F50.00
G01 X4.3859 Y-3.8366 F50.00
G01 X4.3804 Y-3.8561 F50.00
G01 X4.3704 Y-3.8977 F50.00
G01 X4.3668 Y-3.9182 F50.00
G01 X4.3609 Y-3.9603 F50.00
G01 X4.3594 Y-3.9802 F50.00
G01 X4.3576 Y-4.0220 F50.00
G01 X4.3576 Y-4.9761 F50.00
G01 X4.3580 Y-4.9913 F50.00
G01 X4.3595 Y-5.0226 F50.00
G01 X4.3620 Y-5.0495 F50.00
G01 X4.3671 Y-5.0843 F50.00
G01 X4.3702 Y-5.1015 F50.00
G01 X4.3739 Y-5.1178 F50.00
G01 X4.3829 Y-5.1532 F50.00
G01 X4.3892 Y-5.1735 F50.00
G01 X4.4008 Y-5.2061 F50.00
G01 X4.4072 Y-5.2224 F50.00
G01 X4.4143 Y-5.2384 F50.00
G01 X4.4276 Y-5.2664 F50.00
G01 X4.4363 Y-5.2830 F50.00
G01 X4.4564 Y-5.3169 F50.00
G01 X4.4670 Y-5.3335 F50.00
G01 X4.4770 Y-5.3476 F50.00
G01 X4.5016 Y-5.3802 F50.00
G01 X4.5136 Y-5.3944 F50.00
G01 X4.5377 Y-5.4209 F50.00
G01 X4.5554 Y-5.4385 F50.00
G01 X4.5880 Y-5.4678 F50.00
G01 X4.6049 Y-5.4813 F50.00
G01 X4.6378 Y-5.5055 F50.00
G01 X4.6569 Y-5.5179 F50.00
G01 X4.6937 Y-5.5396 F50.00
G01 X4.7117 Y-5.5489 F50.00
G01 X4.7465 Y-5.5652 F50.00
G01 X4.7685 Y-5.5741 F50.00
G01 X4.8081 Y-5.5880 F50.00
G01 X4.8286 Y-5.5939 F50.00
G01 X4.8672 Y-5.6035 F50.00
G01 X4.8898 Y-5.6077 F50.00
G01 X4.9304 Y-5.6136 F50.00
G01 X4.9499 Y-5.6153 F50.00
G01 X4.9837 Y-5.6170 F50.00
G01 X5.0000 Y-5.6174 F50.00
G01 X5.5134 Y-5.6171 F50.00
G01 X5.5464 Y-5.6156 F50.00
G01 X5.5612 Y-5.6144 F50.00
G01 X5.5765 Y-5.6127 F50.00
G01 X5.6063 Y-5.6083 F50.00
G01 X5.6335 Y-5.6033 F50.00
G01 X5.6741 Y-5.5932 F50.00
G01 X5.6985 Y-5.5858 F50.00
G01 X5.7378 Y-5.5717 F50.00
G01 X5.7565 Y-5.5639 F50.00
G01 X5.7856 Y-5.5502 F50.00
G01 X5.8017 Y-5.5421 F50.00
G01 X5.8183 Y-5.5328 F50.00
G01 X5.8480 Y-5.5149 F50.00
G01 X5.8679 Y-5.5015 F50.00
G01 X5.8955 Y-5.4810 F50.00
G01 X5.9106 Y-5.4690 F50.00
G01 X5.9411 Y-5.4417 F50.00
G01 X5.9556 Y-5.4278 F50.00
G01 X5.9840 Y-5.3971 F50.00
G01 X5.9958 Y-5.3835 F50.00
G01 X6.0076 Y-5.3684 F50.00
G01 X6.0310 Y-5.3364 F50.00
G01 X6.0488 Y-5.3434 F50.00
G01 X6.0819 Y-5.3550 F50.00
G01 X6.0992 Y-5.3602 F50.00
G01 X6.1257 Y-5.3669 F50.00
G01 X6.1415 Y-5.3705 F50.00
G01 X6.1576 Y-5.3735 F50.00
G01 X6.1884 Y-5.3780 F50.00
G01 X6.2056 Y-5.3800 F50.00
G01 X6.2409 Y-5.3820 F50.00
G01 X6.2574 Y-5.3825 F50.00
G01 X6.5492 Y-5.3825 F50.00
G01 X6.5605 Y-5.3976 F50.00
G01 X6.5702 Y-5.4095 F50.00
G01 X6.5979 Y-5.4405 F50.00
G01 X6.6161 Y-5.4590 F50.00
G01 X6.6432 Y-5.4836 F50.00
G01 X6.6632 Y-5.5001 F50.00
G01 X6.6955 Y-5.5239 F50.00
G01 X6.7132 Y-5.5356 F50.00
G01 X6.7440 Y-5.5540 F50.00
G01 X6.7659 Y-5.5656 F50.00
G01 X6.8033 Y-5.5831 F50.00
G01 X6.8234 Y-5.5911 F50.00
G01 X6.8604 Y-5.6041 F50.00
G01 X6.8818 Y-5.6103 F50.00
G01 X6.9214 Y-5.6199 F50.00
G01 X6.9421 Y-5.6236 F50.00
G01 X6.9805 Y-5.6290 F50.00
G01 X7.0027 Y-5.6308 F50.00
G01 X7.0296 Y-5.6321 F50.00
G01 X7.0446 Y-5.6324 F50.00
G01 X7.7954 Y-5.6324 F50.00
G01 X7.8108 Y-5.6320 F50.00
G01 X7.8402 Y-5.6306 F50.00
G01 X7.8671 Y-5.6281 F50.00
G01 X7.9079 Y-5.6219 F50.00
G01 X7.9304 Y-5.6172 F50.00
G01 X7.9678 Y-5.6077 F50.00
G01 X7.9897 Y-5.6007 F50.00
G01 X8.0276 Y-5.5869 F50.00
G01 X8.0463 Y-5.5788 F50.00
G01 X8.0801 Y-5.5625 F50.00
G01 X8.1003 Y-5.5514 F50.00
G01 X8.1353 Y-5.5301 F50.00
G01 X8.1526 Y-5.5180 F50.00
G01 X8.1841 Y-5.4943 F50.00
G01 X8.2004 Y-5.4804 F50.00
G01 X8.2301 Y-5.4529 F50.00
G01 X8.2439 Y-5.4386 F50.00
G01 X8.2697 Y-5.4097 F50.00
G01 X8.2832 Y-5.3927 F50.00
G01 X8.3067 Y-5.3605 F50.00
G01 X8.3179 Y-5.3430 F50.00
G01 X8.3377 Y-5.3093 F50.00
G01 X8.3475 Y-5.2902 F50.00
G01 X8.3639 Y-5.2547 F50.00
G01 X8.3711 Y-5.2366 F50.00
G01 X8.3833 Y-5.2022 F50.00
G01 X8.3890 Y-5.1830 F50.00
G01 X8.3964 Y-5.1538 F50.00
G01 X8.3998 Y-5.1391 F50.00
G01 X8.4026 Y-5.1243 F50.00
G01 X8.4074 Y-5.0922 F50.00
G01 X8.4092 Y-5.0772 F50.00
G01 X8.4105 Y-5.0619 F50.00
G01 X8.4120 Y-5.0329 F50.00
G01 X8.4124 Y-5.0150 F50.00
G01 X8.4124 Y-4.5650 F50.00
G01 X8.4121 Y-4.5494 F50.00
G01 X8.4106 Y-4.5198 F50.00
G01 X8.4093 Y-4.5032 F50.00
G01 X8.4074 Y-4.4880 F50.00
G01 X8.4026 Y-4.4560 F50.00
G01 X8.3999 Y-4.4414 F50.00
G01 X8.3964 Y-4.4262 F50.00
G01 X8.3890 Y-4.3970 F50.00
G01 X8.3833 Y-4.3778 F50.00
G01 X8.3718 Y-4.3454 F50.00
G01 X8.3660 Y-4.3304 F50.00
G01 X8.3591 Y-4.3144 F50.00
G01 X8.3453 Y-4.2854 F50.00
G01 X8.3379 Y-4.2711 F50.00
G01 X8.3300 Y-4.2573 F50.00
G01 X8.3142 Y-4.2311 F50.00
G01 X8.3019 Y-4.2126 F50.00
G01 X8.2825 Y-4.1864 F50.00
G01 X8.2729 Y-4.1741 F50.00
G01 X8.2620 Y-4.1614 F50.00
G01 X8.2403 Y-4.1375 F50.00
G01 X8.2292 Y-4.1262 F50.00
G01 X8.2179 Y-4.1154 F50.00
G01 X8.1950 Y-4.0948 F50.00
G01 X8.1783 Y-4.0811 F50.00
G01 X8.1514 Y-4.0611 F50.00
G01 X8.1372 Y-4.0511 F50.00
G01 X8.1230 Y-4.0421 F50.00
G01 X8.0936 Y-4.0247 F50.00
G01 X8.0748 Y-4.0148 F50.00
G01 X8.0456 Y-4.0009 F50.00
G01 X8.0294 Y-3.9939 F50.00
G01 X8.0129 Y-3.9876 F50.00
G01 X8.0126 Y-3.8153 F50.00
G01 X8.7854 Y-3.0425 F50.00
G01 X9.0035 Y-3.0425 F50.00
G01 X9.0090 Y-3.0686 F50.00
G01 X9.0165 Y-3.0952 F50.00
G01 X9.0260 Y-3.1215 F50.00
G01 X9.0367 Y-3.1457 F50.00
G01 X9.0496 Y-3.1701 F50.00
G01 X9.0643 Y-3.1938 F50.00
G01 X9.0799 Y-3.2154 F50.00
G01 X9.0973 Y-3.2363 F50.00
G01 X9.1166 Y-3.2564 F50.00
G01 X9.1366 Y-3.2745 F50.00
G01 X9.1579 Y-3.2913 F50.00
G01 X9.1809 Y-3.3070 F50.00
G01 X9.2039 Y-3.3204 F50.00
G01 X9.2283 Y-3.3325 F50.00
G01 X9.2541 Y-3.3431 F50.00
G01 X9.2797 Y-3.3515 F50.00
G01 X9.3050 Y-3.3580 F50.00
G01 X9.3292 Y-3.3626 F50.00
G01 X9.3545 Y-3.3658 F50.00
G01 X9.3794 Y-3.3672 F50.00
G01 X9.8986 Y-3.3673 F50.00
G01 X9.9169 Y-3.3664 F50.00
G01 X9.9343 Y-3.3649 F50.00
G01 X9.9515 Y-3.3625 F50.00
G01 X9.9697 Y-3.3592 F50.00
G01 X9.9873 Y-3.3551 F50.00
G01 X10.0051 Y-3.3501 F50.00
G01 X10.0212 Y-3.3448 F50.00
G01 X10.0383 Y-3.3383 F50.00
G01 X10.0544 Y-3.3313 F50.00
G01 X10.0700 Y-3.3237 F50.00
G01 X10.0860 Y-3.3149 F50.00
G01 X10.1016 Y-3.3054 F50.00
G01 X10.1167 Y-3.2952 F50.00
G01 X10.1306 Y-3.2849 F50.00
G01 X10.1448 Y-3.2734 F50.00
G01 X10.1584 Y-3.2612 F50.00
G01 X10.1714 Y-3.2484 F50.00
G01 X10.1832 Y-3.2357 F50.00
G01 X10.1952 Y-3.2216 F50.00
G01 X10.2062 Y-3.2073 F50.00
G01 X10.2168 Y-3.1922 F50.00
G01 X10.2259 Y-3.1778 F50.00
G01 X10.2351 Y-3.1617 F50.00
G01 X10.2433 Y-3.1457 F50.00
G01 X10.2510 Y-3.1288 F50.00
G01 X10.2574 Y-3.1127 F50.00
G01 X10.2635 Y-3.0952 F50.00
G01 X10.2686 Y-3.0780 F50.00
G01 X10.2730 Y-3.0600 F50.00
G01 X10.2764 Y-3.0433 F50.00
G01 X10.2790 Y-3.0260 F50.00
G01 X10.2810 Y-3.0078 F50.00
G01 X10.2820 Y-2.9913 F50.00
G01 X10.2824 Y-2.9751 F50.00
G01 X10.2824 Y-1.9246 F50.00
G01 X10.2815 Y-1.8991 F50.00
G01 X10.2789 Y-1.8733 F50.00
G01 X10.2754 Y-1.8516 F50.00
G01 X10.2708 Y-1.8306 F50.00
G01 X10.2649 Y-1.8092 F50.00
G01 X10.2575 Y-1.7875 F50.00
G01 X10.2492 Y-1.7671 F50.00
G01 X10.2397 Y-1.7470 F50.00
G01 X10.2295 Y-1.7284 F50.00
G01 X10.2179 Y-1.7095 F50.00
G01 X10.2046 Y-1.6905 F50.00
G01 X10.1914 Y-1.6738 F50.00
G01 X10.1767 Y-1.6572 F50.00
G01 X10.1615 Y-1.6417 F50.00
G01 X10.1450 Y-1.6268 F50.00
G01 X10.1282 Y-1.6132 F50.00
G01 X10.1096 Y-1.5999 F50.00
G01 X10.0909 Y-1.5879 F50.00
G01 X10.0714 Y-1.5771 F50.00
G01 X10.0501 Y-1.5668 F50.00
G01 X10.0284 Y-1.5579 F50.00
G01 X10.0068 Y-1.5504 F50.00
G01 X9.9836 Y-1.5440 F50.00
G01 X9.9610 Y-1.5391 F50.00
G01 X9.9390 Y-1.5357 F50.00
G01 X9.9156 Y-1.5335 F50.00
G01 X9.8904 Y-1.5326 F50.00
G01 X9.3871 Y-1.5326 F50.00
G01 X9.3717 Y-1.5331 F50.00
G01 X9.3555 Y-1.5342 F50.00
G01 X9.3400 Y-1.5358 F50.00
G01 X9.3246 Y-1.5381 F50.00
G01 X9.3103 Y-1.5408 F50.00
G01 X9.2956 Y-1.5442 F50.00
G01 X9.2799 Y-1.5484 F50.00
G01 X9.2657 Y-1.5528 F50.00
G01 X9.2518 Y-1.5578 F50.00
G01 X9.2380 Y-1.5633 F50.00
G01 X9.2240 Y-1.5695 F50.00
G01 X9.2107 Y-1.5760 F50.00
G01 X9.1977 Y-1.5830 F50.00
G01 X9.1849 Y-1.5905 F50.00
G01 X9.1712 Y-1.5993 F50.00
G01 X9.1593 Y-1.6076 F50.00
G01 X9.1472 Y-1.6168 F50.00
G01 X9.1360 Y-1.6260 F50.00
G01 X9.1243 Y-1.6363 F50.00
G01 X9.1134 Y-1.6467 F50.00
G01 X9.1031 Y-1.6573 F50.00
G01 X9.0922 Y-1.6695 F50.00
G01 X9.0827 Y-1.6811 F50.00
G01 X9.0738 Y-1.6927 F50.00
G01 X9.0654 Y-1.7045 F50.00
G01 X9.0569 Y-1.7176 F50.00
G01 X9.0495 Y-1.7301 F50.00
G01 X9.0422 Y-1.7433 F50.00
G01 X9.0357 Y-1.7563 F50.00
G01 X9.0290 Y-1.7712 F50.00
G01 X9.0235 Y-1.7850 F50.00
G01 X9.0185 Y-1.7989 F50.00
G01 X9.0140 Y-1.8130 F50.00
G01 X9.0098 Y-1.8280 F50.00
G01 X9.0064 Y-1.8427 F50.00
G01 X9.0035 Y-1.8575 F50.00
G01 X8.5274 Y-1.8577 F50.00
G01 X8.4905 Y-1.8596 F50.00
G01 X8.4656 Y-1.8623 F50.00
G01 X8.4264 Y-1.8685 F50.00
G01 X8.4118 Y-1.8716 F50.00
