(G-CODE GENERATED BY FLATCAM v8.994 - www.flatcam.org - Version Date: 2020/11/7)

(Name: CeilingFanControl-F_Cu.gbr_ncc_cnc)
(Type: G-code from Geometry)
(Units: MM)

(Created on Sunday, 20 August 2023 at 14:31)

(This preprocessor is used with a motion controller loaded with GRBL firmware.)
(It is configured to be compatible with almost any version of GRBL firmware.)

(TOOL DIAMETER: 0.1353 mm)
(Feedrate_XY: 50.0 mm/min)
(Feedrate_Z: 40.0 mm/min)
(Feedrate rapids 1500.0 mm/min)

(Z_Cut: -0.1001 mm)
(Z_Move: 1.0 mm)
(Z Start: None mm)
(Z End: 5.0 mm)
(X,Y End: 0.0000, 0.0000 mm)
(Steps per circle: 64)
(Steps per circle: 64)
(Preprocessor Geometry: GRBL_11_no_M6)

(X range:    2.2777 ...   31.5818  mm)
(Y range:  -25.9374 ...   24.7029  mm)

(Spindle Speed: 1000.0 RPM)
G21
G90
G17
G94


G01 F50.00

M5             
G00 Z5.0000
G00 X0.0000 Y0.0000                
T4
(MSG, Change to Tool Dia = 0.1353)
M0
G00 Z5.0000
        
M03 S1000.0
G01 F50.00
G00 X2.5483 Y6.1875
G01 F40.00
G01 Z-0.1001
G01 F50.00
G01 X14.0972 Y6.1971 F50.00
G01 X14.2336 Y6.1819 F50.00
G01 X14.2529 Y6.1769 F50.00
G01 X14.2964 Y6.1641 F50.00
G01 X14.4104 Y6.1164 F50.00
G01 X14.4455 Y6.0915 F50.00
G01 X14.4563 Y6.0845 F50.00
G01 X14.4687 Y6.0772 F50.00
G01 X14.4829 Y6.0697 F50.00
G01 X14.4970 Y6.0631 F50.00
G01 X14.5104 Y6.0575 F50.00
G01 X14.5250 Y6.0522 F50.00
G01 X14.5306 Y6.0402 F50.00
G01 X14.5373 Y6.0273 F50.00
G01 X14.5441 Y6.0156 F50.00
G01 X14.5509 Y6.0047 F50.00
G01 X14.5588 Y5.9932 F50.00
G01 X14.5667 Y5.9825 F50.00
G01 X14.6398 Y5.8765 F50.00
G01 X14.6838 Y5.7658 F50.00
G01 X14.6866 Y5.7544 F50.00
G01 X14.6931 Y5.7250 F50.00
G01 X14.7081 Y5.5915 F50.00
G01 X14.7625 Y-3.6469 F50.00
G01 X14.7628 Y-3.6609 F50.00
G01 X14.7650 Y-3.6863 F50.00
G01 X14.7690 Y-3.7112 F50.00
G01 X14.7748 Y-3.7354 F50.00
G01 X14.7783 Y-3.7472 F50.00
G01 X14.7828 Y-3.7604 F50.00
G01 X14.7945 Y-3.7893 F50.00
G01 X14.8053 Y-3.8116 F50.00
G01 X14.8116 Y-3.8229 F50.00
G01 X14.8189 Y-3.8349 F50.00
G01 X14.8335 Y-3.8560 F50.00
G01 X14.8496 Y-3.8758 F50.00
G01 X14.8670 Y-3.8943 F50.00
G01 X14.8762 Y-3.9029 F50.00
G01 X14.8868 Y-3.9122 F50.00
G01 X14.9065 Y-3.9275 F50.00
G01 X14.9274 Y-3.9414 F50.00
G01 X14.9492 Y-3.9537 F50.00
G01 X14.9710 Y-3.9639 F50.00
G01 X14.9989 Y-3.9751 F50.00
G01 X15.0123 Y-3.9795 F50.00
G01 X15.0266 Y-3.9836 F50.00
G01 X15.0404 Y-3.9869 F50.00
G01 X15.0546 Y-3.9897 F50.00
G01 X15.0686 Y-3.9918 F50.00
G01 X15.0832 Y-3.9934 F50.00
G01 X15.0973 Y-3.9943 F50.00
G01 X15.1113 Y-3.9946 F50.00
G01 X31.3112 Y-4.0318 F50.00
G01 X31.3112 Y-4.1608 F50.00
G01 X14.6363 Y-4.1225 F50.00
G01 X14.5789 Y5.6142 F50.00
G01 X14.5774 Y5.6388 F50.00
G01 X14.5743 Y5.6625 F50.00
G01 X14.5713 Y5.6785 F50.00
G01 X14.5584 Y5.7363 F50.00
G01 X14.5536 Y5.7541 F50.00
G01 X14.5473 Y5.7733 F50.00
G01 X14.5401 Y5.7914 F50.00
G01 X14.5323 Y5.8082 F50.00
G01 X14.5232 Y5.8253 F50.00
G01 X14.5137 Y5.8409 F50.00
G01 X14.5037 Y5.8555 F50.00
G01 X14.4921 Y5.8707 F50.00
G01 X14.4325 Y5.9393 F50.00
G01 X14.4179 Y5.9543 F50.00
G01 X14.4027 Y5.9680 F50.00
G01 X14.3912 Y5.9774 F50.00
G01 X14.3789 Y5.9865 F50.00
G01 X14.3656 Y5.9954 F50.00
G01 X14.3527 Y6.0033 F50.00
G01 X14.3387 Y6.0109 F50.00
G01 X14.3249 Y6.0176 F50.00
G01 X14.3112 Y6.0236 F50.00
G01 X14.2961 Y6.0293 F50.00
G01 X14.2799 Y6.0345 F50.00
G01 X14.2113 Y6.0546 F50.00
G01 X14.1892 Y6.0603 F50.00
G01 X14.1715 Y6.0637 F50.00
G01 X14.1541 Y6.0661 F50.00
G01 X14.1373 Y6.0675 F50.00
G01 X14.1188 Y6.0681 F50.00
G01 X2.5483 Y6.0585 F50.00
G01 X2.5483 Y6.1875 F50.00
G01 X2.4806 Y6.2551 F50.00
G01 X14.1010 Y6.2648 F50.00
G01 X14.2459 Y6.2486 F50.00
G01 X14.2709 Y6.2421 F50.00
G01 X14.3191 Y6.2280 F50.00
G01 X14.4436 Y6.1758 F50.00
G01 X14.4776 Y6.1515 F50.00
G01 X14.4876 Y6.1447 F50.00
G01 X14.5028 Y6.1357 F50.00
G01 X14.5190 Y6.1274 F50.00
G01 X14.5315 Y6.1219 F50.00
G01 X14.5440 Y6.1172 F50.00
G01 X14.5618 Y6.1114 F50.00
G01 X14.5758 Y6.1075 F50.00
G01 X14.5828 Y6.0891 F50.00
G01 X14.5890 Y6.0749 F50.00
G01 X14.5959 Y6.0612 F50.00
G01 X14.6043 Y6.0467 F50.00
G01 X14.6114 Y6.0360 F50.00
G01 X14.6218 Y6.0219 F50.00
G01 X14.6998 Y5.9086 F50.00
G01 X14.7483 Y5.7865 F50.00
G01 X14.7525 Y5.7698 F50.00
G01 X14.7599 Y5.7361 F50.00
G01 X14.7757 Y5.5954 F50.00
G01 X14.8304 Y-3.6572 F50.00
G01 X14.8321 Y-3.6773 F50.00
G01 X14.8353 Y-3.6976 F50.00
G01 X14.8399 Y-3.7171 F50.00
G01 X14.8464 Y-3.7375 F50.00
G01 X14.8564 Y-3.7620 F50.00
G01 X14.8650 Y-3.7798 F50.00
G01 X14.8760 Y-3.7987 F50.00
G01 X14.8881 Y-3.8160 F50.00
G01 X14.9008 Y-3.8316 F50.00
G01 X14.9156 Y-3.8472 F50.00
G01 X14.9307 Y-3.8607 F50.00
G01 X14.9470 Y-3.8733 F50.00
G01 X14.9635 Y-3.8842 F50.00
G01 X14.9808 Y-3.8939 F50.00
G01 X14.9978 Y-3.9019 F50.00
G01 X15.0216 Y-3.9114 F50.00
G01 X15.0438 Y-3.9182 F50.00
G01 X15.0661 Y-3.9230 F50.00
G01 X15.0892 Y-3.9260 F50.00
G01 X15.1116 Y-3.9270 F50.00
G01 X31.3789 Y-3.9643 F50.00
G01 X31.3789 Y-4.2286 F50.00
G01 X14.5690 Y-4.1900 F50.00
G01 X14.5113 Y5.6126 F50.00
G01 X14.5100 Y5.6328 F50.00
G01 X14.5073 Y5.6533 F50.00
G01 X14.4927 Y5.7204 F50.00
G01 X14.4888 Y5.7346 F50.00
G01 X14.4837 Y5.7502 F50.00
G01 X14.4780 Y5.7647 F50.00
G01 X14.4718 Y5.7780 F50.00
G01 X14.4644 Y5.7917 F50.00
G01 X14.4568 Y5.8043 F50.00
G01 X14.4490 Y5.8158 F50.00
G01 X14.4395 Y5.8281 F50.00
G01 X14.3841 Y5.8920 F50.00
G01 X14.3728 Y5.9038 F50.00
G01 X14.3604 Y5.9152 F50.00
G01 X14.3507 Y5.9232 F50.00
G01 X14.3402 Y5.9310 F50.00
G01 X14.3305 Y5.9376 F50.00
G01 X14.3194 Y5.9444 F50.00
G01 X14.3083 Y5.9504 F50.00
G01 X14.2967 Y5.9562 F50.00
G01 X14.2859 Y5.9608 F50.00
G01 X14.2737 Y5.9655 F50.00
G01 X14.2605 Y5.9697 F50.00
G01 X14.1925 Y5.9897 F50.00
G01 X14.1759 Y5.9939 F50.00
G01 X14.1621 Y5.9967 F50.00
G01 X14.1473 Y5.9987 F50.00
G01 X14.1333 Y6.0000 F50.00
G01 X14.1180 Y6.0005 F50.00
G01 X2.4806 Y5.9908 F50.00
G01 X2.4806 Y6.2551 F50.00
G01 X2.4130 Y6.3227 F50.00
G01 X14.1047 Y6.3324 F50.00
G01 X14.2582 Y6.3153 F50.00
G01 X14.2889 Y6.3073 F50.00
G01 X14.3420 Y6.2918 F50.00
G01 X14.4768 Y6.2353 F50.00
G01 X14.5243 Y6.2016 F50.00
G01 X14.5389 Y6.1930 F50.00
G01 X14.5542 Y6.1858 F50.00
G01 X14.5704 Y6.1796 F50.00
G01 X14.5837 Y6.1755 F50.00
G01 X14.5930 Y6.1730 F50.00
G01 X14.6120 Y6.1694 F50.00
G01 X14.6303 Y6.1676 F50.00
G01 X14.6340 Y6.1488 F50.00
G01 X14.6396 Y6.1300 F50.00
G01 X14.6485 Y6.1074 F50.00
G01 X14.6529 Y6.0981 F50.00
G01 X14.6578 Y6.0891 F50.00
G01 X14.6669 Y6.0746 F50.00
G01 X14.6765 Y6.0618 F50.00
G01 X14.7599 Y5.9407 F50.00
G01 X14.8129 Y5.8072 F50.00
G01 X14.8184 Y5.7852 F50.00
G01 X14.8268 Y5.7472 F50.00
G01 X14.8433 Y5.5994 F50.00
G01 X14.8978 Y-3.6494 F50.00
G01 X14.8988 Y-3.6650 F50.00
G01 X14.9010 Y-3.6813 F50.00
G01 X14.9042 Y-3.6957 F50.00
G01 X14.9087 Y-3.7107 F50.00
G01 X14.9169 Y-3.7314 F50.00
G01 X14.9233 Y-3.7452 F50.00
G01 X14.9318 Y-3.7603 F50.00
G01 X14.9406 Y-3.7733 F50.00
G01 X14.9510 Y-3.7862 F50.00
G01 X14.9617 Y-3.7976 F50.00
G01 X14.9739 Y-3.8087 F50.00
G01 X14.9863 Y-3.8183 F50.00
G01 X15.0002 Y-3.8273 F50.00
G01 X15.0132 Y-3.8345 F50.00
G01 X15.0256 Y-3.8401 F50.00
G01 X15.0449 Y-3.8478 F50.00
G01 X15.0608 Y-3.8527 F50.00
G01 X15.0778 Y-3.8564 F50.00
G01 X15.0951 Y-3.8586 F50.00
G01 X15.1117 Y-3.8593 F50.00
G01 X31.4465 Y-3.8968 F50.00
G01 X31.4465 Y-4.2964 F50.00
G01 X14.5018 Y-4.2575 F50.00
G01 X14.4436 Y5.6110 F50.00
G01 X14.4427 Y5.6261 F50.00
G01 X14.4405 Y5.6426 F50.00
G01 X14.4269 Y5.7046 F50.00
G01 X14.4241 Y5.7152 F50.00
G01 X14.4201 Y5.7271 F50.00
G01 X14.4158 Y5.7381 F50.00
G01 X14.4111 Y5.7480 F50.00
G01 X14.4056 Y5.7584 F50.00
G01 X14.3999 Y5.7677 F50.00
G01 X14.3932 Y5.7774 F50.00
G01 X14.3865 Y5.7860 F50.00
G01 X14.3347 Y5.8458 F50.00
G01 X14.3260 Y5.8549 F50.00
G01 X14.3168 Y5.8635 F50.00
G01 X14.3023 Y5.8749 F50.00
G01 X14.2940 Y5.8806 F50.00
G01 X14.2854 Y5.8859 F50.00
G01 X14.2682 Y5.8948 F50.00
G01 X14.2590 Y5.8987 F50.00
G01 X14.2495 Y5.9022 F50.00
G01 X14.1736 Y5.9247 F50.00
G01 X14.1627 Y5.9275 F50.00
G01 X14.1517 Y5.9298 F50.00
G01 X14.1398 Y5.9315 F50.00
G01 X14.1277 Y5.9325 F50.00
G01 X14.1169 Y5.9328 F50.00
G01 X2.4130 Y5.9231 F50.00
G01 X2.4130 Y6.3227 F50.00
G01 X2.3453 Y6.3855 F50.00
G01 X2.3904 Y6.3903 F50.00
G01 X14.1085 Y6.4001 F50.00
G01 X14.2706 Y6.3820 F50.00
G01 X14.3069 Y6.3725 F50.00
G01 X14.3647 Y6.3556 F50.00
G01 X14.5100 Y6.2947 F50.00
G01 X14.5610 Y6.2584 F50.00
G01 X14.5751 Y6.2505 F50.00
G01 X14.5885 Y6.2450 F50.00
G01 X14.6013 Y6.2408 F50.00
G01 X14.6091 Y6.2387 F50.00
G01 X14.6186 Y6.2368 F50.00
G01 X14.6282 Y6.2356 F50.00
G01 X14.6394 Y6.2350 F50.00
G01 X14.6955 Y6.2349 F50.00
G01 X14.6958 Y6.1940 F50.00
G01 X14.6963 Y6.1855 F50.00
G01 X14.6973 Y6.1770 F50.00
G01 X14.6992 Y6.1670 F50.00
G01 X14.7019 Y6.1571 F50.00
G01 X14.7101 Y6.1352 F50.00
G01 X14.7155 Y6.1245 F50.00
G01 X14.7218 Y6.1143 F50.00
G01 X14.7305 Y6.1027 F50.00
G01 X14.8199 Y5.9728 F50.00
G01 X14.8775 Y5.8279 F50.00
G01 X14.8842 Y5.8006 F50.00
G01 X14.8936 Y5.7583 F50.00
G01 X14.9110 Y5.6034 F50.00
G01 X14.9654 Y-3.6466 F50.00
G01 X14.9661 Y-3.6580 F50.00
G01 X14.9674 Y-3.6678 F50.00
G01 X14.9698 Y-3.6791 F50.00
G01 X14.9726 Y-3.6885 F50.00
G01 X14.9792 Y-3.7050 F50.00
G01 X14.9829 Y-3.7133 F50.00
G01 X14.9885 Y-3.7234 F50.00
G01 X14.9950 Y-3.7330 F50.00
G01 X15.0022 Y-3.7420 F50.00
G01 X15.0090 Y-3.7492 F50.00
G01 X15.0175 Y-3.7570 F50.00
G01 X15.0254 Y-3.7630 F50.00
G01 X15.0336 Y-3.7685 F50.00
G01 X15.0437 Y-3.7741 F50.00
G01 X15.0520 Y-3.7779 F50.00
G01 X15.0671 Y-3.7839 F50.00
G01 X15.0782 Y-3.7873 F50.00
G01 X15.0896 Y-3.7898 F50.00
G01 X15.1011 Y-3.7912 F50.00
G01 X15.1119 Y-3.7917 F50.00
G01 X31.5142 Y-3.8293 F50.00
G01 X31.5142 Y-4.3642 F50.00
G01 X14.4345 Y-4.3250 F50.00
G01 X14.3760 Y5.6082 F50.00
G01 X14.3754 Y5.6193 F50.00
G01 X14.3736 Y5.6319 F50.00
G01 X14.3610 Y5.6892 F50.00
G01 X14.3588 Y5.6973 F50.00
G01 X14.3561 Y5.7052 F50.00
G01 X14.3500 Y5.7191 F50.00
G01 X14.3423 Y5.7321 F50.00
G01 X14.3333 Y5.7443 F50.00
G01 X14.2842 Y5.8008 F50.00
G01 X14.2735 Y5.8115 F50.00
G01 X14.2630 Y5.8199 F50.00
G01 X14.2517 Y5.8272 F50.00
G01 X14.2398 Y5.8334 F50.00
G01 X14.2273 Y5.8383 F50.00
G01 X14.1492 Y5.8612 F50.00
G01 X14.1334 Y5.8642 F50.00
G01 X14.1254 Y5.8649 F50.00
G01 X14.1165 Y5.8652 F50.00
G01 X2.3836 Y5.8554 F50.00
G01 X2.3748 Y5.8551 F50.00
G01 X2.3652 Y5.8541 F50.00
G01 X2.3453 Y5.8502 F50.00
G01 X2.3453 Y6.3855 F50.00
G01 X2.2777 Y6.4462 F50.00
G01 X2.3867 Y6.4580 F50.00
G01 X14.1122 Y6.4677 F50.00
G01 X14.2829 Y6.4487 F50.00
G01 X14.3249 Y6.4377 F50.00
G01 X14.3873 Y6.4195 F50.00
G01 X14.5431 Y6.3541 F50.00
G01 X14.5984 Y6.3148 F50.00
G01 X14.6085 Y6.3097 F50.00
G01 X14.6244 Y6.3046 F50.00
G01 X14.6323 Y6.3031 F50.00
G01 X14.6387 Y6.3027 F50.00
G01 X14.7626 Y6.3025 F50.00
G01 X14.7635 Y6.1937 F50.00
G01 X14.7642 Y6.1869 F50.00
G01 X14.7656 Y6.1802 F50.00
G01 X14.7711 Y6.1646 F50.00
G01 X14.7740 Y6.1584 F50.00
G01 X14.7775 Y6.1525 F50.00
G01 X14.7842 Y6.1440 F50.00
G01 X14.8800 Y6.0048 F50.00
G01 X14.9421 Y5.8486 F50.00
G01 X14.9501 Y5.8160 F50.00
G01 X14.9604 Y5.7694 F50.00
G01 X14.9786 Y5.6074 F50.00
G01 X15.0331 Y-3.6453 F50.00
G01 X15.0341 Y-3.6568 F50.00
G01 X15.0371 Y-3.6679 F50.00
G01 X15.0437 Y-3.6835 F50.00
G01 X15.0498 Y-3.6933 F50.00
G01 X15.0574 Y-3.7020 F50.00
G01 X15.0664 Y-3.7092 F50.00
G01 X15.0750 Y-3.7141 F50.00
G01 X15.0892 Y-3.7200 F50.00
G01 X15.1005 Y-3.7230 F50.00
G01 X15.1120 Y-3.7240 F50.00
G01 X31.5237 Y-3.7617 F50.00
G01 X31.5818 Y-3.7684 F50.00
G01 X31.5818 Y-4.4456 F50.00
G01 X31.5419 Y-4.4339 F50.00
G01 X31.5340 Y-4.4324 F50.00
G01 X31.5259 Y-4.4319 F50.00
G01 X14.3673 Y-4.3925 F50.00
G01 X14.3084 Y5.6070 F50.00
G01 X14.3080 Y5.6134 F50.00
G01 X14.3071 Y5.6197 F50.00
G01 X14.2955 Y5.6721 F50.00
G01 X14.2932 Y5.6802 F50.00
G01 X14.2899 Y5.6879 F50.00
G01 X14.2866 Y5.6938 F50.00
G01 X14.2817 Y5.7006 F50.00
G01 X14.2348 Y5.7546 F50.00
G01 X14.2289 Y5.7606 F50.00
G01 X14.2237 Y5.7648 F50.00
G01 X14.2181 Y5.7685 F50.00
G01 X14.2121 Y5.7717 F50.00
G01 X14.2043 Y5.7747 F50.00
G01 X14.1341 Y5.7953 F50.00
G01 X14.1262 Y5.7969 F50.00
G01 X14.1166 Y5.7975 F50.00
G01 X2.3837 Y5.7878 F50.00
G01 X2.3773 Y5.7874 F50.00
G01 X2.3709 Y5.7865 F50.00
G01 X2.3181 Y5.7751 F50.00
G01 X2.3100 Y5.7728 F50.00
G01 X2.3022 Y5.7695 F50.00
G01 X2.2950 Y5.7653 F50.00
G01 X2.2895 Y5.7613 F50.00
G01 X2.2777 Y5.7510 F50.00
G01 X2.2777 Y6.4462 F50.00
G00 Z1.0000
G00 X5.4171 Y9.4180
G01 F40.00
G01 Z-0.1001
G01 F50.00
G01 X5.4278 Y9.4713 F50.00
G01 X5.4682 Y9.5318 F50.00
G01 X5.5287 Y9.5722 F50.00
G01 X5.5820 Y9.5829 F50.00
G01 X7.3180 Y9.5829 F50.00
G01 X7.3713 Y9.5722 F50.00
G01 X7.4318 Y9.5318 F50.00
G01 X7.4722 Y9.4713 F50.00
G01 X7.4829 Y9.4180 F50.00
G01 X7.4829 Y9.0120 F50.00
G01 X7.4838 Y9.0004 F50.00
G01 X7.4868 Y8.9892 F50.00
G01 X7.4942 Y8.9720 F50.00
G01 X7.4976 Y8.9663 F50.00
G01 X7.5016 Y8.9610 F50.00
G01 X7.5097 Y8.9526 F50.00
G01 X7.5149 Y8.9486 F50.00
G01 X7.5220 Y8.9442 F50.00
G01 X7.5377 Y8.9374 F50.00
G01 X7.5488 Y8.9341 F50.00
G01 X7.5603 Y8.9329 F50.00
G01 X19.9880 Y8.9329 F50.00
G01 X19.9946 Y8.9332 F50.00
G01 X20.0012 Y8.9341 F50.00
G01 X20.0123 Y8.9374 F50.00
G01 X20.0280 Y8.9442 F50.00
G01 X20.0337 Y8.9476 F50.00
G01 X20.0403 Y8.9526 F50.00
G01 X20.0451 Y8.9572 F50.00
G01 X20.0495 Y8.9622 F50.00
G01 X20.0558 Y8.9720 F50.00
G01 X20.0632 Y8.9892 F50.00
G01 X20.0662 Y9.0004 F50.00
G01 X20.0671 Y9.0120 F50.00
G01 X20.0671 Y9.4180 F50.00
G01 X20.0778 Y9.4713 F50.00
G01 X20.1182 Y9.5318 F50.00
G01 X20.1787 Y9.5722 F50.00
G01 X20.2320 Y9.5829 F50.00
G01 X21.9680 Y9.5829 F50.00
G01 X22.0213 Y9.5722 F50.00
G01 X22.0818 Y9.5318 F50.00
G01 X22.1222 Y9.4713 F50.00
G01 X22.1329 Y9.4180 F50.00
G01 X22.1329 Y7.6820 F50.00
G01 X22.1222 Y7.6287 F50.00
G01 X22.0818 Y7.5682 F50.00
G01 X22.0213 Y7.5278 F50.00
G01 X21.9680 Y7.5171 F50.00
G01 X20.2320 Y7.5171 F50.00
G01 X20.1787 Y7.5278 F50.00
G01 X20.1182 Y7.5682 F50.00
G01 X20.0778 Y7.6287 F50.00
G01 X20.0671 Y7.6820 F50.00
G01 X20.0671 Y8.0880 F50.00
G01 X20.0662 Y8.0996 F50.00
G01 X20.0632 Y8.1108 F50.00
G01 X20.0558 Y8.1280 F50.00
G01 X20.0524 Y8.1337 F50.00
G01 X20.0484 Y8.1390 F50.00
G01 X20.0403 Y8.1474 F50.00
G01 X20.0351 Y8.1514 F50.00
G01 X20.0280 Y8.1558 F50.00
G01 X20.0123 Y8.1626 F50.00
G01 X20.0012 Y8.1659 F50.00
G01 X19.9897 Y8.1671 F50.00
G01 X7.5620 Y8.1671 F50.00
G01 X7.5504 Y8.1662 F50.00
G01 X7.5440 Y8.1647 F50.00
G01 X7.5377 Y8.1626 F50.00
G01 X7.5220 Y8.1558 F50.00
G01 X7.5149 Y8.1514 F50.00
G01 X7.5097 Y8.1474 F50.00
G01 X7.5049 Y8.1428 F50.00
G01 X7.5005 Y8.1378 F50.00
G01 X7.4942 Y8.1280 F50.00
G01 X7.4868 Y8.1108 F50.00
G01 X7.4838 Y8.0996 F50.00
G01 X7.4829 Y8.0880 F50.00
G01 X7.4829 Y7.6820 F50.00
G01 X7.4722 Y7.6287 F50.00
G01 X7.4318 Y7.5682 F50.00
G01 X7.3713 Y7.5278 F50.00
G01 X7.3180 Y7.5171 F50.00
G01 X5.5820 Y7.5171 F50.00
G01 X5.5287 Y7.5278 F50.00
G01 X5.4682 Y7.5682 F50.00
G01 X5.4278 Y7.6287 F50.00
G01 X5.4171 Y7.6820 F50.00
G01 X5.4171 Y9.4180 F50.00
G00 Z1.0000
G00 X6.5366 Y10.1765
G01 F40.00
G01 Z-0.1001
G01 F50.00
G01 X6.5432 Y10.1772 F50.00
G01 X6.6258 Y10.1894 F50.00
G01 X6.6323 Y10.1907 F50.00
G01 X6.7164 Y10.2119 F50.00
G01 X6.8012 Y10.2422 F50.00
G01 X6.8796 Y10.2792 F50.00
G01 X6.8855 Y10.2823 F50.00
G01 X6.9598 Y10.3270 F50.00
G01 X7.0322 Y10.3806 F50.00
G01 X7.0989 Y10.4411 F50.00
G01 X7.1572 Y10.5053 F50.00
G01 X7.1614 Y10.5105 F50.00
G01 X7.2130 Y10.5802 F50.00
G01 X7.2577 Y10.6545 F50.00
G01 X7.2608 Y10.6604 F50.00
G01 X7.2978 Y10.7388 F50.00
G01 X7.3277 Y10.8222 F50.00
G01 X20.2223 Y10.8223 F50.00
G01 X20.2522 Y10.7388 F50.00
G01 X20.2907 Y10.6574 F50.00
G01 X20.3370 Y10.5802 F50.00
G01 X20.3886 Y10.5105 F50.00
G01 X20.3928 Y10.5053 F50.00
G01 X20.4488 Y10.4435 F50.00
G01 X20.4535 Y10.4388 F50.00
G01 X20.5178 Y10.3806 F50.00
G01 X20.5902 Y10.3270 F50.00
G01 X20.6674 Y10.2807 F50.00
G01 X20.7458 Y10.2435 F50.00
G01 X20.7519 Y10.2410 F50.00
G01 X20.8305 Y10.2129 F50.00
G01 X20.8368 Y10.2110 F50.00
G01 X20.9210 Y10.1900 F50.00
G01 X21.0101 Y10.1768 F50.00
G01 X21.1000 Y10.1724 F50.00
G01 X21.1883 Y10.1766 F50.00
G01 X21.2790 Y10.1900 F50.00
G01 X21.3664 Y10.2119 F50.00
G01 X21.4512 Y10.2422 F50.00
G01 X21.5326 Y10.2807 F50.00
G01 X21.6098 Y10.3270 F50.00
G01 X21.6822 Y10.3806 F50.00
G01 X21.7489 Y10.4411 F50.00
G01 X21.8094 Y10.5078 F50.00
G01 X21.8630 Y10.5802 F50.00
G01 X21.9093 Y10.6574 F50.00
G01 X21.9478 Y10.7388 F50.00
G01 X21.9781 Y10.8236 F50.00
G01 X22.0000 Y10.9110 F50.00
G01 X22.0132 Y11.0001 F50.00
G01 X22.0176 Y11.0900 F50.00
G01 X22.0134 Y11.1783 F50.00
G01 X22.0000 Y11.2690 F50.00
G01 X21.9790 Y11.3532 F50.00
G01 X21.9771 Y11.3595 F50.00
G01 X21.9490 Y11.4381 F50.00
G01 X21.9465 Y11.4442 F50.00
G01 X21.9093 Y11.5226 F50.00
G01 X21.8630 Y11.5998 F50.00
G01 X21.8094 Y11.6722 F50.00
G01 X21.7489 Y11.7389 F50.00
G01 X21.6822 Y11.7994 F50.00
G01 X21.6098 Y11.8530 F50.00
G01 X21.5326 Y11.8993 F50.00
G01 X21.4542 Y11.9365 F50.00
G01 X21.4481 Y11.9390 F50.00
G01 X21.3695 Y11.9671 F50.00
G01 X21.3632 Y11.9690 F50.00
G01 X21.2790 Y11.9900 F50.00
G01 X21.1932 Y12.0028 F50.00
G01 X21.1866 Y12.0035 F50.00
G01 X21.1000 Y12.0076 F50.00
G01 X21.0101 Y12.0032 F50.00
G01 X20.9210 Y11.9900 F50.00
G01 X20.8368 Y11.9690 F50.00
G01 X20.8305 Y11.9671 F50.00
G01 X20.7519 Y11.9390 F50.00
G01 X20.7458 Y11.9365 F50.00
G01 X20.6674 Y11.8993 F50.00
G01 X20.5902 Y11.8530 F50.00
G01 X20.5178 Y11.7994 F50.00
G01 X20.4535 Y11.7412 F50.00
G01 X20.4488 Y11.7365 F50.00
G01 X20.3928 Y11.6747 F50.00
G01 X20.3886 Y11.6695 F50.00
G01 X20.3370 Y11.5998 F50.00
G01 X20.2907 Y11.5226 F50.00
G01 X20.2522 Y11.4412 F50.00
G01 X20.2223 Y11.3578 F50.00
G01 X7.3277 Y11.3577 F50.00
G01 X7.2978 Y11.4412 F50.00
G01 X7.2593 Y11.5226 F50.00
G01 X7.2130 Y11.5998 F50.00
G01 X7.1614 Y11.6695 F50.00
G01 X7.1572 Y11.6747 F50.00
G01 X7.1012 Y11.7365 F50.00
G01 X7.0965 Y11.7412 F50.00
G01 X7.0322 Y11.7994 F50.00
G01 X6.9598 Y11.8530 F50.00
G01 X6.8826 Y11.8993 F50.00
G01 X6.8012 Y11.9378 F50.00
G01 X6.7164 Y11.9681 F50.00
G01 X6.6323 Y11.9893 F50.00
G01 X6.6258 Y11.9906 F50.00
G01 X6.5432 Y12.0028 F50.00
G01 X6.5366 Y12.0035 F50.00
G01 X6.4500 Y12.0076 F50.00
G01 X6.3601 Y12.0032 F50.00
G01 X6.2710 Y11.9900 F50.00
G01 X6.1836 Y11.9681 F50.00
G01 X6.0988 Y11.9378 F50.00
G01 X6.0174 Y11.8993 F50.00
G01 X5.9402 Y11.8530 F50.00
G01 X5.8678 Y11.7994 F50.00
G01 X5.8011 Y11.7389 F50.00
G01 X5.7406 Y11.6722 F50.00
G01 X5.6870 Y11.5998 F50.00
G01 X5.6407 Y11.5226 F50.00
G01 X5.6022 Y11.4412 F50.00
G01 X5.5719 Y11.3564 F50.00
G01 X5.5500 Y11.2690 F50.00
G01 X5.5368 Y11.1799 F50.00
G01 X5.5324 Y11.0900 F50.00
G01 X5.5368 Y11.0001 F50.00
G01 X5.5500 Y10.9110 F50.00
G01 X5.5719 Y10.8236 F50.00
G01 X5.6022 Y10.7388 F50.00
G01 X5.6407 Y10.6574 F50.00
G01 X5.6870 Y10.5802 F50.00
G01 X5.7406 Y10.5078 F50.00
G01 X5.8011 Y10.4411 F50.00
G01 X5.8678 Y10.3806 F50.00
G01 X5.9402 Y10.3270 F50.00
G01 X6.0174 Y10.2807 F50.00
G01 X6.0988 Y10.2422 F50.00
G01 X6.1836 Y10.2119 F50.00
G01 X6.2710 Y10.1900 F50.00
G01 X6.3601 Y10.1768 F50.00
G01 X6.4500 Y10.1724 F50.00
G01 X6.5366 Y10.1765 F50.00
G00 Z1.0000
G00 X7.3708 Y10.7419
G01 F40.00
G01 Z-0.1001
G01 F50.00
G01 X7.3753 Y10.7544 F50.00
G01 X7.3880 Y10.7544 F50.00
G01 X7.3793 Y10.7486 F50.00
G01 X7.3708 Y10.7419 F50.00
G00 Z1.0000
G00 X7.3713 Y11.4368
G01 F40.00
G01 Z-0.1001
G01 F50.00
G01 X7.3800 Y11.4307 F50.00
G01 X7.3887 Y11.4254 F50.00
G01 X7.3754 Y11.4254 F50.00
G01 X7.3713 Y11.4368 F50.00
G00 Z1.0000
G00 X6.5366 Y12.7165
G01 F40.00
G01 Z-0.1001
G01 F50.00
G01 X6.5432 Y12.7172 F50.00
G01 X6.6258 Y12.7294 F50.00
G01 X6.6323 Y12.7307 F50.00
G01 X6.7164 Y12.7519 F50.00
G01 X6.8012 Y12.7822 F50.00
G01 X6.8796 Y12.8192 F50.00
G01 X6.8855 Y12.8223 F50.00
G01 X6.9598 Y12.8670 F50.00
G01 X7.0322 Y12.9206 F50.00
G01 X7.0989 Y12.9811 F50.00
G01 X7.1572 Y13.0453 F50.00
G01 X7.1614 Y13.0505 F50.00
G01 X7.2130 Y13.1202 F50.00
G01 X7.2577 Y13.1945 F50.00
G01 X7.2608 Y13.2004 F50.00
G01 X7.2978 Y13.2788 F50.00
G01 X7.3277 Y13.3622 F50.00
G01 X20.2223 Y13.3623 F50.00
G01 X20.2522 Y13.2788 F50.00
G01 X20.2907 Y13.1974 F50.00
G01 X20.3370 Y13.1202 F50.00
G01 X20.3886 Y13.0505 F50.00
G01 X20.3928 Y13.0453 F50.00
G01 X20.4488 Y12.9835 F50.00
G01 X20.4535 Y12.9788 F50.00
G01 X20.5178 Y12.9206 F50.00
G01 X20.5902 Y12.8670 F50.00
G01 X20.6674 Y12.8207 F50.00
G01 X20.7458 Y12.7835 F50.00
G01 X20.7519 Y12.7810 F50.00
G01 X20.8305 Y12.7529 F50.00
G01 X20.8368 Y12.7510 F50.00
G01 X20.9210 Y12.7300 F50.00
G01 X21.0101 Y12.7168 F50.00
G01 X21.1000 Y12.7124 F50.00
G01 X21.1883 Y12.7166 F50.00
G01 X21.2790 Y12.7300 F50.00
G01 X21.3664 Y12.7519 F50.00
G01 X21.4512 Y12.7822 F50.00
G01 X21.5326 Y12.8207 F50.00
G01 X21.6098 Y12.8670 F50.00
G01 X21.6822 Y12.9206 F50.00
G01 X21.7489 Y12.9811 F50.00
G01 X21.8094 Y13.0478 F50.00
G01 X21.8630 Y13.1202 F50.00
G01 X21.9093 Y13.1974 F50.00
G01 X21.9478 Y13.2788 F50.00
G01 X21.9781 Y13.3636 F50.00
G01 X22.0000 Y13.4510 F50.00
G01 X22.0132 Y13.5401 F50.00
G01 X22.0176 Y13.6300 F50.00
G01 X22.0134 Y13.7183 F50.00
G01 X22.0000 Y13.8090 F50.00
G01 X21.9790 Y13.8932 F50.00
G01 X21.9771 Y13.8995 F50.00
G01 X21.9490 Y13.9781 F50.00
G01 X21.9465 Y13.9842 F50.00
G01 X21.9093 Y14.0626 F50.00
G01 X21.8630 Y14.1398 F50.00
G01 X21.8094 Y14.2122 F50.00
G01 X21.7489 Y14.2789 F50.00
G01 X21.6822 Y14.3394 F50.00
G01 X21.6098 Y14.3930 F50.00
G01 X21.5326 Y14.4393 F50.00
G01 X21.4542 Y14.4765 F50.00
G01 X21.4481 Y14.4790 F50.00
G01 X21.3695 Y14.5071 F50.00
G01 X21.3632 Y14.5090 F50.00
G01 X21.2790 Y14.5300 F50.00
G01 X21.1932 Y14.5428 F50.00
G01 X21.1866 Y14.5435 F50.00
G01 X21.1000 Y14.5476 F50.00
G01 X21.0101 Y14.5432 F50.00
G01 X20.9210 Y14.5300 F50.00
G01 X20.8368 Y14.5090 F50.00
G01 X20.8305 Y14.5071 F50.00
G01 X20.7519 Y14.4790 F50.00
G01 X20.7458 Y14.4765 F50.00
G01 X20.6674 Y14.4393 F50.00
G01 X20.5902 Y14.3930 F50.00
G01 X20.5178 Y14.3394 F50.00
G01 X20.4535 Y14.2812 F50.00
G01 X20.4488 Y14.2765 F50.00
G01 X20.3928 Y14.2147 F50.00
G01 X20.3886 Y14.2095 F50.00
G01 X20.3370 Y14.1398 F50.00
G01 X20.2907 Y14.0626 F50.00
G01 X20.2522 Y13.9812 F50.00
G01 X20.2223 Y13.8978 F50.00
G01 X7.3277 Y13.8977 F50.00
G01 X7.2978 Y13.9812 F50.00
G01 X7.2593 Y14.0626 F50.00
G01 X7.2130 Y14.1398 F50.00
G01 X7.1614 Y14.2095 F50.00
G01 X7.1572 Y14.2147 F50.00
G01 X7.1012 Y14.2765 F50.00
G01 X7.0965 Y14.2812 F50.00
G01 X7.0322 Y14.3394 F50.00
G01 X6.9598 Y14.3930 F50.00
G01 X6.8826 Y14.4393 F50.00
G01 X6.8012 Y14.4778 F50.00
G01 X6.7164 Y14.5081 F50.00
G01 X6.6323 Y14.5293 F50.00
G01 X6.6258 Y14.5306 F50.00
G01 X6.5432 Y14.5428 F50.00
G01 X6.5366 Y14.5435 F50.00
G01 X6.4500 Y14.5476 F50.00
G01 X6.3601 Y14.5432 F50.00
G01 X6.2710 Y14.5300 F50.00
G01 X6.1836 Y14.5081 F50.00
G01 X6.0988 Y14.4778 F50.00
G01 X6.0174 Y14.4393 F50.00
G01 X5.9402 Y14.3930 F50.00
G01 X5.8678 Y14.3394 F50.00
G01 X5.8011 Y14.2789 F50.00
G01 X5.7406 Y14.2122 F50.00
G01 X5.6870 Y14.1398 F50.00
G01 X5.6407 Y14.0626 F50.00
G01 X5.6022 Y13.9812 F50.00
G01 X5.5719 Y13.8964 F50.00
G01 X5.5500 Y13.8090 F50.00
G01 X5.5368 Y13.7199 F50.00
G01 X5.5324 Y13.6300 F50.00
G01 X5.5368 Y13.5401 F50.00
G01 X5.5500 Y13.4510 F50.00
G01 X5.5719 Y13.3636 F50.00
G01 X5.6022 Y13.2788 F50.00
G01 X5.6407 Y13.1974 F50.00
G01 X5.6870 Y13.1202 F50.00
G01 X5.7406 Y13.0478 F50.00
G01 X5.8011 Y12.9811 F50.00
G01 X5.8678 Y12.9206 F50.00
G01 X5.9402 Y12.8670 F50.00
G01 X6.0174 Y12.8207 F50.00
G01 X6.0988 Y12.7822 F50.00
G01 X6.1836 Y12.7519 F50.00
G01 X6.2710 Y12.7300 F50.00
G01 X6.3601 Y12.7168 F50.00
G01 X6.4500 Y12.7124 F50.00
G01 X6.5366 Y12.7165 F50.00
G00 Z1.0000
G00 X7.3708 Y13.2819
G01 F40.00
G01 Z-0.1001
G01 F50.00
G01 X7.3753 Y13.2944 F50.00
G01 X7.3880 Y13.2944 F50.00
G01 X7.3793 Y13.2886 F50.00
G01 X7.3708 Y13.2819 F50.00
G00 Z1.0000
G00 X7.3713 Y13.9768
G01 F40.00
G01 Z-0.1001
G01 F50.00
G01 X7.3800 Y13.9707 F50.00
G01 X7.3887 Y13.9654 F50.00
G01 X7.3754 Y13.9654 F50.00
G01 X7.3713 Y13.9768 F50.00
G00 Z1.0000
G00 X6.5366 Y15.2565
G01 F40.00
G01 Z-0.1001
G01 F50.00
G01 X6.5432 Y15.2572 F50.00
G01 X6.6258 Y15.2694 F50.00
G01 X6.6323 Y15.2707 F50.00
G01 X6.7164 Y15.2919 F50.00
G01 X6.8012 Y15.3222 F50.00
G01 X6.8796 Y15.3592 F50.00
G01 X6.8855 Y15.3623 F50.00
G01 X6.9598 Y15.4070 F50.00
G01 X7.0322 Y15.4606 F50.00
G01 X7.0989 Y15.5211 F50.00
G01 X7.1572 Y15.5853 F50.00
G01 X7.1614 Y15.5905 F50.00
G01 X7.2130 Y15.6602 F50.00
G01 X7.2577 Y15.7345 F50.00
G01 X7.2608 Y15.7404 F50.00
G01 X7.2978 Y15.8188 F50.00
G01 X7.3277 Y15.9022 F50.00
G01 X20.2223 Y15.9023 F50.00
G01 X20.2522 Y15.8188 F50.00
G01 X20.2907 Y15.7374 F50.00
G01 X20.3370 Y15.6602 F50.00
G01 X20.3886 Y15.5905 F50.00
G01 X20.3928 Y15.5853 F50.00
G01 X20.4488 Y15.5235 F50.00
G01 X20.4535 Y15.5188 F50.00
G01 X20.5178 Y15.4606 F50.00
G01 X20.5902 Y15.4070 F50.00
G01 X20.6674 Y15.3607 F50.00
G01 X20.7458 Y15.3235 F50.00
G01 X20.7519 Y15.3210 F50.00
G01 X20.8305 Y15.2929 F50.00
G01 X20.8368 Y15.2910 F50.00
G01 X20.9210 Y15.2700 F50.00
G01 X21.0101 Y15.2568 F50.00
G01 X21.1000 Y15.2524 F50.00
G01 X21.1883 Y15.2566 F50.00
G01 X21.2790 Y15.2700 F50.00
G01 X21.3664 Y15.2919 F50.00
G01 X21.4512 Y15.3222 F50.00
G01 X21.5326 Y15.3607 F50.00
G01 X21.6098 Y15.4070 F50.00
G01 X21.6822 Y15.4606 F50.00
G01 X21.7489 Y15.5211 F50.00
G01 X21.8094 Y15.5878 F50.00
G01 X21.8630 Y15.6602 F50.00
G01 X21.9093 Y15.7374 F50.00
G01 X21.9478 Y15.8188 F50.00
G01 X21.9781 Y15.9036 F50.00
G01 X22.0000 Y15.9910 F50.00
G01 X22.0132 Y16.0801 F50.00
G01 X22.0176 Y16.1700 F50.00
G01 X22.0134 Y16.2583 F50.00
G01 X22.0000 Y16.3490 F50.00
G01 X21.9790 Y16.4332 F50.00
G01 X21.9771 Y16.4395 F50.00
G01 X21.9490 Y16.5181 F50.00
G01 X21.9465 Y16.5242 F50.00
G01 X21.9093 Y16.6026 F50.00
G01 X21.8630 Y16.6798 F50.00
G01 X21.8094 Y16.7522 F50.00
G01 X21.7489 Y16.8189 F50.00
G01 X21.6822 Y16.8794 F50.00
G01 X21.6098 Y16.9330 F50.00
G01 X21.5326 Y16.9793 F50.00
G01 X21.4542 Y17.0165 F50.00
G01 X21.4481 Y17.0190 F50.00
G01 X21.3664 Y17.0481 F50.00
G01 X21.2823 Y17.0693 F50.00
G01 X21.2758 Y17.0706 F50.00
G01 X21.1932 Y17.0828 F50.00
G01 X21.1866 Y17.0835 F50.00
G01 X21.1000 Y17.0876 F50.00
G01 X21.0101 Y17.0832 F50.00
G01 X20.9210 Y17.0700 F50.00
G01 X20.8368 Y17.0490 F50.00
G01 X20.8305 Y17.0471 F50.00
G01 X20.7519 Y17.0190 F50.00
G01 X20.7458 Y17.0165 F50.00
G01 X20.6674 Y16.9793 F50.00
G01 X20.5902 Y16.9330 F50.00
G01 X20.5178 Y16.8794 F50.00
G01 X20.4535 Y16.8212 F50.00
G01 X20.4488 Y16.8165 F50.00
G01 X20.3928 Y16.7547 F50.00
G01 X20.3886 Y16.7495 F50.00
G01 X20.3370 Y16.6798 F50.00
G01 X20.2907 Y16.6026 F50.00
G01 X20.2522 Y16.5212 F50.00
G01 X20.2223 Y16.4378 F50.00
G01 X7.3277 Y16.4377 F50.00
G01 X7.2978 Y16.5212 F50.00
G01 X7.2593 Y16.6026 F50.00
G01 X7.2130 Y16.6798 F50.00
G01 X7.1614 Y16.7495 F50.00
G01 X7.1572 Y16.7547 F50.00
G01 X7.1012 Y16.8165 F50.00
G01 X7.0965 Y16.8212 F50.00
G01 X7.0322 Y16.8794 F50.00
G01 X6.9598 Y16.9330 F50.00
G01 X6.8826 Y16.9793 F50.00
G01 X6.8012 Y17.0178 F50.00
G01 X6.7164 Y17.0481 F50.00
G01 X6.6323 Y17.0693 F50.00
G01 X6.6258 Y17.0706 F50.00
G01 X6.5432 Y17.0828 F50.00
G01 X6.5366 Y17.0835 F50.00
G01 X6.4500 Y17.0876 F50.00
G01 X6.3601 Y17.0832 F50.00
G01 X6.2710 Y17.0700 F50.00
G01 X6.1836 Y17.0481 F50.00
G01 X6.0988 Y17.0178 F50.00
G01 X6.0174 Y16.9793 F50.00
G01 X5.9402 Y16.9330 F50.00
G01 X5.8678 Y16.8794 F50.00
G01 X5.8011 Y16.8189 F50.00
G01 X5.7406 Y16.7522 F50.00
G01 X5.6870 Y16.6798 F50.00
G01 X5.6407 Y16.6026 F50.00
G01 X5.6022 Y16.5212 F50.00
G01 X5.5719 Y16.4364 F50.00
G01 X5.5500 Y16.3490 F50.00
G01 X5.5368 Y16.2599 F50.00
G01 X5.5324 Y16.1700 F50.00
G01 X5.5368 Y16.0801 F50.00
G01 X5.5500 Y15.9910 F50.00
G01 X5.5719 Y15.9036 F50.00
G01 X5.6022 Y15.8188 F50.00
G01 X5.6407 Y15.7374 F50.00
G01 X5.6870 Y15.6602 F50.00
G01 X5.7406 Y15.5878 F50.00
G01 X5.8011 Y15.5211 F50.00
G01 X5.8678 Y15.4606 F50.00
G01 X5.9402 Y15.4070 F50.00
G01 X6.0174 Y15.3607 F50.00
G01 X6.0988 Y15.3222 F50.00
G01 X6.1836 Y15.2919 F50.00
G01 X6.2710 Y15.2700 F50.00
G01 X6.3601 Y15.2568 F50.00
G01 X6.4500 Y15.2524 F50.00
G01 X6.5366 Y15.2565 F50.00
G00 Z1.0000
G00 X7.3708 Y15.8219
G01 F40.00
G01 Z-0.1001
G01 F50.00
G01 X7.3753 Y15.8344 F50.00
G01 X7.3880 Y15.8344 F50.00
G01 X7.3793 Y15.8286 F50.00
G01 X7.3708 Y15.8219 F50.00
G00 Z1.0000
G00 X7.3713 Y16.5168
G01 F40.00
G01 Z-0.1001
G01 F50.00
G01 X7.3800 Y16.5107 F50.00
G01 X7.3887 Y16.5054 F50.00
G01 X7.3754 Y16.5054 F50.00
G01 X7.3713 Y16.5168 F50.00
G00 Z1.0000
G00 X6.6426 Y17.8133
G01 F40.00
G01 Z-0.1001
G01 F50.00
G01 X6.7164 Y17.8319 F50.00
G01 X6.7981 Y17.8610 F50.00
G01 X6.8042 Y17.8635 F50.00
G01 X6.8796 Y17.8992 F50.00
G01 X6.8855 Y17.9023 F50.00
G01 X6.9598 Y17.9470 F50.00
G01 X7.0334 Y18.0017 F50.00
G01 X7.0989 Y18.0611 F50.00
G01 X7.1572 Y18.1253 F50.00
G01 X7.1614 Y18.1305 F50.00
G01 X7.2111 Y18.1975 F50.00
G01 X7.2148 Y18.2030 F50.00
G01 X7.2593 Y18.2774 F50.00
G01 X7.2978 Y18.3588 F50.00
G01 X7.3281 Y18.4436 F50.00
G01 X7.3467 Y18.5173 F50.00
G01 X7.4685 Y18.5174 F50.00
G01 X7.4168 Y18.3355 F50.00
G01 X7.3315 Y18.1642 F50.00
G01 X7.2162 Y18.0115 F50.00
G01 X7.0748 Y17.8826 F50.00
G01 X6.9121 Y17.7819 F50.00
G01 X6.7337 Y17.7128 F50.00
G01 X6.6427 Y17.6958 F50.00
G01 X6.6426 Y17.8133 F50.00
G00 Z1.0000
G00 X5.4315 Y18.5173
G01 F40.00
G01 Z-0.1001
G01 F50.00
G01 X5.5533 Y18.5174 F50.00
G01 X5.5719 Y18.4436 F50.00
G01 X5.6010 Y18.3619 F50.00
G01 X5.6035 Y18.3558 F50.00
G01 X5.6392 Y18.2804 F50.00
G01 X5.6423 Y18.2745 F50.00
G01 X5.6870 Y18.2002 F50.00
G01 X5.7417 Y18.1266 F50.00
G01 X5.8011 Y18.0611 F50.00
G01 X5.8653 Y18.0028 F50.00
G01 X5.8705 Y17.9986 F50.00
G01 X5.9375 Y17.9489 F50.00
G01 X5.9430 Y17.9452 F50.00
G01 X6.0174 Y17.9007 F50.00
G01 X6.0988 Y17.8622 F50.00
G01 X6.1836 Y17.8319 F50.00
G01 X6.2573 Y17.8133 F50.00
G01 X6.2574 Y17.6958 F50.00
G01 X6.1663 Y17.7128 F50.00
G01 X5.9879 Y17.7819 F50.00
G01 X5.8252 Y17.8826 F50.00
G01 X5.6838 Y18.0115 F50.00
G01 X5.5685 Y18.1642 F50.00
G01 X5.4832 Y18.3355 F50.00
G01 X5.4315 Y18.5173 F50.00
G00 Z1.0000
G00 X5.4315 Y18.9026
G01 F40.00
G01 Z-0.1001
G01 F50.00
G01 X5.4832 Y19.0845 F50.00
G01 X5.5685 Y19.2558 F50.00
G01 X5.6838 Y19.4085 F50.00
G01 X5.8252 Y19.5374 F50.00
G01 X5.9879 Y19.6381 F50.00
G01 X6.1663 Y19.7072 F50.00
G01 X6.2573 Y19.7242 F50.00
G01 X6.2573 Y19.6067 F50.00
G01 X6.1836 Y19.5881 F50.00
G01 X6.0988 Y19.5578 F50.00
G01 X6.0174 Y19.5193 F50.00
G01 X5.9430 Y19.4748 F50.00
G01 X5.9375 Y19.4711 F50.00
G01 X5.8705 Y19.4214 F50.00
G01 X5.8653 Y19.4172 F50.00
G01 X5.8011 Y19.3589 F50.00
G01 X5.7417 Y19.2934 F50.00
G01 X5.6870 Y19.2198 F50.00
G01 X5.6423 Y19.1455 F50.00
G01 X5.6392 Y19.1396 F50.00
G01 X5.6035 Y19.0642 F50.00
G01 X5.6010 Y19.0581 F50.00
G01 X5.5719 Y18.9764 F50.00
G01 X5.5533 Y18.9027 F50.00
G01 X5.4315 Y18.9026 F50.00
G00 Z1.0000
G00 X6.6426 Y19.6067
G01 F40.00
G01 Z-0.1001
G01 F50.00
G01 X6.6426 Y19.7242 F50.00
G01 X6.7337 Y19.7072 F50.00
G01 X6.9121 Y19.6381 F50.00
G01 X7.0748 Y19.5374 F50.00
G01 X7.2162 Y19.4085 F50.00
G01 X7.3315 Y19.2558 F50.00
G01 X7.4168 Y19.0845 F50.00
G01 X7.4685 Y18.9027 F50.00
G01 X7.3467 Y18.9026 F50.00
G01 X7.3281 Y18.9764 F50.00
G01 X7.2978 Y19.0612 F50.00
G01 X7.2593 Y19.1426 F50.00
G01 X7.2148 Y19.2170 F50.00
G01 X7.2111 Y19.2225 F50.00
G01 X7.1614 Y19.2895 F50.00
G01 X7.1572 Y19.2947 F50.00
G01 X7.0989 Y19.3589 F50.00
G01 X7.0334 Y19.4183 F50.00
G01 X6.9598 Y19.4730 F50.00
G01 X6.8855 Y19.5177 F50.00
G01 X6.8796 Y19.5208 F50.00
G01 X6.8042 Y19.5565 F50.00
G01 X6.7981 Y19.5590 F50.00
G01 X6.7164 Y19.5881 F50.00
G01 X6.6426 Y19.6067 F50.00
G00 Z1.0000
G00 X5.4304 Y16.3606
G01 F40.00
G01 Z-0.1001
G01 F50.00
G01 X5.4828 Y16.5447 F50.00
G01 X5.5681 Y16.7161 F50.00
G01 X5.6834 Y16.8688 F50.00
G01 X5.7412 Y16.9215 F50.00
G01 X5.8249 Y16.9978 F50.00
G01 X5.9876 Y17.0985 F50.00
G01 X6.1661 Y17.1677 F50.00
G01 X6.3543 Y17.2029 F50.00
G01 X6.5457 Y17.2029 F50.00
G01 X6.7339 Y17.1677 F50.00
G01 X6.9123 Y17.0985 F50.00
G01 X7.0751 Y16.9978 F50.00
G01 X7.2166 Y16.8688 F50.00
G01 X7.3319 Y16.7161 F50.00
G01 X7.3920 Y16.5953 F50.00
G01 X7.3952 Y16.5899 F50.00
G01 X7.4001 Y16.5831 F50.00
G01 X7.4054 Y16.5769 F50.00
G01 X7.4102 Y16.5724 F50.00
G01 X7.4167 Y16.5675 F50.00
G01 X7.4237 Y16.5634 F50.00
G01 X7.4363 Y16.5580 F50.00
G01 X7.4425 Y16.5558 F50.00
G01 X7.4506 Y16.5538 F50.00
G01 X7.4589 Y16.5529 F50.00
G01 X20.0878 Y16.5529 F50.00
G01 X20.0956 Y16.5533 F50.00
G01 X20.1072 Y16.5553 F50.00
G01 X20.1150 Y16.5577 F50.00
G01 X20.1224 Y16.5609 F50.00
G01 X20.1294 Y16.5651 F50.00
G01 X20.1346 Y16.5690 F50.00
G01 X20.1450 Y16.5781 F50.00
G01 X20.1516 Y16.5855 F50.00
G01 X20.1554 Y16.5909 F50.00
G01 X20.1587 Y16.5967 F50.00
G01 X20.2181 Y16.7161 F50.00
G01 X20.3334 Y16.8688 F50.00
G01 X20.4749 Y16.9978 F50.00
G01 X20.6376 Y17.0985 F50.00
G01 X20.8161 Y17.1677 F50.00
G01 X21.0043 Y17.2029 F50.00
G01 X21.1957 Y17.2029 F50.00
G01 X21.3839 Y17.1677 F50.00
G01 X21.5623 Y17.0985 F50.00
G01 X21.7251 Y16.9978 F50.00
G01 X21.8666 Y16.8688 F50.00
G01 X21.9819 Y16.7161 F50.00
G01 X22.0672 Y16.5447 F50.00
G01 X22.1196 Y16.3606 F50.00
G01 X22.1373 Y16.1700 F50.00
G01 X22.1196 Y15.9794 F50.00
G01 X22.0672 Y15.7953 F50.00
G01 X21.9819 Y15.6239 F50.00
G01 X21.8666 Y15.4712 F50.00
G01 X21.7251 Y15.3422 F50.00
G01 X21.5624 Y15.2415 F50.00
G01 X21.3839 Y15.1723 F50.00
G01 X21.1957 Y15.1371 F50.00
G01 X21.0043 Y15.1371 F50.00
G01 X20.8161 Y15.1723 F50.00
G01 X20.6377 Y15.2415 F50.00
G01 X20.4749 Y15.3422 F50.00
G01 X20.3334 Y15.4712 F50.00
G01 X20.2181 Y15.6239 F50.00
G01 X20.1580 Y15.7447 F50.00
G01 X20.1548 Y15.7501 F50.00
G01 X20.1499 Y15.7569 F50.00
G01 X20.1446 Y15.7631 F50.00
G01 X20.1386 Y15.7686 F50.00
G01 X20.1333 Y15.7725 F50.00
G01 X20.1263 Y15.7766 F50.00
G01 X20.1137 Y15.7820 F50.00
G01 X20.1075 Y15.7842 F50.00
G01 X20.0994 Y15.7862 F50.00
G01 X20.0911 Y15.7871 F50.00
G01 X7.4622 Y15.7871 F50.00
G01 X7.4544 Y15.7867 F50.00
G01 X7.4428 Y15.7847 F50.00
G01 X7.4350 Y15.7823 F50.00
G01 X7.4276 Y15.7791 F50.00
G01 X7.4219 Y15.7758 F50.00
G01 X7.4154 Y15.7710 F50.00
G01 X7.4050 Y15.7619 F50.00
G01 X7.3984 Y15.7545 F50.00
G01 X7.3946 Y15.7491 F50.00
G01 X7.3913 Y15.7433 F50.00
G01 X7.3319 Y15.6239 F50.00
G01 X7.2166 Y15.4712 F50.00
G01 X7.0751 Y15.3422 F50.00
G01 X6.9124 Y15.2415 F50.00
G01 X6.7339 Y15.1723 F50.00
G01 X6.5457 Y15.1371 F50.00
G01 X6.3543 Y15.1371 F50.00
G01 X6.1661 Y15.1723 F50.00
G01 X5.9877 Y15.2415 F50.00
G01 X5.8249 Y15.3422 F50.00
G01 X5.6834 Y15.4712 F50.00
G01 X5.5681 Y15.6239 F50.00
G01 X5.4828 Y15.7953 F50.00
G01 X5.4304 Y15.9794 F50.00
G01 X5.4127 Y16.1700 F50.00
G01 X5.4304 Y16.3606 F50.00
G00 Z1.0000
G00 X5.4304 Y13.8206
G01 F40.00
G01 Z-0.1001
G01 F50.00
G01 X5.4828 Y14.0047 F50.00
G01 X5.5681 Y14.1761 F50.00
G01 X5.6834 Y14.3288 F50.00
G01 X5.7412 Y14.3815 F50.00
G01 X5.8249 Y14.4578 F50.00
G01 X5.9876 Y14.5585 F50.00
G01 X6.1661 Y14.6277 F50.00
G01 X6.3543 Y14.6629 F50.00
G01 X6.5457 Y14.6629 F50.00
G01 X6.7339 Y14.6277 F50.00
G01 X6.9123 Y14.5585 F50.00
G01 X7.0751 Y14.4578 F50.00
G01 X7.2166 Y14.3288 F50.00
G01 X7.3319 Y14.1761 F50.00
G01 X7.3920 Y14.0553 F50.00
G01 X7.3952 Y14.0499 F50.00
G01 X7.4001 Y14.0431 F50.00
G01 X7.4054 Y14.0369 F50.00
G01 X7.4102 Y14.0324 F50.00
G01 X7.4167 Y14.0275 F50.00
G01 X7.4237 Y14.0234 F50.00
G01 X7.4363 Y14.0180 F50.00
G01 X7.4425 Y14.0158 F50.00
G01 X7.4506 Y14.0138 F50.00
G01 X7.4589 Y14.0129 F50.00
G01 X20.0878 Y14.0129 F50.00
G01 X20.0956 Y14.0133 F50.00
G01 X20.1072 Y14.0153 F50.00
G01 X20.1150 Y14.0177 F50.00
G01 X20.1224 Y14.0209 F50.00
G01 X20.1294 Y14.0251 F50.00
G01 X20.1346 Y14.0290 F50.00
G01 X20.1450 Y14.0381 F50.00
G01 X20.1516 Y14.0455 F50.00
G01 X20.1554 Y14.0509 F50.00
G01 X20.1587 Y14.0567 F50.00
G01 X20.2181 Y14.1761 F50.00
G01 X20.3334 Y14.3288 F50.00
G01 X20.4749 Y14.4578 F50.00
G01 X20.6376 Y14.5585 F50.00
G01 X20.8161 Y14.6277 F50.00
G01 X21.0043 Y14.6629 F50.00
G01 X21.1957 Y14.6629 F50.00
G01 X21.3839 Y14.6277 F50.00
G01 X21.5623 Y14.5585 F50.00
G01 X21.7251 Y14.4578 F50.00
G01 X21.8666 Y14.3288 F50.00
G01 X21.9819 Y14.1761 F50.00
G01 X22.0672 Y14.0047 F50.00
G01 X22.1196 Y13.8206 F50.00
G01 X22.1373 Y13.6300 F50.00
G01 X22.1196 Y13.4394 F50.00
G01 X22.0672 Y13.2553 F50.00
G01 X21.9819 Y13.0839 F50.00
G01 X21.8666 Y12.9312 F50.00
G01 X21.7251 Y12.8022 F50.00
G01 X21.5624 Y12.7015 F50.00
G01 X21.3839 Y12.6323 F50.00
G01 X21.1957 Y12.5971 F50.00
G01 X21.0043 Y12.5971 F50.00
G01 X20.8161 Y12.6323 F50.00
G01 X20.6377 Y12.7015 F50.00
G01 X20.4749 Y12.8022 F50.00
G01 X20.3334 Y12.9312 F50.00
G01 X20.2181 Y13.0839 F50.00
G01 X20.1580 Y13.2047 F50.00
G01 X20.1548 Y13.2101 F50.00
G01 X20.1499 Y13.2169 F50.00
G01 X20.1446 Y13.2231 F50.00
G01 X20.1398 Y13.2276 F50.00
G01 X20.1333 Y13.2325 F50.00
G01 X20.1263 Y13.2366 F50.00
G01 X20.1137 Y13.2420 F50.00
G01 X20.1075 Y13.2442 F50.00
G01 X20.0994 Y13.2462 F50.00
G01 X20.0911 Y13.2471 F50.00
G01 X7.4622 Y13.2471 F50.00
G01 X7.4544 Y13.2467 F50.00
G01 X7.4428 Y13.2447 F50.00
G01 X7.4350 Y13.2423 F50.00
G01 X7.4276 Y13.2391 F50.00
G01 X7.4219 Y13.2358 F50.00
G01 X7.4154 Y13.2310 F50.00
G01 X7.4050 Y13.2219 F50.00
G01 X7.3984 Y13.2145 F50.00
G01 X7.3946 Y13.2091 F50.00
G01 X7.3913 Y13.2033 F50.00
G01 X7.3319 Y13.0839 F50.00
G01 X7.2166 Y12.9312 F50.00
G01 X7.0751 Y12.8022 F50.00
G01 X6.9124 Y12.7015 F50.00
G01 X6.7339 Y12.6323 F50.00
G01 X6.5457 Y12.5971 F50.00
G01 X6.3543 Y12.5971 F50.00
G01 X6.1661 Y12.6323 F50.00
G01 X5.9877 Y12.7015 F50.00
G01 X5.8249 Y12.8022 F50.00
G01 X5.6834 Y12.9312 F50.00
G01 X5.5681 Y13.0839 F50.00
G01 X5.4828 Y13.2553 F50.00
G01 X5.4304 Y13.4394 F50.00
G01 X5.4127 Y13.6300 F50.00
G01 X5.4304 Y13.8206 F50.00
G00 Z1.0000
G00 X5.4304 Y11.2806
G01 F40.00
G01 Z-0.1001
G01 F50.00
G01 X5.4828 Y11.4647 F50.00
G01 X5.5681 Y11.6361 F50.00
G01 X5.6834 Y11.7888 F50.00
G01 X5.7412 Y11.8415 F50.00
G01 X5.8249 Y11.9178 F50.00
G01 X5.9876 Y12.0185 F50.00
G01 X6.1661 Y12.0877 F50.00
G01 X6.3543 Y12.1229 F50.00
G01 X6.5457 Y12.1229 F50.00
G01 X6.7339 Y12.0877 F50.00
G01 X6.9123 Y12.0185 F50.00
G01 X7.0751 Y11.9178 F50.00
G01 X7.2166 Y11.7888 F50.00
G01 X7.3319 Y11.6361 F50.00
G01 X7.3920 Y11.5153 F50.00
G01 X7.3952 Y11.5099 F50.00
G01 X7.4001 Y11.5031 F50.00
G01 X7.4054 Y11.4969 F50.00
G01 X7.4114 Y11.4914 F50.00
G01 X7.4180 Y11.4866 F50.00
G01 X7.4237 Y11.4834 F50.00
G01 X7.4363 Y11.4780 F50.00
G01 X7.4425 Y11.4758 F50.00
G01 X7.4506 Y11.4738 F50.00
G01 X7.4589 Y11.4729 F50.00
G01 X20.0878 Y11.4729 F50.00
G01 X20.0956 Y11.4733 F50.00
G01 X20.1072 Y11.4753 F50.00
G01 X20.1150 Y11.4777 F50.00
G01 X20.1224 Y11.4809 F50.00
G01 X20.1294 Y11.4851 F50.00
G01 X20.1346 Y11.4890 F50.00
G01 X20.1450 Y11.4981 F50.00
G01 X20.1516 Y11.5055 F50.00
G01 X20.1554 Y11.5109 F50.00
G01 X20.1587 Y11.5167 F50.00
G01 X20.2181 Y11.6361 F50.00
G01 X20.3334 Y11.7888 F50.00
G01 X20.4749 Y11.9178 F50.00
G01 X20.6376 Y12.0185 F50.00
G01 X20.8161 Y12.0877 F50.00
G01 X21.0043 Y12.1229 F50.00
G01 X21.1957 Y12.1229 F50.00
G01 X21.3839 Y12.0877 F50.00
G01 X21.5623 Y12.0185 F50.00
G01 X21.7251 Y11.9178 F50.00
G01 X21.8666 Y11.7888 F50.00
G01 X21.9819 Y11.6361 F50.00
G01 X22.0672 Y11.4647 F50.00
G01 X22.1196 Y11.2806 F50.00
G01 X22.1373 Y11.0900 F50.00
G01 X22.1196 Y10.8994 F50.00
G01 X22.0672 Y10.7153 F50.00
G01 X21.9819 Y10.5439 F50.00
G01 X21.8666 Y10.3912 F50.00
G01 X21.7251 Y10.2622 F50.00
G01 X21.5624 Y10.1615 F50.00
G01 X21.3839 Y10.0923 F50.00
G01 X21.1957 Y10.0571 F50.00
G01 X21.0043 Y10.0571 F50.00
G01 X20.8161 Y10.0923 F50.00
G01 X20.6377 Y10.1615 F50.00
G01 X20.4749 Y10.2622 F50.00
G01 X20.3334 Y10.3912 F50.00
G01 X20.2181 Y10.5439 F50.00
G01 X20.1580 Y10.6647 F50.00
G01 X20.1548 Y10.6701 F50.00
G01 X20.1499 Y10.6769 F50.00
G01 X20.1457 Y10.6820 F50.00
G01 X20.1398 Y10.6876 F50.00
G01 X20.1333 Y10.6925 F50.00
G01 X20.1263 Y10.6966 F50.00
G01 X20.1137 Y10.7020 F50.00
G01 X20.1075 Y10.7042 F50.00
G01 X20.0994 Y10.7062 F50.00
G01 X20.0911 Y10.7071 F50.00
G01 X7.4622 Y10.7071 F50.00
G01 X7.4544 Y10.7067 F50.00
G01 X7.4428 Y10.7047 F50.00
G01 X7.4350 Y10.7023 F50.00
G01 X7.4276 Y10.6991 F50.00
G01 X7.4219 Y10.6958 F50.00
G01 X7.4154 Y10.6910 F50.00
G01 X7.4050 Y10.6819 F50.00
G01 X7.3984 Y10.6745 F50.00
G01 X7.3946 Y10.6691 F50.00
G01 X7.3913 Y10.6633 F50.00
G01 X7.3319 Y10.5439 F50.00
G01 X7.2166 Y10.3912 F50.00
G01 X7.0751 Y10.2622 F50.00
G01 X6.9124 Y10.1615 F50.00
G01 X6.7339 Y10.0923 F50.00
G01 X6.5457 Y10.0571 F50.00
G01 X6.3543 Y10.0571 F50.00
G01 X6.1661 Y10.0923 F50.00
G01 X5.9877 Y10.1615 F50.00
G01 X5.8249 Y10.2622 F50.00
G01 X5.6834 Y10.3912 F50.00
G01 X5.5681 Y10.5439 F50.00
G01 X5.4828 Y10.7153 F50.00
G01 X5.4304 Y10.8994 F50.00
G01 X5.4127 Y11.0900 F50.00
G01 X5.4304 Y11.2806 F50.00
G00 Z1.0000
G00 X7.4353 Y8.9387
G01 F40.00
G01 Z-0.1001
G01 F50.00
G01 X7.4400 Y8.9308 F50.00
G01 X7.4457 Y8.9226 F50.00
G01 X7.4509 Y8.9161 F50.00
G01 X7.4576 Y8.9088 F50.00
G01 X7.4649 Y8.9020 F50.00
G01 X7.4726 Y8.8957 F50.00
G01 X7.4808 Y8.8900 F50.00
G01 X7.4885 Y8.8854 F50.00
G01 X7.4353 Y8.8854 F50.00
G01 X7.4353 Y8.9387 F50.00
G00 Z1.0000
G00 X7.4353 Y8.1613
G01 F40.00
G01 Z-0.1001
G01 F50.00
G01 X7.4353 Y8.2146 F50.00
G01 X7.4885 Y8.2146 F50.00
G01 X7.4808 Y8.2100 F50.00
G01 X7.4726 Y8.2043 F50.00
G01 X7.4649 Y8.1980 F50.00
G01 X7.4576 Y8.1912 F50.00
G01 X7.4509 Y8.1839 F50.00
G01 X7.4457 Y8.1774 F50.00
G01 X7.4400 Y8.1692 F50.00
G01 X7.4353 Y8.1613 F50.00
G00 Z1.0000
G00 X7.3000 Y7.6324
G01 F40.00
G01 Z-0.1001
G01 F50.00
G01 X7.3066 Y7.6327 F50.00
G01 X7.3132 Y7.6336 F50.00
G01 X7.3243 Y7.6369 F50.00
G01 X7.3304 Y7.6396 F50.00
G01 X7.3362 Y7.6428 F50.00
G01 X7.3454 Y7.6499 F50.00
G01 X7.3533 Y7.6584 F50.00
G01 X7.3572 Y7.6638 F50.00
G01 X7.3604 Y7.6696 F50.00
G01 X7.3631 Y7.6757 F50.00
G01 X7.3652 Y7.6820 F50.00
G01 X7.3673 Y7.6934 F50.00
G01 X7.3676 Y7.7000 F50.00
G01 X7.3676 Y8.2822 F50.00
G01 X20.1823 Y8.2823 F50.00
G01 X20.1825 Y7.6950 F50.00
G01 X20.1836 Y7.6868 F50.00
G01 X20.1863 Y7.6772 F50.00
G01 X20.1903 Y7.6681 F50.00
G01 X20.1957 Y7.6597 F50.00
G01 X20.2022 Y7.6522 F50.00
G01 X20.2097 Y7.6457 F50.00
G01 X20.2181 Y7.6403 F50.00
G01 X20.2272 Y7.6363 F50.00
G01 X20.2384 Y7.6333 F50.00
G01 X20.2500 Y7.6324 F50.00
G01 X21.9500 Y7.6324 F50.00
G01 X21.9583 Y7.6329 F50.00
G01 X21.9696 Y7.6353 F50.00
G01 X21.9804 Y7.6396 F50.00
G01 X21.9903 Y7.6457 F50.00
G01 X21.9954 Y7.6499 F50.00
G01 X22.0001 Y7.6546 F50.00
G01 X22.0043 Y7.6597 F50.00
G01 X22.0080 Y7.6652 F50.00
G01 X22.0131 Y7.6757 F50.00
G01 X22.0164 Y7.6868 F50.00
G01 X22.0176 Y7.6983 F50.00
G01 X22.0176 Y9.4000 F50.00
G01 X22.0171 Y9.4083 F50.00
G01 X22.0160 Y9.4148 F50.00
G01 X22.0142 Y9.4212 F50.00
G01 X22.0097 Y9.4319 F50.00
G01 X22.0033 Y9.4416 F50.00
G01 X21.9954 Y9.4501 F50.00
G01 X21.9862 Y9.4572 F50.00
G01 X21.9759 Y9.4625 F50.00
G01 X21.9696 Y9.4647 F50.00
G01 X21.9632 Y9.4664 F50.00
G01 X21.9517 Y9.4676 F50.00
G01 X20.2500 Y9.4676 F50.00
G01 X20.2384 Y9.4667 F50.00
G01 X20.2288 Y9.4642 F50.00
G01 X20.2196 Y9.4604 F50.00
G01 X20.2110 Y9.4553 F50.00
G01 X20.2034 Y9.4490 F50.00
G01 X20.1967 Y9.4416 F50.00
G01 X20.1911 Y9.4333 F50.00
G01 X20.1869 Y9.4243 F50.00
G01 X20.1840 Y9.4148 F50.00
G01 X20.1825 Y9.4050 F50.00
G01 X20.1824 Y8.8178 F50.00
G01 X7.3677 Y8.8177 F50.00
G01 X7.3675 Y9.4050 F50.00
G01 X7.3660 Y9.4148 F50.00
G01 X7.3631 Y9.4243 F50.00
G01 X7.3589 Y9.4333 F50.00
G01 X7.3543 Y9.4403 F50.00
G01 X7.3478 Y9.4478 F50.00
G01 X7.3403 Y9.4543 F50.00
G01 X7.3319 Y9.4597 F50.00
G01 X7.3228 Y9.4637 F50.00
G01 X7.3116 Y9.4667 F50.00
G01 X7.3000 Y9.4676 F50.00
G01 X5.6000 Y9.4676 F50.00
G01 X5.5884 Y9.4667 F50.00
G01 X5.5820 Y9.4652 F50.00
G01 X5.5757 Y9.4631 F50.00
G01 X5.5696 Y9.4604 F50.00
G01 X5.5638 Y9.4572 F50.00
G01 X5.5584 Y9.4533 F50.00
G01 X5.5534 Y9.4490 F50.00
G01 X5.5477 Y9.4429 F50.00
G01 X5.5438 Y9.4376 F50.00
G01 X5.5403 Y9.4319 F50.00
G01 X5.5375 Y9.4259 F50.00
G01 X5.5353 Y9.4196 F50.00
G01 X5.5336 Y9.4132 F50.00
G01 X5.5327 Y9.4066 F50.00
G01 X5.5324 Y9.4000 F50.00
G01 X5.5324 Y7.7000 F50.00
G01 X5.5327 Y7.6934 F50.00
G01 X5.5336 Y7.6868 F50.00
G01 X5.5369 Y7.6757 F50.00
G01 X5.5396 Y7.6696 F50.00
G01 X5.5428 Y7.6638 F50.00
G01 X5.5467 Y7.6584 F50.00
G01 X5.5510 Y7.6534 F50.00
G01 X5.5558 Y7.6488 F50.00
G01 X5.5610 Y7.6447 F50.00
G01 X5.5667 Y7.6411 F50.00
G01 X5.5741 Y7.6375 F50.00
G01 X5.5804 Y7.6353 F50.00
G01 X5.5868 Y7.6336 F50.00
G01 X5.5934 Y7.6327 F50.00
G01 X5.6000 Y7.6324 F50.00
G01 X7.3000 Y7.6324 F50.00
G00 Z1.0000
G00 X14.4641 Y6.0037
G01 F40.00
G01 Z-0.1001
G01 F50.00
G01 X14.4760 Y5.9985 F50.00
G01 X14.4856 Y5.9816 F50.00
G01 X14.4752 Y5.9927 F50.00
G01 X14.4641 Y6.0037 F50.00
G00 Z1.0000
G00 X20.1147 Y8.1613
G01 F40.00
G01 Z-0.1001
G01 F50.00
G01 X20.1100 Y8.1692 F50.00
G01 X20.1043 Y8.1774 F50.00
G01 X20.0991 Y8.1839 F50.00
G01 X20.0924 Y8.1912 F50.00
G01 X20.0851 Y8.1980 F50.00
G01 X20.0774 Y8.2043 F50.00
G01 X20.0692 Y8.2100 F50.00
G01 X20.0615 Y8.2146 F50.00
G01 X20.1147 Y8.2146 F50.00
G01 X20.1147 Y8.1613 F50.00
G00 Z1.0000
G00 X20.0615 Y8.8854
G01 F40.00
G01 Z-0.1001
G01 F50.00
G01 X20.0692 Y8.8900 F50.00
G01 X20.0774 Y8.8957 F50.00
G01 X20.0851 Y8.9020 F50.00
G01 X20.0924 Y8.9088 F50.00
G01 X20.0991 Y8.9161 F50.00
G01 X20.1043 Y8.9226 F50.00
G01 X20.1100 Y8.9308 F50.00
G01 X20.1147 Y8.9387 F50.00
G01 X20.1147 Y8.8854 F50.00
G01 X20.0615 Y8.8854 F50.00
G00 Z1.0000
G00 X20.1787 Y10.7432
G01 F40.00
G01 Z-0.1001
G01 F50.00
G01 X20.1700 Y10.7493 F50.00
G01 X20.1613 Y10.7546 F50.00
G01 X20.1746 Y10.7546 F50.00
G01 X20.1787 Y10.7432 F50.00
G00 Z1.0000
G00 X20.1620 Y11.4256
G01 F40.00
G01 Z-0.1001
G01 F50.00
G01 X20.1707 Y11.4314 F50.00
G01 X20.1792 Y11.4381 F50.00
G01 X20.1747 Y11.4256 F50.00
G01 X20.1620 Y11.4256 F50.00
G00 Z1.0000
G00 X20.1787 Y13.2832
G01 F40.00
G01 Z-0.1001
G01 F50.00
G01 X20.1700 Y13.2893 F50.00
G01 X20.1613 Y13.2946 F50.00
G01 X20.1746 Y13.2946 F50.00
G01 X20.1787 Y13.2832 F50.00
G00 Z1.0000
G00 X20.1620 Y13.9656
G01 F40.00
G01 Z-0.1001
G01 F50.00
G01 X20.1707 Y13.9714 F50.00
G01 X20.1792 Y13.9781 F50.00
G01 X20.1747 Y13.9656 F50.00
G01 X20.1620 Y13.9656 F50.00
G00 Z1.0000
G00 X20.1787 Y15.8232
G01 F40.00
G01 Z-0.1001
G01 F50.00
G01 X20.1700 Y15.8293 F50.00
G01 X20.1613 Y15.8346 F50.00
G01 X20.1746 Y15.8346 F50.00
G01 X20.1787 Y15.8232 F50.00
G00 Z1.0000
G00 X20.1620 Y16.5056
G01 F40.00
G01 Z-0.1001
G01 F50.00
G01 X20.1707 Y16.5114 F50.00
G01 X20.1792 Y16.5181 F50.00
G01 X20.1747 Y16.5056 F50.00
G01 X20.1620 Y16.5056 F50.00
G00 Z1.0000
G00 X21.2926 Y17.8133
G01 F40.00
G01 Z-0.1001
G01 F50.00
G01 X21.3664 Y17.8319 F50.00
G01 X21.4481 Y17.8610 F50.00
G01 X21.4542 Y17.8635 F50.00
G01 X21.5296 Y17.8992 F50.00
G01 X21.5355 Y17.9023 F50.00
G01 X21.6098 Y17.9470 F50.00
G01 X21.6834 Y18.0017 F50.00
G01 X21.7489 Y18.0611 F50.00
G01 X21.8072 Y18.1253 F50.00
G01 X21.8114 Y18.1305 F50.00
G01 X21.8611 Y18.1975 F50.00
G01 X21.8648 Y18.2030 F50.00
G01 X21.9093 Y18.2774 F50.00
G01 X21.9478 Y18.3588 F50.00
G01 X21.9781 Y18.4436 F50.00
G01 X21.9967 Y18.5173 F50.00
G01 X22.1185 Y18.5174 F50.00
G01 X22.0668 Y18.3355 F50.00
G01 X21.9815 Y18.1642 F50.00
G01 X21.8662 Y18.0115 F50.00
G01 X21.7248 Y17.8826 F50.00
G01 X21.5621 Y17.7819 F50.00
G01 X21.3837 Y17.7128 F50.00
G01 X21.2927 Y17.6958 F50.00
G01 X21.2926 Y17.8133 F50.00
G00 Z1.0000
G00 X20.0815 Y18.5173
G01 F40.00
G01 Z-0.1001
G01 F50.00
G01 X20.2033 Y18.5174 F50.00
G01 X20.2219 Y18.4436 F50.00
G01 X20.2510 Y18.3619 F50.00
G01 X20.2535 Y18.3558 F50.00
G01 X20.2892 Y18.2804 F50.00
G01 X20.2923 Y18.2745 F50.00
G01 X20.3370 Y18.2002 F50.00
G01 X20.3917 Y18.1266 F50.00
G01 X20.4511 Y18.0611 F50.00
G01 X20.5153 Y18.0028 F50.00
G01 X20.5205 Y17.9986 F50.00
G01 X20.5875 Y17.9489 F50.00
G01 X20.5930 Y17.9452 F50.00
G01 X20.6674 Y17.9007 F50.00
G01 X20.7488 Y17.8622 F50.00
G01 X20.8336 Y17.8319 F50.00
G01 X20.9073 Y17.8133 F50.00
G01 X20.9074 Y17.6958 F50.00
G01 X20.8163 Y17.7128 F50.00
G01 X20.6379 Y17.7819 F50.00
G01 X20.4752 Y17.8826 F50.00
G01 X20.3338 Y18.0115 F50.00
G01 X20.2185 Y18.1642 F50.00
G01 X20.1332 Y18.3355 F50.00
G01 X20.0815 Y18.5173 F50.00
G00 Z1.0000
G00 X20.0815 Y18.9026
G01 F40.00
G01 Z-0.1001
G01 F50.00
G01 X20.1332 Y19.0845 F50.00
G01 X20.2185 Y19.2558 F50.00
G01 X20.3338 Y19.4085 F50.00
G01 X20.4752 Y19.5374 F50.00
G01 X20.6379 Y19.6381 F50.00
G01 X20.8163 Y19.7072 F50.00
G01 X20.9073 Y19.7242 F50.00
G01 X20.9073 Y19.6067 F50.00
G01 X20.8336 Y19.5881 F50.00
G01 X20.7488 Y19.5578 F50.00
G01 X20.6674 Y19.5193 F50.00
G01 X20.5930 Y19.4748 F50.00
G01 X20.5875 Y19.4711 F50.00
G01 X20.5205 Y19.4214 F50.00
G01 X20.5153 Y19.4172 F50.00
G01 X20.4511 Y19.3589 F50.00
G01 X20.3917 Y19.2934 F50.00
G01 X20.3370 Y19.2198 F50.00
G01 X20.2923 Y19.1455 F50.00
G01 X20.2892 Y19.1396 F50.00
G01 X20.2535 Y19.0642 F50.00
G01 X20.2510 Y19.0581 F50.00
G01 X20.2219 Y18.9764 F50.00
G01 X20.2033 Y18.9027 F50.00
G01 X20.0815 Y18.9026 F50.00
G00 Z1.0000
G00 X21.2927 Y19.6067
G01 F40.00
G01 Z-0.1001
G01 F50.00
G01 X21.2926 Y19.7242 F50.00
G01 X21.3837 Y19.7072 F50.00
G01 X21.5621 Y19.6381 F50.00
G01 X21.7248 Y19.5374 F50.00
G01 X21.8662 Y19.4085 F50.00
G01 X21.9815 Y19.2558 F50.00
G01 X22.0668 Y19.0845 F50.00
G01 X22.1185 Y18.9027 F50.00
G01 X21.9967 Y18.9026 F50.00
G01 X21.9781 Y18.9764 F50.00
G01 X21.9478 Y19.0612 F50.00
G01 X21.9093 Y19.1426 F50.00
G01 X21.8648 Y19.2170 F50.00
G01 X21.8611 Y19.2225 F50.00
G01 X21.8114 Y19.2895 F50.00
G01 X21.8072 Y19.2947 F50.00
G01 X21.7489 Y19.3589 F50.00
G01 X21.6834 Y19.4183 F50.00
G01 X21.6098 Y19.4730 F50.00
G01 X21.5355 Y19.5177 F50.00
G01 X21.5296 Y19.5208 F50.00
G01 X21.4542 Y19.5565 F50.00
G01 X21.4481 Y19.5590 F50.00
G01 X21.3664 Y19.5881 F50.00
G01 X21.2927 Y19.6067 F50.00
G00 Z1.0000
G00 X19.1166 Y22.7565
G01 F40.00
G01 Z-0.1001
G01 F50.00
G01 X19.1232 Y22.7572 F50.00
G01 X19.2090 Y22.7700 F50.00
G01 X19.2964 Y22.7919 F50.00
G01 X19.3812 Y22.8222 F50.00
G01 X19.4626 Y22.8607 F50.00
G01 X19.5398 Y22.9070 F50.00
G01 X19.6122 Y22.9606 F50.00
G01 X19.6789 Y23.0211 F50.00
G01 X19.7394 Y23.0878 F50.00
G01 X19.7930 Y23.1602 F50.00
G01 X19.8393 Y23.2374 F50.00
G01 X19.8778 Y23.3188 F50.00
G01 X19.9081 Y23.4036 F50.00
G01 X19.9300 Y23.4910 F50.00
G01 X19.9432 Y23.5801 F50.00
G01 X19.9476 Y23.6700 F50.00
G01 X19.9432 Y23.7599 F50.00
G01 X19.9300 Y23.8490 F50.00
G01 X19.9081 Y23.9364 F50.00
G01 X19.8778 Y24.0212 F50.00
G01 X19.8393 Y24.1026 F50.00
G01 X19.7930 Y24.1798 F50.00
G01 X19.7394 Y24.2522 F50.00
G01 X19.6789 Y24.3189 F50.00
G01 X19.6122 Y24.3794 F50.00
G01 X19.5398 Y24.4330 F50.00
G01 X19.4626 Y24.4793 F50.00
G01 X19.3812 Y24.5178 F50.00
G01 X19.2964 Y24.5481 F50.00
G01 X19.2090 Y24.5700 F50.00
G01 X19.1199 Y24.5832 F50.00
G01 X19.0300 Y24.5876 F50.00
G01 X18.9401 Y24.5832 F50.00
G01 X18.8510 Y24.5700 F50.00
G01 X18.7636 Y24.5481 F50.00
G01 X18.6788 Y24.5178 F50.00
G01 X18.5974 Y24.4793 F50.00
G01 X18.5202 Y24.4330 F50.00
G01 X18.4478 Y24.3794 F50.00
G01 X18.3811 Y24.3189 F50.00
G01 X18.3206 Y24.2522 F50.00
G01 X18.2670 Y24.1798 F50.00
G01 X18.2207 Y24.1026 F50.00
G01 X18.1822 Y24.0212 F50.00
G01 X18.1519 Y23.9364 F50.00
G01 X18.1300 Y23.8490 F50.00
G01 X18.1168 Y23.7599 F50.00
G01 X18.1124 Y23.6700 F50.00
G01 X18.1168 Y23.5801 F50.00
G01 X18.1300 Y23.4910 F50.00
G01 X18.1519 Y23.4036 F50.00
G01 X18.1822 Y23.3188 F50.00
G01 X18.2207 Y23.2374 F50.00
G01 X18.2670 Y23.1602 F50.00
G01 X18.3206 Y23.0878 F50.00
G01 X18.3811 Y23.0211 F50.00
G01 X18.4478 Y22.9606 F50.00
G01 X18.5202 Y22.9070 F50.00
G01 X18.5974 Y22.8607 F50.00
G01 X18.6788 Y22.8222 F50.00
G01 X18.7636 Y22.7919 F50.00
G01 X18.8510 Y22.7700 F50.00
G01 X18.9401 Y22.7568 F50.00
G01 X19.0300 Y22.7524 F50.00
G01 X19.1166 Y22.7565 F50.00
G00 Z1.0000
G00 X18.0104 Y23.8606
G01 F40.00
G01 Z-0.1001
G01 F50.00
G01 X18.0628 Y24.0447 F50.00
G01 X18.1481 Y24.2161 F50.00
G01 X18.2634 Y24.3688 F50.00
G01 X18.4049 Y24.4978 F50.00
G01 X18.5676 Y24.5985 F50.00
G01 X18.7461 Y24.6677 F50.00
G01 X18.9343 Y24.7029 F50.00
G01 X19.1257 Y24.7029 F50.00
G01 X19.3139 Y24.6677 F50.00
G01 X19.4923 Y24.5985 F50.00
G01 X19.5737 Y24.5481 F50.00
G01 X19.6551 Y24.4978 F50.00
G01 X19.7966 Y24.3688 F50.00
G01 X19.9119 Y24.2161 F50.00
G01 X19.9972 Y24.0447 F50.00
G01 X20.0496 Y23.8606 F50.00
G01 X20.0673 Y23.6700 F50.00
G01 X20.0496 Y23.4794 F50.00
G01 X19.9972 Y23.2953 F50.00
G01 X19.9119 Y23.1239 F50.00
G01 X19.7966 Y22.9712 F50.00
G01 X19.6551 Y22.8422 F50.00
G01 X19.4924 Y22.7415 F50.00
G01 X19.3139 Y22.6723 F50.00
G01 X19.1257 Y22.6371 F50.00
G01 X18.9343 Y22.6371 F50.00
G01 X18.7461 Y22.6723 F50.00
G01 X18.5677 Y22.7415 F50.00
G01 X18.4049 Y22.8422 F50.00
G01 X18.2634 Y22.9712 F50.00
G01 X18.1481 Y23.1239 F50.00
G01 X18.0628 Y23.2953 F50.00
G01 X18.0104 Y23.4794 F50.00
G01 X17.9927 Y23.6700 F50.00
G01 X18.0104 Y23.8606 F50.00
G00 Z1.0000
G00 X16.5766 Y22.7565
G01 F40.00
G01 Z-0.1001
G01 F50.00
G01 X16.5832 Y22.7572 F50.00
G01 X16.6690 Y22.7700 F50.00
G01 X16.7564 Y22.7919 F50.00
G01 X16.8412 Y22.8222 F50.00
G01 X16.9226 Y22.8607 F50.00
G01 X16.9998 Y22.9070 F50.00
G01 X17.0722 Y22.9606 F50.00
G01 X17.1389 Y23.0211 F50.00
G01 X17.1994 Y23.0878 F50.00
G01 X17.2530 Y23.1602 F50.00
G01 X17.2993 Y23.2374 F50.00
G01 X17.3378 Y23.3188 F50.00
G01 X17.3681 Y23.4036 F50.00
G01 X17.3900 Y23.4910 F50.00
G01 X17.4032 Y23.5801 F50.00
G01 X17.4076 Y23.6700 F50.00
G01 X17.4032 Y23.7599 F50.00
G01 X17.3900 Y23.8490 F50.00
G01 X17.3681 Y23.9364 F50.00
G01 X17.3378 Y24.0212 F50.00
G01 X17.2993 Y24.1026 F50.00
G01 X17.2530 Y24.1798 F50.00
G01 X17.1994 Y24.2522 F50.00
G01 X17.1389 Y24.3189 F50.00
G01 X17.0722 Y24.3794 F50.00
G01 X16.9998 Y24.4330 F50.00
G01 X16.9226 Y24.4793 F50.00
G01 X16.8412 Y24.5178 F50.00
G01 X16.7564 Y24.5481 F50.00
G01 X16.6690 Y24.5700 F50.00
G01 X16.5799 Y24.5832 F50.00
G01 X16.4900 Y24.5876 F50.00
G01 X16.4001 Y24.5832 F50.00
G01 X16.3110 Y24.5700 F50.00
G01 X16.2236 Y24.5481 F50.00
G01 X16.1388 Y24.5178 F50.00
G01 X16.0574 Y24.4793 F50.00
G01 X15.9802 Y24.4330 F50.00
G01 X15.9078 Y24.3794 F50.00
G01 X15.8411 Y24.3189 F50.00
G01 X15.7806 Y24.2522 F50.00
G01 X15.7270 Y24.1798 F50.00
G01 X15.6807 Y24.1026 F50.00
G01 X15.6422 Y24.0212 F50.00
G01 X15.6119 Y23.9364 F50.00
G01 X15.5900 Y23.8490 F50.00
G01 X15.5768 Y23.7599 F50.00
G01 X15.5724 Y23.6700 F50.00
G01 X15.5768 Y23.5801 F50.00
G01 X15.5900 Y23.4910 F50.00
G01 X15.6119 Y23.4036 F50.00
G01 X15.6422 Y23.3188 F50.00
G01 X15.6807 Y23.2374 F50.00
G01 X15.7270 Y23.1602 F50.00
G01 X15.7806 Y23.0878 F50.00
G01 X15.8411 Y23.0211 F50.00
G01 X15.9078 Y22.9606 F50.00
G01 X15.9802 Y22.9070 F50.00
G01 X16.0574 Y22.8607 F50.00
G01 X16.1388 Y22.8222 F50.00
G01 X16.2236 Y22.7919 F50.00
G01 X16.3110 Y22.7700 F50.00
G01 X16.4001 Y22.7568 F50.00
G01 X16.4900 Y22.7524 F50.00
G01 X16.5766 Y22.7565 F50.00
G00 Z1.0000
G00 X15.4704 Y23.8606
G01 F40.00
G01 Z-0.1001
G01 F50.00
G01 X15.5228 Y24.0447 F50.00
G01 X15.6081 Y24.2161 F50.00
G01 X15.7234 Y24.3688 F50.00
G01 X15.8649 Y24.4978 F50.00
G01 X16.0276 Y24.5985 F50.00
G01 X16.2061 Y24.6677 F50.00
G01 X16.3943 Y24.7029 F50.00
G01 X16.5857 Y24.7029 F50.00
G01 X16.7739 Y24.6677 F50.00
G01 X16.9523 Y24.5985 F50.00
G01 X17.0337 Y24.5481 F50.00
G01 X17.1151 Y24.4978 F50.00
G01 X17.2566 Y24.3688 F50.00
G01 X17.3719 Y24.2161 F50.00
G01 X17.4572 Y24.0447 F50.00
G01 X17.5096 Y23.8606 F50.00
G01 X17.5273 Y23.6700 F50.00
G01 X17.5096 Y23.4794 F50.00
G01 X17.4572 Y23.2953 F50.00
G01 X17.3719 Y23.1239 F50.00
G01 X17.2566 Y22.9712 F50.00
G01 X17.1151 Y22.8422 F50.00
G01 X16.9524 Y22.7415 F50.00
G01 X16.7739 Y22.6723 F50.00
G01 X16.5857 Y22.6371 F50.00
G01 X16.3943 Y22.6371 F50.00
G01 X16.2061 Y22.6723 F50.00
G01 X16.0277 Y22.7415 F50.00
G01 X15.8649 Y22.8422 F50.00
G01 X15.7234 Y22.9712 F50.00
G01 X15.6081 Y23.1239 F50.00
G01 X15.5228 Y23.2953 F50.00
G01 X15.4704 Y23.4794 F50.00
G01 X15.4527 Y23.6700 F50.00
G01 X15.4704 Y23.8606 F50.00
G00 Z1.0000
G00 X14.1426 Y24.5667
G01 F40.00
G01 Z-0.1001
G01 F50.00
G01 X14.1426 Y24.6842 F50.00
G01 X14.2337 Y24.6672 F50.00
G01 X14.4121 Y24.5981 F50.00
G01 X14.5748 Y24.4974 F50.00
G01 X14.7162 Y24.3685 F50.00
G01 X14.8315 Y24.2158 F50.00
G01 X14.9168 Y24.0445 F50.00
G01 X14.9685 Y23.8627 F50.00
G01 X14.8467 Y23.8626 F50.00
G01 X14.8281 Y23.9364 F50.00
G01 X14.7978 Y24.0212 F50.00
G01 X14.7593 Y24.1026 F50.00
G01 X14.7148 Y24.1770 F50.00
G01 X14.7111 Y24.1825 F50.00
G01 X14.6614 Y24.2495 F50.00
G01 X14.6572 Y24.2547 F50.00
G01 X14.5989 Y24.3189 F50.00
G01 X14.5334 Y24.3783 F50.00
G01 X14.4598 Y24.4330 F50.00
G01 X14.3855 Y24.4777 F50.00
G01 X14.3796 Y24.4808 F50.00
G01 X14.3042 Y24.5165 F50.00
G01 X14.2981 Y24.5190 F50.00
G01 X14.2164 Y24.5481 F50.00
G01 X14.1426 Y24.5667 F50.00
G00 Z1.0000
G00 X12.9315 Y23.8626
G01 F40.00
G01 Z-0.1001
G01 F50.00
G01 X12.9832 Y24.0445 F50.00
G01 X13.0685 Y24.2158 F50.00
G01 X13.1838 Y24.3685 F50.00
G01 X13.3252 Y24.4974 F50.00
G01 X13.4879 Y24.5981 F50.00
G01 X13.6663 Y24.6672 F50.00
G01 X13.7573 Y24.6842 F50.00
G01 X13.7573 Y24.5667 F50.00
G01 X13.6836 Y24.5481 F50.00
G01 X13.5988 Y24.5178 F50.00
G01 X13.5174 Y24.4793 F50.00
G01 X13.4430 Y24.4348 F50.00
G01 X13.4375 Y24.4311 F50.00
G01 X13.3705 Y24.3814 F50.00
G01 X13.3653 Y24.3772 F50.00
G01 X13.3011 Y24.3189 F50.00
G01 X13.2417 Y24.2534 F50.00
G01 X13.1870 Y24.1798 F50.00
G01 X13.1423 Y24.1055 F50.00
G01 X13.1392 Y24.0996 F50.00
G01 X13.1035 Y24.0242 F50.00
G01 X13.1010 Y24.0181 F50.00
G01 X13.0719 Y23.9364 F50.00
G01 X13.0533 Y23.8627 F50.00
G01 X12.9315 Y23.8626 F50.00
G00 Z1.0000
G00 X12.9315 Y23.4773
G01 F40.00
G01 Z-0.1001
G01 F50.00
G01 X13.0533 Y23.4774 F50.00
G01 X13.0719 Y23.4036 F50.00
G01 X13.1010 Y23.3219 F50.00
G01 X13.1035 Y23.3158 F50.00
G01 X13.1392 Y23.2404 F50.00
G01 X13.1423 Y23.2345 F50.00
G01 X13.1870 Y23.1602 F50.00
G01 X13.2417 Y23.0866 F50.00
G01 X13.3011 Y23.0211 F50.00
G01 X13.3653 Y22.9628 F50.00
G01 X13.3705 Y22.9586 F50.00
G01 X13.4375 Y22.9089 F50.00
G01 X13.4430 Y22.9052 F50.00
G01 X13.5174 Y22.8607 F50.00
G01 X13.5988 Y22.8222 F50.00
G01 X13.6836 Y22.7919 F50.00
G01 X13.7573 Y22.7733 F50.00
G01 X13.7573 Y22.6558 F50.00
G01 X13.6663 Y22.6728 F50.00
G01 X13.4879 Y22.7419 F50.00
G01 X13.3252 Y22.8426 F50.00
G01 X13.1838 Y22.9715 F50.00
G01 X13.0685 Y23.1242 F50.00
G01 X12.9832 Y23.2955 F50.00
G01 X12.9315 Y23.4773 F50.00
G00 Z1.0000
G00 X14.1426 Y22.7733
G01 F40.00
G01 Z-0.1001
G01 F50.00
G01 X14.2164 Y22.7919 F50.00
G01 X14.2981 Y22.8210 F50.00
G01 X14.3042 Y22.8235 F50.00
G01 X14.3796 Y22.8592 F50.00
G01 X14.3855 Y22.8623 F50.00
G01 X14.4598 Y22.9070 F50.00
G01 X14.5334 Y22.9617 F50.00
G01 X14.5989 Y23.0211 F50.00
G01 X14.6572 Y23.0853 F50.00
G01 X14.6614 Y23.0905 F50.00
G01 X14.7111 Y23.1575 F50.00
G01 X14.7148 Y23.1630 F50.00
G01 X14.7593 Y23.2374 F50.00
G01 X14.7978 Y23.3188 F50.00
G01 X14.8281 Y23.4036 F50.00
G01 X14.8467 Y23.4773 F50.00
G01 X14.9685 Y23.4774 F50.00
G01 X14.9168 Y23.2955 F50.00
G01 X14.8315 Y23.1242 F50.00
G01 X14.7162 Y22.9715 F50.00
G01 X14.5748 Y22.8426 F50.00
G01 X14.4121 Y22.7419 F50.00
G01 X14.2337 Y22.6728 F50.00
G01 X14.1426 Y22.6558 F50.00
G01 X14.1426 Y22.7733 F50.00
G00 Z1.0000
G00 X11.4966 Y22.7565
G01 F40.00
G01 Z-0.1001
G01 F50.00
G01 X11.5032 Y22.7572 F50.00
G01 X11.5890 Y22.7700 F50.00
G01 X11.6764 Y22.7919 F50.00
G01 X11.7612 Y22.8222 F50.00
G01 X11.8426 Y22.8607 F50.00
G01 X11.9198 Y22.9070 F50.00
G01 X11.9922 Y22.9606 F50.00
G01 X12.0589 Y23.0211 F50.00
G01 X12.1194 Y23.0878 F50.00
G01 X12.1730 Y23.1602 F50.00
G01 X12.2193 Y23.2374 F50.00
G01 X12.2578 Y23.3188 F50.00
G01 X12.2881 Y23.4036 F50.00
G01 X12.3100 Y23.4910 F50.00
G01 X12.3232 Y23.5801 F50.00
G01 X12.3276 Y23.6700 F50.00
G01 X12.3232 Y23.7599 F50.00
G01 X12.3100 Y23.8490 F50.00
G01 X12.2881 Y23.9364 F50.00
G01 X12.2578 Y24.0212 F50.00
G01 X12.2193 Y24.1026 F50.00
G01 X12.1730 Y24.1798 F50.00
G01 X12.1194 Y24.2522 F50.00
G01 X12.0589 Y24.3189 F50.00
G01 X11.9922 Y24.3794 F50.00
G01 X11.9198 Y24.4330 F50.00
G01 X11.8426 Y24.4793 F50.00
G01 X11.7612 Y24.5178 F50.00
G01 X11.6764 Y24.5481 F50.00
G01 X11.5890 Y24.5700 F50.00
G01 X11.4999 Y24.5832 F50.00
G01 X11.4100 Y24.5876 F50.00
G01 X11.3201 Y24.5832 F50.00
G01 X11.2310 Y24.5700 F50.00
G01 X11.1436 Y24.5481 F50.00
G01 X11.0588 Y24.5178 F50.00
G01 X10.9774 Y24.4793 F50.00
G01 X10.9002 Y24.4330 F50.00
G01 X10.8278 Y24.3794 F50.00
G01 X10.7611 Y24.3189 F50.00
G01 X10.7006 Y24.2522 F50.00
G01 X10.6470 Y24.1798 F50.00
G01 X10.6007 Y24.1026 F50.00
G01 X10.5622 Y24.0212 F50.00
G01 X10.5319 Y23.9364 F50.00
G01 X10.5100 Y23.8490 F50.00
G01 X10.4968 Y23.7599 F50.00
G01 X10.4924 Y23.6700 F50.00
G01 X10.4968 Y23.5801 F50.00
G01 X10.5100 Y23.4910 F50.00
G01 X10.5319 Y23.4036 F50.00
G01 X10.5622 Y23.3188 F50.00
G01 X10.6007 Y23.2374 F50.00
G01 X10.6470 Y23.1602 F50.00
G01 X10.7006 Y23.0878 F50.00
G01 X10.7611 Y23.0211 F50.00
G01 X10.8278 Y22.9606 F50.00
G01 X10.9002 Y22.9070 F50.00
G01 X10.9774 Y22.8607 F50.00
G01 X11.0588 Y22.8222 F50.00
G01 X11.1436 Y22.7919 F50.00
G01 X11.2310 Y22.7700 F50.00
G01 X11.3201 Y22.7568 F50.00
G01 X11.4100 Y22.7524 F50.00
G01 X11.4966 Y22.7565 F50.00
G00 Z1.0000
G00 X10.3904 Y23.8606
G01 F40.00
G01 Z-0.1001
G01 F50.00
G01 X10.4428 Y24.0447 F50.00
G01 X10.5281 Y24.2161 F50.00
G01 X10.6434 Y24.3688 F50.00
G01 X10.7849 Y24.4978 F50.00
G01 X10.9476 Y24.5985 F50.00
G01 X11.1261 Y24.6677 F50.00
G01 X11.3143 Y24.7029 F50.00
G01 X11.5057 Y24.7029 F50.00
G01 X11.6939 Y24.6677 F50.00
G01 X11.8723 Y24.5985 F50.00
G01 X11.9537 Y24.5481 F50.00
G01 X12.0351 Y24.4978 F50.00
G01 X12.1766 Y24.3688 F50.00
G01 X12.2919 Y24.2161 F50.00
G01 X12.3772 Y24.0447 F50.00
G01 X12.4296 Y23.8606 F50.00
G01 X12.4473 Y23.6700 F50.00
G01 X12.4296 Y23.4794 F50.00
G01 X12.3772 Y23.2953 F50.00
G01 X12.2919 Y23.1239 F50.00
G01 X12.1766 Y22.9712 F50.00
G01 X12.0351 Y22.8422 F50.00
G01 X11.8724 Y22.7415 F50.00
G01 X11.6939 Y22.6723 F50.00
G01 X11.5057 Y22.6371 F50.00
G01 X11.3143 Y22.6371 F50.00
G01 X11.1261 Y22.6723 F50.00
G01 X10.9477 Y22.7415 F50.00
G01 X10.7849 Y22.8422 F50.00
G01 X10.6434 Y22.9712 F50.00
G01 X10.5281 Y23.1239 F50.00
G01 X10.4428 Y23.2953 F50.00
G01 X10.3904 Y23.4794 F50.00
G01 X10.3727 Y23.6700 F50.00
G01 X10.3904 Y23.8606 F50.00
G00 Z1.0000
G00 X9.7200 Y22.7524
G01 F40.00
G01 Z-0.1001
G01 F50.00
G01 X9.7266 Y22.7527 F50.00
G01 X9.7332 Y22.7536 F50.00
G01 X9.7396 Y22.7553 F50.00
G01 X9.7459 Y22.7575 F50.00
G01 X9.7519 Y22.7603 F50.00
G01 X9.7576 Y22.7638 F50.00
G01 X9.7666 Y22.7710 F50.00
G01 X9.7712 Y22.7758 F50.00
G01 X9.7753 Y22.7810 F50.00
G01 X9.7789 Y22.7867 F50.00
G01 X9.7818 Y22.7926 F50.00
G01 X9.7842 Y22.7988 F50.00
G01 X9.7860 Y22.8052 F50.00
G01 X9.7871 Y22.8117 F50.00
G01 X9.7876 Y22.8183 F50.00
G01 X9.7876 Y24.5200 F50.00
G01 X9.7873 Y24.5266 F50.00
G01 X9.7864 Y24.5332 F50.00
G01 X9.7847 Y24.5396 F50.00
G01 X9.7825 Y24.5459 F50.00
G01 X9.7772 Y24.5562 F50.00
G01 X9.7733 Y24.5616 F50.00
G01 X9.7690 Y24.5666 F50.00
G01 X9.7642 Y24.5712 F50.00
G01 X9.7576 Y24.5762 F50.00
G01 X9.7519 Y24.5797 F50.00
G01 X9.7459 Y24.5825 F50.00
G01 X9.7396 Y24.5847 F50.00
G01 X9.7332 Y24.5864 F50.00
G01 X9.7266 Y24.5873 F50.00
G01 X9.7200 Y24.5876 F50.00
G01 X8.0200 Y24.5876 F50.00
G01 X8.0134 Y24.5873 F50.00
G01 X8.0068 Y24.5864 F50.00
G01 X8.0004 Y24.5847 F50.00
G01 X7.9941 Y24.5825 F50.00
G01 X7.9838 Y24.5772 F50.00
G01 X7.9784 Y24.5733 F50.00
G01 X7.9734 Y24.5690 F50.00
G01 X7.9677 Y24.5629 F50.00
G01 X7.9638 Y24.5576 F50.00
G01 X7.9603 Y24.5519 F50.00
G01 X7.9575 Y24.5459 F50.00
G01 X7.9553 Y24.5396 F50.00
G01 X7.9536 Y24.5332 F50.00
G01 X7.9527 Y24.5266 F50.00
G01 X7.9524 Y24.5200 F50.00
G01 X7.9524 Y22.8200 F50.00
G01 X7.9527 Y22.8134 F50.00
G01 X7.9536 Y22.8068 F50.00
G01 X7.9569 Y22.7957 F50.00
G01 X7.9596 Y22.7896 F50.00
G01 X7.9628 Y22.7838 F50.00
G01 X7.9667 Y22.7784 F50.00
G01 X7.9710 Y22.7734 F50.00
G01 X7.9758 Y22.7688 F50.00
G01 X7.9810 Y22.7647 F50.00
G01 X7.9867 Y22.7611 F50.00
G01 X7.9926 Y22.7582 F50.00
G01 X7.9988 Y22.7558 F50.00
G01 X8.0052 Y22.7540 F50.00
G01 X8.0134 Y22.7527 F50.00
G01 X8.0200 Y22.7524 F50.00
G01 X9.7200 Y22.7524 F50.00
G00 Z1.0000
G00 X7.8371 Y24.5380
G01 F40.00
G01 Z-0.1001
G01 F50.00
G01 X7.8478 Y24.5913 F50.00
G01 X7.8882 Y24.6518 F50.00
G01 X7.9487 Y24.6922 F50.00
G01 X8.0020 Y24.7029 F50.00
G01 X9.7380 Y24.7029 F50.00
G01 X9.7913 Y24.6922 F50.00
G01 X9.8518 Y24.6518 F50.00
G01 X9.8922 Y24.5913 F50.00
G01 X9.9029 Y24.5380 F50.00
G01 X9.9029 Y22.8020 F50.00
G01 X9.8922 Y22.7487 F50.00
G01 X9.8518 Y22.6882 F50.00
G01 X9.7913 Y22.6478 F50.00
G01 X9.7380 Y22.6371 F50.00
G01 X8.0020 Y22.6371 F50.00
G01 X7.9487 Y22.6478 F50.00
G01 X7.8882 Y22.6882 F50.00
G01 X7.8478 Y22.7487 F50.00
G01 X7.8371 Y22.8020 F50.00
G01 X7.8371 Y24.5380 F50.00
G00 Z1.0000
G00 X14.7015 Y-3.7185
G01 F40.00
G01 Z-0.1001
G01 F50.00
G01 X14.7046 Y-3.7336 F50.00
G01 X14.7083 Y-3.7488 F50.00
G01 X14.7129 Y-3.7647 F50.00
G01 X14.7176 Y-3.7791 F50.00
G01 X14.7235 Y-3.7948 F50.00
G01 X14.7317 Y-3.8145 F50.00
G01 X14.7380 Y-3.8283 F50.00
G01 X14.7446 Y-3.8415 F50.00
G01 X14.7520 Y-3.8550 F50.00
G01 X14.7598 Y-3.8680 F50.00
G01 X14.7684 Y-3.8812 F50.00
G01 X14.7772 Y-3.8936 F50.00
G01 X14.7865 Y-3.9058 F50.00
G01 X14.7962 Y-3.9175 F50.00
G01 X14.8073 Y-3.9298 F50.00
G01 X14.8178 Y-3.9407 F50.00
G01 X14.8290 Y-3.9514 F50.00
G01 X14.8403 Y-3.9615 F50.00
G01 X14.8525 Y-3.9715 F50.00
G01 X14.8646 Y-3.9807 F50.00
G01 X14.8771 Y-3.9895 F50.00
G01 X14.8899 Y-3.9978 F50.00
G01 X14.9041 Y-4.0062 F50.00
G01 X14.9176 Y-4.0135 F50.00
G01 X14.9314 Y-4.0203 F50.00
G01 X14.9452 Y-4.0265 F50.00
G01 X14.9641 Y-4.0343 F50.00
G01 X14.9801 Y-4.0402 F50.00
G01 X14.9951 Y-4.0450 F50.00
G01 X15.0097 Y-4.0491 F50.00
G01 X15.0252 Y-4.0528 F50.00
G01 X15.0401 Y-4.0558 F50.00
G01 X14.7035 Y-4.0550 F50.00
G01 X14.7015 Y-3.7185 F50.00
G00 Z1.0000
G00 X14.2047 Y-15.8844
G01 F40.00
G01 Z-0.1001
G01 F50.00
G01 X14.1903 Y-15.8897 F50.00
G01 X14.1746 Y-15.8948 F50.00
G01 X14.1599 Y-15.8989 F50.00
G01 X14.1446 Y-15.9025 F50.00
G01 X14.1251 Y-15.9063 F50.00
G01 X14.0438 Y-15.9195 F50.00
G01 X14.0421 Y-15.9197 F50.00
G01 X14.0420 Y-15.9198 F50.00
G01 X14.0418 Y-15.9198 F50.00
G01 X14.0417 Y-15.9198 F50.00
G01 X14.0412 Y-15.9199 F50.00
G01 X14.0380 Y-15.9203 F50.00
G01 X14.0313 Y-15.9210 F50.00
G01 X14.0182 Y-15.9222 F50.00
G01 X13.9928 Y-15.9232 F50.00
G01 X13.9675 Y-15.9227 F50.00
G01 X13.9416 Y-15.9204 F50.00
G01 X13.9163 Y-15.9166 F50.00
G01 X13.8909 Y-15.9112 F50.00
G01 X13.8666 Y-15.9043 F50.00
G01 X13.8412 Y-15.8953 F50.00
G01 X13.7637 Y-15.8621 F50.00
G01 X13.7479 Y-15.8548 F50.00
G01 X13.7350 Y-15.8483 F50.00
G01 X13.7218 Y-15.8410 F50.00
G01 X13.7093 Y-15.8335 F50.00
G01 X13.6959 Y-15.8247 F50.00
G01 X13.7095 Y-15.8438 F50.00
G01 X13.7227 Y-15.8648 F50.00
G01 X13.7343 Y-15.8860 F50.00
G01 X13.7449 Y-15.9085 F50.00
G01 X13.7540 Y-15.9313 F50.00
G01 X13.7615 Y-15.9542 F50.00
G01 X13.7678 Y-15.9779 F50.00
G01 X13.7726 Y-16.0018 F50.00
G01 X13.7749 Y-16.0170 F50.00
G01 X13.7766 Y-16.0320 F50.00
G01 X13.7777 Y-16.0471 F50.00
G01 X13.7783 Y-16.0621 F50.00
G01 X13.7784 Y-16.3081 F50.00
G01 X13.7888 Y-16.2913 F50.00
G01 X13.7997 Y-16.2757 F50.00
G01 X13.8610 Y-16.1930 F50.00
G01 X13.8707 Y-16.1804 F50.00
G01 X13.8857 Y-16.1628 F50.00
G01 X13.9528 Y-16.0888 F50.00
G01 X13.9667 Y-16.0744 F50.00
G01 X13.9792 Y-16.0625 F50.00
G01 X14.0532 Y-15.9954 F50.00
G01 X14.0724 Y-15.9791 F50.00
G01 X14.1680 Y-15.9080 F50.00
G01 X14.1852 Y-15.8963 F50.00
G01 X14.2047 Y-15.8844 F50.00
G01 X13.8342 Y-15.9648 F50.00
G01 X13.8376 Y-15.9811 F50.00
G01 X13.8404 Y-15.9972 F50.00
G01 X13.8427 Y-16.0141 F50.00
G01 X13.8444 Y-16.0307 F50.00
G01 X13.8459 Y-16.0598 F50.00
G01 X13.8460 Y-16.1059 F50.00
G01 X13.9123 Y-16.0332 F50.00
G01 X13.9288 Y-16.0170 F50.00
G01 X13.9585 Y-15.9899 F50.00
G01 X13.9420 Y-15.9885 F50.00
G01 X13.9268 Y-15.9868 F50.00
G01 X13.9113 Y-15.9844 F50.00
G01 X13.8951 Y-15.9815 F50.00
G01 X13.8802 Y-15.9782 F50.00
G01 X13.8643 Y-15.9742 F50.00
G01 X13.8490 Y-15.9697 F50.00
G01 X13.8342 Y-15.9648 F50.00
G00 Z1.0000
G00 X16.1629 Y-16.2194
G01 F40.00
G01 Z-0.1001
G01 F50.00
G01 X16.2180 Y-16.2254 F50.00
G01 X16.2474 Y-16.2271 F50.00
G01 X16.2648 Y-16.2273 F50.00
G01 X16.2826 Y-16.2268 F50.00
G01 X16.3002 Y-16.2257 F50.00
G01 X16.3186 Y-16.2238 F50.00
G01 X16.3027 Y-16.2485 F50.00
G01 X16.2532 Y-16.3311 F50.00
G01 X16.2440 Y-16.3473 F50.00
G01 X16.1914 Y-16.2600 F50.00
G01 X16.1786 Y-16.2408 F50.00
G01 X16.1629 Y-16.2194 F50.00
G01 X16.5292 Y-16.0726 F50.00
G01 X16.4620 Y-16.1467 F50.00
G01 X16.4487 Y-16.1623 F50.00
G01 X16.4383 Y-16.1756 F50.00
G01 X16.3819 Y-16.2517 F50.00
G01 X16.3696 Y-16.2693 F50.00
G01 X16.3604 Y-16.2837 F50.00
G01 X16.3117 Y-16.3650 F50.00
G01 X16.3016 Y-16.3829 F50.00
G01 X16.2931 Y-16.3999 F50.00
G01 X16.2526 Y-16.4855 F50.00
G01 X16.2455 Y-16.5014 F50.00
G01 X16.2082 Y-16.4226 F50.00
G01 X16.1985 Y-16.4037 F50.00
G01 X16.1908 Y-16.3902 F50.00
G01 X16.1397 Y-16.3050 F50.00
G01 X16.1273 Y-16.2856 F50.00
G01 X16.1183 Y-16.2729 F50.00
G01 X16.0592 Y-16.1932 F50.00
G01 X16.0466 Y-16.1772 F50.00
G01 X16.0342 Y-16.1627 F50.00
G01 X15.9675 Y-16.0892 F50.00
G01 X15.9564 Y-16.0775 F50.00
G01 X15.9774 Y-16.0909 F50.00
G01 X15.9902 Y-16.0985 F50.00
G01 X16.0050 Y-16.1066 F50.00
G01 X16.0208 Y-16.1144 F50.00
G01 X16.0367 Y-16.1213 F50.00
G01 X16.0535 Y-16.1278 F50.00
G01 X16.0696 Y-16.1333 F50.00
G01 X16.0874 Y-16.1385 F50.00
G01 X16.1009 Y-16.1418 F50.00
G01 X16.1153 Y-16.1448 F50.00
G01 X16.1297 Y-16.1473 F50.00
G01 X16.1439 Y-16.1493 F50.00
G01 X16.2259 Y-16.1581 F50.00
G01 X16.2452 Y-16.1594 F50.00
G01 X16.2644 Y-16.1597 F50.00
G01 X16.2804 Y-16.1592 F50.00
G01 X16.2956 Y-16.1582 F50.00
G01 X16.3109 Y-16.1566 F50.00
G01 X16.3188 Y-16.1556 F50.00
G01 X16.3234 Y-16.1549 F50.00
G01 X16.3242 Y-16.1547 F50.00
G01 X16.3243 Y-16.1547 F50.00
G01 X16.3245 Y-16.1547 F50.00
G01 X16.3246 Y-16.1547 F50.00
G01 X16.3266 Y-16.1544 F50.00
G01 X16.3416 Y-16.1516 F50.00
G01 X16.3581 Y-16.1479 F50.00
G01 X16.3734 Y-16.1438 F50.00
G01 X16.3880 Y-16.1394 F50.00
G01 X16.4116 Y-16.1307 F50.00
G01 X16.4346 Y-16.1207 F50.00
G01 X16.5074 Y-16.0845 F50.00
G01 X16.5292 Y-16.0726 F50.00
G00 Z1.0000
G00 X16.4341 Y-18.0632
G01 F40.00
G01 Z-0.1001
G01 F50.00
G01 X16.4789 Y-18.1126 F50.00
G01 X16.4983 Y-18.1324 F50.00
G01 X16.5080 Y-18.1415 F50.00
G01 X16.5082 Y-18.1417 F50.00
G01 X16.5084 Y-18.1418 F50.00
G01 X16.5777 Y-18.2047 F50.00
G01 X16.5803 Y-18.2070 F50.00
G01 X16.5926 Y-18.2176 F50.00
G01 X16.6052 Y-18.2277 F50.00
G01 X16.6911 Y-18.2916 F50.00
G01 X16.7133 Y-18.3069 F50.00
G01 X16.7268 Y-18.3153 F50.00
G01 X16.8117 Y-18.3662 F50.00
G01 X16.8294 Y-18.3760 F50.00
G01 X16.8471 Y-18.3849 F50.00
G01 X16.9361 Y-18.4270 F50.00
G01 X16.9604 Y-18.4375 F50.00
G01 X16.9754 Y-18.4431 F50.00
G01 X17.0674 Y-18.4761 F50.00
G01 X17.0842 Y-18.4816 F50.00
G01 X17.1014 Y-18.4865 F50.00
G01 X17.2036 Y-18.5122 F50.00
G01 X17.2204 Y-18.5159 F50.00
G01 X17.2375 Y-18.5190 F50.00
G01 X17.2446 Y-18.5201 F50.00
G01 X17.3372 Y-18.5338 F50.00
G01 X17.3377 Y-18.5339 F50.00
G01 X17.3536 Y-18.5360 F50.00
G01 X17.3784 Y-18.5381 F50.00
G01 X17.4327 Y-18.5408 F50.00
G01 X17.4175 Y-18.5580 F50.00
G01 X17.4034 Y-18.5755 F50.00
G01 X17.3562 Y-18.6386 F50.00
G01 X17.3411 Y-18.6605 F50.00
G01 X17.3275 Y-18.6827 F50.00
G01 X17.3150 Y-18.7058 F50.00
G01 X17.3043 Y-18.7286 F50.00
G01 X17.2944 Y-18.7527 F50.00
G01 X17.2859 Y-18.7776 F50.00
G01 X17.2788 Y-18.8026 F50.00
G01 X17.2730 Y-18.8284 F50.00
G01 X17.2687 Y-18.8541 F50.00
G01 X17.2658 Y-18.8809 F50.00
G01 X17.2602 Y-18.9593 F50.00
G01 X17.2593 Y-18.9822 F50.00
G01 X17.2596 Y-19.0049 F50.00
G01 X16.4341 Y-18.1794 F50.00
G01 X16.4341 Y-18.0632 F50.00
G01 X16.7728 Y-18.4217 F50.00
G01 X16.7925 Y-18.4330 F50.00
G01 X16.8126 Y-18.4434 F50.00
G01 X16.9049 Y-18.4871 F50.00
G01 X16.9209 Y-18.4943 F50.00
G01 X16.9499 Y-18.5059 F50.00
G01 X17.0528 Y-18.5426 F50.00
G01 X17.0705 Y-18.5481 F50.00
G01 X17.0880 Y-18.5529 F50.00
G01 X17.0918 Y-18.5539 F50.00
G01 X17.1827 Y-18.5767 F50.00
G01 X17.1833 Y-18.5768 F50.00
G01 X17.1983 Y-18.5803 F50.00
G01 X17.2290 Y-18.5862 F50.00
G01 X17.3027 Y-18.5971 F50.00
G01 X17.2923 Y-18.6117 F50.00
G01 X17.2831 Y-18.6255 F50.00
G01 X17.2738 Y-18.6404 F50.00
G01 X17.2656 Y-18.6546 F50.00
G01 X17.2574 Y-18.6697 F50.00
G01 X17.2500 Y-18.6846 F50.00
G01 X17.2426 Y-18.7007 F50.00
G01 X17.2360 Y-18.7163 F50.00
G01 X17.2299 Y-18.7320 F50.00
G01 X17.2244 Y-18.7480 F50.00
G01 X17.2189 Y-18.7653 F50.00
G01 X17.2142 Y-18.7821 F50.00
G01 X17.2102 Y-18.7985 F50.00
G01 X17.2066 Y-18.8154 F50.00
G01 X17.2037 Y-18.8320 F50.00
G01 X17.2012 Y-18.8490 F50.00
G01 X16.7728 Y-18.4217 F50.00
G01 X17.0649 Y-18.6168 F50.00
G01 X17.1681 Y-18.6428 F50.00
G01 X17.1925 Y-18.6483 F50.00
G01 X17.1844 Y-18.6651 F50.00
G01 X17.1774 Y-18.6811 F50.00
G01 X17.1706 Y-18.6976 F50.00
G01 X17.1640 Y-18.7154 F50.00
G01 X17.0649 Y-18.6168 F50.00
G01 X17.6066 Y-18.3357 F50.00
G01 X17.6186 Y-18.3348 F50.00
G01 X17.6312 Y-18.3333 F50.00
G01 X17.7366 Y-18.3175 F50.00
G01 X17.7514 Y-18.3142 F50.00
G01 X17.8527 Y-18.2886 F50.00
G01 X17.8675 Y-18.2838 F50.00
G01 X17.9669 Y-18.2480 F50.00
G01 X17.9796 Y-18.2424 F50.00
G01 X18.0669 Y-18.2011 F50.00
G01 X18.0865 Y-18.1906 F50.00
G01 X18.1683 Y-18.1416 F50.00
G01 X18.1788 Y-18.1349 F50.00
G01 X18.1897 Y-18.1273 F50.00
G01 X18.2660 Y-18.0708 F50.00
G01 X18.2769 Y-18.0622 F50.00
G01 X18.2860 Y-18.0543 F50.00
G01 X18.3634 Y-17.9838 F50.00
G01 X18.3740 Y-17.9727 F50.00
G01 X18.4369 Y-17.9033 F50.00
G01 X18.4449 Y-17.8941 F50.00
G01 X18.4536 Y-17.8830 F50.00
G01 X18.5094 Y-17.8077 F50.00
G01 X18.5165 Y-17.7977 F50.00
G01 X18.5241 Y-17.7858 F50.00
G01 X18.5722 Y-17.7054 F50.00
G01 X18.5783 Y-17.6948 F50.00
G01 X18.5846 Y-17.6822 F50.00
G01 X18.6247 Y-17.5975 F50.00
G01 X18.6297 Y-17.5863 F50.00
G01 X18.6348 Y-17.5732 F50.00
G01 X18.6663 Y-17.4850 F50.00
G01 X18.6702 Y-17.4733 F50.00
G01 X18.6740 Y-17.4597 F50.00
G01 X18.6967 Y-17.3689 F50.00
G01 X18.6994 Y-17.3569 F50.00
G01 X18.7019 Y-17.3430 F50.00
G01 X18.7156 Y-17.2504 F50.00
G01 X18.7171 Y-17.2382 F50.00
G01 X18.7182 Y-17.2241 F50.00
G01 X18.7228 Y-17.1306 F50.00
G01 X18.7231 Y-17.1177 F50.00
G01 X18.7230 Y-17.0150 F50.00
G01 X18.7179 Y-16.9113 F50.00
G01 X18.7158 Y-16.8911 F50.00
G01 X18.7012 Y-16.7929 F50.00
G01 X18.6969 Y-16.7717 F50.00
G01 X18.6710 Y-16.6694 F50.00
G01 X18.6665 Y-16.6554 F50.00
G01 X18.6333 Y-16.5629 F50.00
G01 X18.6250 Y-16.5430 F50.00
G01 X18.5793 Y-16.4470 F50.00
G01 X18.5721 Y-16.4344 F50.00
G01 X18.5177 Y-16.3440 F50.00
G01 X18.5093 Y-16.3321 F50.00
G01 X18.4535 Y-16.2569 F50.00
G01 X18.4460 Y-16.2472 F50.00
G01 X18.4368 Y-16.2365 F50.00
G01 X18.3663 Y-16.1591 F50.00
G01 X18.3557 Y-16.1489 F50.00
G01 X18.2854 Y-16.0852 F50.00
G01 X18.2753 Y-16.0765 F50.00
G01 X18.2661 Y-16.0694 F50.00
G01 X18.1902 Y-16.0131 F50.00
G01 X18.1802 Y-16.0060 F50.00
G01 X18.1688 Y-15.9987 F50.00
G01 X18.0874 Y-15.9499 F50.00
G01 X18.0773 Y-15.9442 F50.00
G01 X18.0662 Y-15.9386 F50.00
G01 X17.9796 Y-15.8976 F50.00
G01 X17.9673 Y-15.8922 F50.00
G01 X17.9559 Y-15.8878 F50.00
G01 X17.8661 Y-15.8557 F50.00
G01 X17.8543 Y-15.8518 F50.00
G01 X17.8422 Y-15.8485 F50.00
G01 X17.7510 Y-15.8257 F50.00
G01 X17.7378 Y-15.8227 F50.00
G01 X17.7257 Y-15.8207 F50.00
G01 X17.6322 Y-15.8068 F50.00
G01 X17.6207 Y-15.8054 F50.00
G01 X17.6083 Y-15.8044 F50.00
G01 X17.5127 Y-15.7997 F50.00
G01 X17.4988 Y-15.7994 F50.00
G01 X17.3934 Y-15.8043 F50.00
G01 X17.3814 Y-15.8052 F50.00
G01 X17.3675 Y-15.8068 F50.00
G01 X17.2745 Y-15.8206 F50.00
G01 X17.2622 Y-15.8227 F50.00
G01 X17.2500 Y-15.8254 F50.00
G01 X17.1571 Y-15.8487 F50.00
G01 X17.1438 Y-15.8524 F50.00
G01 X17.0443 Y-15.8877 F50.00
G01 X17.0331 Y-15.8920 F50.00
G01 X17.0204 Y-15.8976 F50.00
G01 X16.9353 Y-15.9379 F50.00
G01 X16.9245 Y-15.9432 F50.00
G01 X16.9135 Y-15.9494 F50.00
G01 X16.8215 Y-16.0048 F50.00
G01 X16.8101 Y-16.0128 F50.00
G01 X16.7332 Y-16.0699 F50.00
G01 X16.7234 Y-16.0776 F50.00
G01 X16.7146 Y-16.0852 F50.00
G01 X16.6446 Y-16.1486 F50.00
G01 X16.6357 Y-16.1571 F50.00
G01 X16.6264 Y-16.1668 F50.00
G01 X16.5627 Y-16.2371 F50.00
G01 X16.5540 Y-16.2472 F50.00
G01 X16.5464 Y-16.2570 F50.00
G01 X16.4893 Y-16.3340 F50.00
G01 X16.4771 Y-16.3523 F50.00
G01 X16.4278 Y-16.4346 F50.00
G01 X16.4217 Y-16.4452 F50.00
G01 X16.4156 Y-16.4572 F50.00
G01 X16.3754 Y-16.5423 F50.00
G01 X16.3703 Y-16.5537 F50.00
G01 X16.3658 Y-16.5653 F50.00
G01 X16.3337 Y-16.6550 F50.00
G01 X16.3298 Y-16.6667 F50.00
G01 X16.3262 Y-16.6796 F50.00
G01 X16.3029 Y-16.7725 F50.00
G01 X16.3002 Y-16.7847 F50.00
G01 X16.2982 Y-16.7968 F50.00
G01 X16.2842 Y-16.8913 F50.00
G01 X16.2821 Y-16.9113 F50.00
G01 X16.2770 Y-17.0150 F50.00
G01 X16.2769 Y-17.1192 F50.00
G01 X16.2818 Y-17.2241 F50.00
G01 X16.2829 Y-17.2386 F50.00
G01 X16.2983 Y-17.3438 F50.00
G01 X16.3023 Y-17.3650 F50.00
G01 X16.3266 Y-17.4620 F50.00
G01 X16.3299 Y-17.4737 F50.00
G01 X16.3337 Y-17.4852 F50.00
G01 X16.3654 Y-17.5738 F50.00
G01 X16.3703 Y-17.5863 F50.00
G01 X16.3753 Y-17.5975 F50.00
G01 X16.4157 Y-17.6830 F50.00
G01 X16.4209 Y-17.6933 F50.00
G01 X16.4270 Y-17.7042 F50.00
G01 X16.4823 Y-17.7960 F50.00
G01 X16.4903 Y-17.8074 F50.00
G01 X16.5465 Y-17.8831 F50.00
G01 X16.5575 Y-17.8969 F50.00
G01 X16.6272 Y-17.9741 F50.00
G01 X16.6357 Y-17.9829 F50.00
G01 X16.6446 Y-17.9914 F50.00
G01 X16.7142 Y-18.0544 F50.00
G01 X16.7234 Y-18.0624 F50.00
G01 X16.7340 Y-18.0708 F50.00
G01 X16.8096 Y-18.1268 F50.00
G01 X16.8195 Y-18.1338 F50.00
G01 X16.8301 Y-18.1406 F50.00
G01 X16.9216 Y-18.1952 F50.00
G01 X16.9353 Y-18.2021 F50.00
G01 X17.0308 Y-18.2470 F50.00
G01 X17.0437 Y-18.2521 F50.00
G01 X17.1323 Y-18.2838 F50.00
G01 X17.1461 Y-18.2883 F50.00
G01 X17.2500 Y-18.3146 F50.00
G01 X17.2622 Y-18.3173 F50.00
G01 X17.2737 Y-18.3192 F50.00
G01 X17.3694 Y-18.3334 F50.00
G01 X17.3814 Y-18.3348 F50.00
G01 X17.3934 Y-18.3357 F50.00
G01 X17.4873 Y-18.3403 F50.00
G01 X17.5008 Y-18.3406 F50.00
G01 X17.5131 Y-18.3403 F50.00
G01 X17.5133 Y-18.3403 F50.00
G01 X17.6066 Y-18.3357 F50.00
G01 X17.6033 Y-18.2681 F50.00
G01 X17.6231 Y-18.2662 F50.00
G01 X17.7168 Y-18.2523 F50.00
G01 X17.7347 Y-18.2487 F50.00
G01 X17.8258 Y-18.2259 F50.00
G01 X17.8362 Y-18.2230 F50.00
G01 X17.9406 Y-18.1856 F50.00
G01 X17.9509 Y-18.1811 F50.00
G01 X18.0362 Y-18.1408 F50.00
G01 X18.0530 Y-18.1318 F50.00
G01 X18.1412 Y-18.0787 F50.00
G01 X18.1501 Y-18.0725 F50.00
G01 X18.2252 Y-18.0168 F50.00
G01 X18.2396 Y-18.0050 F50.00
G01 X18.3164 Y-17.9351 F50.00
G01 X18.3239 Y-17.9273 F50.00
G01 X18.3926 Y-17.8511 F50.00
G01 X18.3993 Y-17.8427 F50.00
G01 X18.4550 Y-17.7676 F50.00
G01 X18.4612 Y-17.7587 F50.00
G01 X18.5143 Y-17.6705 F50.00
G01 X18.5220 Y-17.6563 F50.00
G01 X18.5672 Y-17.5604 F50.00
G01 X18.5711 Y-17.5504 F50.00
G01 X18.6026 Y-17.4624 F50.00
G01 X18.6080 Y-17.4445 F50.00
G01 X18.6329 Y-17.3445 F50.00
G01 X18.6349 Y-17.3335 F50.00
G01 X18.6487 Y-17.2406 F50.00
G01 X18.6504 Y-17.2250 F50.00
G01 X18.6554 Y-17.1233 F50.00
G01 X18.6554 Y-17.0221 F50.00
G01 X18.6506 Y-16.9188 F50.00
G01 X18.6487 Y-16.8998 F50.00
G01 X18.6334 Y-16.7979 F50.00
G01 X18.6311 Y-16.7874 F50.00
G01 X18.6084 Y-16.6967 F50.00
G01 X18.6030 Y-16.6788 F50.00
G01 X18.5678 Y-16.5811 F50.00
G01 X18.5635 Y-16.5712 F50.00
G01 X18.5235 Y-16.4867 F50.00
G01 X18.5170 Y-16.4742 F50.00
G01 X18.4612 Y-16.3813 F50.00
G01 X18.4550 Y-16.3724 F50.00
G01 X18.3993 Y-16.2973 F50.00
G01 X18.3869 Y-16.2823 F50.00
G01 X18.3236 Y-16.2124 F50.00
G01 X18.3158 Y-16.2043 F50.00
G01 X18.2336 Y-16.1299 F50.00
G01 X18.2252 Y-16.1232 F50.00
G01 X18.1497 Y-16.0673 F50.00
G01 X18.1346 Y-16.0571 F50.00
G01 X18.0533 Y-16.0084 F50.00
G01 X18.0358 Y-15.9990 F50.00
G01 X17.9513 Y-15.9590 F50.00
G01 X17.9414 Y-15.9547 F50.00
G01 X17.8362 Y-15.9170 F50.00
G01 X17.8258 Y-15.9141 F50.00
G01 X17.7262 Y-15.8894 F50.00
G01 X17.7156 Y-15.8875 F50.00
G01 X17.6231 Y-15.8738 F50.00
G01 X17.6033 Y-15.8719 F50.00
G01 X17.5087 Y-15.8672 F50.00
G01 X17.4913 Y-15.8672 F50.00
G01 X17.3876 Y-15.8725 F50.00
G01 X17.3769 Y-15.8738 F50.00
G01 X17.2844 Y-15.8875 F50.00
G01 X17.2649 Y-15.8914 F50.00
G01 X17.1730 Y-15.9145 F50.00
G01 X17.1555 Y-15.9198 F50.00
G01 X17.0671 Y-15.9514 F50.00
G01 X17.0571 Y-15.9553 F50.00
G01 X16.9561 Y-16.0031 F50.00
G01 X16.9467 Y-16.0084 F50.00
G01 X16.8661 Y-16.0567 F50.00
G01 X16.8499 Y-16.0675 F50.00
G01 X16.7748 Y-16.1232 F50.00
G01 X16.7664 Y-16.1299 F50.00
G01 X16.6836 Y-16.2049 F50.00
G01 X16.6761 Y-16.2127 F50.00
G01 X16.6131 Y-16.2823 F50.00
G01 X16.6007 Y-16.2973 F50.00
G01 X16.5450 Y-16.3724 F50.00
G01 X16.5388 Y-16.3813 F50.00
G01 X16.4814 Y-16.4771 F50.00
G01 X16.4765 Y-16.4867 F50.00
G01 X16.4364 Y-16.5716 F50.00
G01 X16.4289 Y-16.5896 F50.00
G01 X16.3974 Y-16.6776 F50.00
G01 X16.3941 Y-16.6879 F50.00
G01 X16.3674 Y-16.7938 F50.00
G01 X16.3651 Y-16.8065 F50.00
G01 X16.3513 Y-16.8994 F50.00
G01 X16.3496 Y-16.9150 F50.00
G01 X16.3446 Y-17.0167 F50.00
G01 X16.3446 Y-17.1175 F50.00
G01 X16.3494 Y-17.2208 F50.00
G01 X16.3502 Y-17.2316 F50.00
G01 X16.3651 Y-17.3335 F50.00
G01 X16.3680 Y-17.3486 F50.00
G01 X16.3920 Y-17.4445 F50.00
G01 X16.3974 Y-17.4624 F50.00
G01 X16.4289 Y-17.5504 F50.00
G01 X16.4328 Y-17.5604 F50.00
G01 X16.4767 Y-17.6537 F50.00
G01 X16.4857 Y-17.6705 F50.00
G01 X16.5388 Y-17.7587 F50.00
G01 X16.5450 Y-17.7676 F50.00
G01 X16.6007 Y-17.8427 F50.00
G01 X16.6079 Y-17.8518 F50.00
G01 X16.6769 Y-17.9282 F50.00
G01 X16.6902 Y-17.9414 F50.00
G01 X16.7594 Y-18.0042 F50.00
G01 X16.7676 Y-18.0112 F50.00
G01 X16.8499 Y-18.0725 F50.00
G01 X16.8654 Y-18.0829 F50.00
G01 X16.9546 Y-18.1361 F50.00
G01 X16.9642 Y-18.1410 F50.00
G01 X17.0571 Y-18.1847 F50.00
G01 X17.0671 Y-18.1886 F50.00
G01 X17.1551 Y-18.2201 F50.00
G01 X17.1654 Y-18.2234 F50.00
G01 X17.2653 Y-18.2487 F50.00
G01 X17.2840 Y-18.2524 F50.00
G01 X17.3781 Y-18.2663 F50.00
G01 X17.3967 Y-18.2681 F50.00
G01 X17.4900 Y-18.2727 F50.00
G01 X17.5008 Y-18.2729 F50.00
G01 X17.5100 Y-18.2727 F50.00
G01 X17.6033 Y-18.2681 F50.00
G01 X17.6000 Y-18.2006 F50.00
G01 X17.6132 Y-18.1992 F50.00
G01 X17.7057 Y-18.1855 F50.00
G01 X17.7187 Y-18.1829 F50.00
G01 X17.8166 Y-18.1582 F50.00
G01 X17.9155 Y-18.1228 F50.00
G01 X18.0069 Y-18.0798 F50.00
G01 X18.0186 Y-18.0736 F50.00
G01 X18.1050 Y-18.0215 F50.00
G01 X18.1849 Y-17.9625 F50.00
G01 X18.1951 Y-17.9540 F50.00
G01 X18.2686 Y-17.8873 F50.00
G01 X18.3404 Y-17.8082 F50.00
G01 X18.4049 Y-17.7212 F50.00
G01 X18.4561 Y-17.6361 F50.00
G01 X18.4620 Y-17.6251 F50.00
G01 X18.5047 Y-17.5345 F50.00
G01 X18.5389 Y-17.4396 F50.00
G01 X18.5427 Y-17.4269 F50.00
G01 X18.5667 Y-17.3305 F50.00
G01 X18.5817 Y-17.2307 F50.00
G01 X18.5829 Y-17.2200 F50.00
G01 X18.5877 Y-17.1217 F50.00
G01 X18.5878 Y-17.0225 F50.00
G01 X18.5825 Y-16.9151 F50.00
G01 X18.5680 Y-16.8168 F50.00
G01 X18.5654 Y-16.8038 F50.00
G01 X18.5412 Y-16.7075 F50.00
G01 X18.5074 Y-16.6124 F50.00
G01 X18.5023 Y-16.6001 F50.00
G01 X18.4597 Y-16.5104 F50.00
G01 X18.4080 Y-16.4238 F50.00
G01 X18.4006 Y-16.4127 F50.00
G01 X18.3404 Y-16.3318 F50.00
G01 X18.2698 Y-16.2539 F50.00
G01 X18.1951 Y-16.1860 F50.00
G01 X18.1849 Y-16.1775 F50.00
G01 X18.1037 Y-16.1176 F50.00
G01 X18.0121 Y-16.0628 F50.00
G01 X17.9170 Y-16.0178 F50.00
G01 X17.8221 Y-15.9836 F50.00
G01 X17.8094 Y-15.9798 F50.00
G01 X17.7114 Y-15.9554 F50.00
G01 X17.6074 Y-15.9400 F50.00
G01 X17.5066 Y-15.9349 F50.00
G01 X17.4934 Y-15.9349 F50.00
G01 X17.4000 Y-15.9394 F50.00
G01 X17.3868 Y-15.9408 F50.00
G01 X17.2870 Y-15.9558 F50.00
G01 X17.1850 Y-15.9813 F50.00
G01 X17.0845 Y-16.0172 F50.00
G01 X16.9931 Y-16.0602 F50.00
G01 X16.9814 Y-16.0664 F50.00
G01 X16.9013 Y-16.1145 F50.00
G01 X16.8902 Y-16.1219 F50.00
G01 X16.8093 Y-16.1821 F50.00
G01 X16.7356 Y-16.2487 F50.00
G01 X16.7262 Y-16.2581 F50.00
G01 X16.6635 Y-16.3274 F50.00
G01 X16.6550 Y-16.3376 F50.00
G01 X16.5951 Y-16.4188 F50.00
G01 X16.5410 Y-16.5090 F50.00
G01 X16.4977 Y-16.6001 F50.00
G01 X16.4926 Y-16.6124 F50.00
G01 X16.4588 Y-16.7075 F50.00
G01 X16.4333 Y-16.8095 F50.00
G01 X16.4183 Y-16.9093 F50.00
G01 X16.4171 Y-16.9200 F50.00
G01 X16.4123 Y-17.0183 F50.00
G01 X16.4122 Y-17.1175 F50.00
G01 X16.4175 Y-17.2249 F50.00
G01 X16.4320 Y-17.3232 F50.00
G01 X16.4340 Y-17.3338 F50.00
G01 X16.4573 Y-17.4269 F50.00
G01 X16.4611 Y-17.4396 F50.00
G01 X16.4953 Y-17.5345 F50.00
G01 X16.5377 Y-17.6244 F50.00
G01 X16.5439 Y-17.6361 F50.00
G01 X16.5951 Y-17.7212 F50.00
G01 X16.6596 Y-17.8082 F50.00
G01 X16.7262 Y-17.8819 F50.00
G01 X16.7356 Y-17.8913 F50.00
G01 X16.8106 Y-17.9589 F50.00
G01 X16.8902 Y-18.0181 F50.00
G01 X16.9013 Y-18.0255 F50.00
G01 X16.9865 Y-18.0765 F50.00
G01 X17.0830 Y-18.1222 F50.00
G01 X17.1850 Y-18.1587 F50.00
G01 X17.2813 Y-18.1829 F50.00
G01 X17.2943 Y-18.1855 F50.00
G01 X17.3926 Y-18.2000 F50.00
G01 X17.4934 Y-18.2051 F50.00
G01 X17.5066 Y-18.2051 F50.00
G01 X17.6000 Y-18.2006 F50.00
G01 X17.5967 Y-18.1330 F50.00
G01 X17.6033 Y-18.1323 F50.00
G01 X17.6957 Y-18.1186 F50.00
G01 X17.7023 Y-18.1173 F50.00
G01 X17.7961 Y-18.0937 F50.00
G01 X17.8904 Y-18.0600 F50.00
G01 X17.9779 Y-18.0187 F50.00
G01 X17.9838 Y-18.0156 F50.00
G01 X18.0668 Y-17.9657 F50.00
G01 X18.1446 Y-17.9081 F50.00
G01 X18.1497 Y-17.9039 F50.00
G01 X18.2214 Y-17.8389 F50.00
G01 X18.2886 Y-17.7647 F50.00
G01 X18.3482 Y-17.6843 F50.00
G01 X18.3981 Y-17.6013 F50.00
G01 X18.4012 Y-17.5954 F50.00
G01 X18.4425 Y-17.5079 F50.00
G01 X18.4752 Y-17.4168 F50.00
G01 X18.4771 Y-17.4104 F50.00
G01 X18.5005 Y-17.3165 F50.00
G01 X18.5154 Y-17.2158 F50.00
G01 X18.5201 Y-17.1192 F50.00
G01 X18.5201 Y-17.0225 F50.00
G01 X18.5152 Y-16.9225 F50.00
G01 X18.5011 Y-16.8268 F50.00
G01 X18.4998 Y-16.8202 F50.00
G01 X18.4762 Y-16.7264 F50.00
G01 X18.4437 Y-16.6352 F50.00
G01 X18.4412 Y-16.6291 F50.00
G01 X18.4005 Y-16.5431 F50.00
G01 X18.3500 Y-16.4585 F50.00
G01 X18.3463 Y-16.4530 F50.00
G01 X18.2886 Y-16.3753 F50.00
G01 X18.2214 Y-16.3011 F50.00
G01 X18.1472 Y-16.2339 F50.00
G01 X18.0695 Y-16.1762 F50.00
G01 X18.0640 Y-16.1725 F50.00
G01 X17.9838 Y-16.1244 F50.00
G01 X17.9779 Y-16.1213 F50.00
G01 X17.8904 Y-16.0800 F50.00
G01 X17.7961 Y-16.0463 F50.00
G01 X17.6990 Y-16.0220 F50.00
G01 X17.6033 Y-16.0077 F50.00
G01 X17.5967 Y-16.0070 F50.00
G01 X17.5033 Y-16.0024 F50.00
G01 X17.4967 Y-16.0024 F50.00
G01 X17.4000 Y-16.0073 F50.00
G01 X17.3043 Y-16.0214 F50.00
G01 X17.2977 Y-16.0227 F50.00
G01 X17.2071 Y-16.0454 F50.00
G01 X17.2007 Y-16.0473 F50.00
G01 X17.1096 Y-16.0800 F50.00
G01 X17.0191 Y-16.1228 F50.00
G01 X16.9360 Y-16.1725 F50.00
G01 X16.9305 Y-16.1762 F50.00
G01 X16.8528 Y-16.2339 F50.00
G01 X16.7786 Y-16.3011 F50.00
G01 X16.7136 Y-16.3728 F50.00
G01 X16.7094 Y-16.3779 F50.00
G01 X16.6518 Y-16.4557 F50.00
G01 X16.6003 Y-16.5416 F50.00
G01 X16.5575 Y-16.6321 F50.00
G01 X16.5248 Y-16.7232 F50.00
G01 X16.5229 Y-16.7296 F50.00
G01 X16.4991 Y-16.8251 F50.00
G01 X16.4846 Y-16.9242 F50.00
G01 X16.4799 Y-17.0208 F50.00
G01 X16.4799 Y-17.1175 F50.00
G01 X16.4848 Y-17.2175 F50.00
G01 X16.4998 Y-17.3181 F50.00
G01 X16.5229 Y-17.4104 F50.00
G01 X16.5248 Y-17.4168 F50.00
G01 X16.5575 Y-17.5079 F50.00
G01 X16.5988 Y-17.5954 F50.00
G01 X16.6019 Y-17.6013 F50.00
G01 X16.6518 Y-17.6843 F50.00
G01 X16.7114 Y-17.7647 F50.00
G01 X16.7764 Y-17.8365 F50.00
G01 X16.7810 Y-17.8411 F50.00
G01 X16.8528 Y-17.9061 F50.00
G01 X16.9305 Y-17.9638 F50.00
G01 X16.9360 Y-17.9675 F50.00
G01 X17.0191 Y-18.0172 F50.00
G01 X17.1096 Y-18.0600 F50.00
G01 X17.2039 Y-18.0937 F50.00
G01 X17.2977 Y-18.1173 F50.00
G01 X17.3043 Y-18.1186 F50.00
G01 X17.4000 Y-18.1327 F50.00
G01 X17.4967 Y-18.1376 F50.00
G01 X17.5033 Y-18.1376 F50.00
G01 X17.5967 Y-18.1330 F50.00
G01 X17.4190 Y-19.2600 F50.00
G01 X16.3664 Y-18.2074 F50.00
G01 X16.3664 Y-17.8659 F50.00
G01 X16.3804 Y-17.8863 F50.00
G01 X16.4386 Y-17.9648 F50.00
G01 X16.4505 Y-17.9799 F50.00
G01 X16.4621 Y-17.9934 F50.00
G01 X16.5267 Y-18.0647 F50.00
G01 X16.5407 Y-18.0793 F50.00
G01 X16.5539 Y-18.0917 F50.00
G01 X16.6239 Y-18.1552 F50.00
G01 X16.6359 Y-18.1656 F50.00
G01 X16.6527 Y-18.1789 F50.00
G01 X16.7312 Y-18.2371 F50.00
G01 X16.7461 Y-18.2475 F50.00
G01 X16.7607 Y-18.2568 F50.00
G01 X16.8436 Y-18.3064 F50.00
G01 X16.8605 Y-18.3159 F50.00
G01 X16.8765 Y-18.3240 F50.00
G01 X16.9684 Y-18.3674 F50.00
G01 X16.9818 Y-18.3732 F50.00
G01 X16.9952 Y-18.3784 F50.00
G01 X17.0872 Y-18.4113 F50.00
G01 X17.1041 Y-18.4169 F50.00
G01 X17.1214 Y-18.4218 F50.00
G01 X17.2167 Y-18.4457 F50.00
G01 X17.2359 Y-18.4500 F50.00
G01 X17.2535 Y-18.4530 F50.00
G01 X17.3471 Y-18.4669 F50.00
G01 X17.3501 Y-18.4674 F50.00
G01 X17.3511 Y-18.4675 F50.00
G01 X17.3528 Y-18.4677 F50.00
G01 X17.3529 Y-18.4677 F50.00
G01 X17.3538 Y-18.4679 F50.00
G01 X17.3698 Y-18.4696 F50.00
G01 X17.3861 Y-18.4708 F50.00
G01 X17.4827 Y-18.4755 F50.00
G01 X17.5071 Y-18.4758 F50.00
G01 X17.5199 Y-18.4754 F50.00
G01 X17.6133 Y-18.4708 F50.00
G01 X17.6137 Y-18.4708 F50.00
G01 X17.6250 Y-18.4701 F50.00
G01 X17.6463 Y-18.4678 F50.00
G01 X17.6875 Y-18.4618 F50.00
G01 X17.6171 Y-18.4912 F50.00
G01 X17.6026 Y-18.4979 F50.00
G01 X17.5891 Y-18.5047 F50.00
G01 X17.5713 Y-18.5148 F50.00
G01 X17.5531 Y-18.5263 F50.00
G01 X17.5364 Y-18.5382 F50.00
G01 X17.5325 Y-18.5411 F50.00
G01 X17.5324 Y-18.5412 F50.00
G01 X17.5318 Y-18.5417 F50.00
G01 X17.5315 Y-18.5419 F50.00
G01 X17.5309 Y-18.5424 F50.00
G01 X17.5285 Y-18.5442 F50.00
G01 X17.5203 Y-18.5509 F50.00
G01 X17.5061 Y-18.5633 F50.00
G01 X17.4920 Y-18.5768 F50.00
G01 X17.4786 Y-18.5909 F50.00
G01 X17.4661 Y-18.6053 F50.00
G01 X17.4555 Y-18.6188 F50.00
G01 X17.4105 Y-18.6790 F50.00
G01 X17.4005 Y-18.6932 F50.00
G01 X17.3912 Y-18.7077 F50.00
G01 X17.3818 Y-18.7241 F50.00
G01 X17.3729 Y-18.7412 F50.00
G01 X17.3654 Y-18.7576 F50.00
G01 X17.3581 Y-18.7755 F50.00
G01 X17.3518 Y-18.7934 F50.00
G01 X17.3463 Y-18.8118 F50.00
G01 X17.3419 Y-18.8293 F50.00
G01 X17.3381 Y-18.8483 F50.00
G01 X17.3354 Y-18.8662 F50.00
G01 X17.3335 Y-18.8838 F50.00
G01 X17.3272 Y-18.9740 F50.00
G01 X17.3270 Y-18.9929 F50.00
G01 X17.3276 Y-19.0111 F50.00
G01 X17.3289 Y-19.0290 F50.00
G01 X17.3312 Y-19.0473 F50.00
G01 X17.3356 Y-19.0720 F50.00
G01 X17.3415 Y-19.0963 F50.00
G01 X17.3489 Y-19.1204 F50.00
G01 X17.3578 Y-19.1438 F50.00
G01 X17.3656 Y-19.1615 F50.00
G01 X17.3736 Y-19.1777 F50.00
G01 X17.4106 Y-19.2456 F50.00
G01 X17.4190 Y-19.2600 F50.00
G01 X17.8500 Y-19.5736 F50.00
G01 X17.7326 Y-19.5736 F50.00
G01 X17.6594 Y-19.5005 F50.00
G01 X17.6772 Y-19.5113 F50.00
G01 X17.6956 Y-19.5213 F50.00
G01 X17.7152 Y-19.5307 F50.00
G01 X17.7346 Y-19.5387 F50.00
G01 X17.7487 Y-19.5438 F50.00
G01 X17.7629 Y-19.5484 F50.00
G01 X17.8339 Y-19.5693 F50.00
G01 X17.8500 Y-19.5736 F50.00
G00 Z1.0000
G00 X16.7945 Y-22.3396
G01 F40.00
G01 Z-0.1001
G01 F50.00
G01 X16.8590 Y-22.3557 F50.00
G01 X16.8793 Y-22.3601 F50.00
G01 X16.8948 Y-22.3627 F50.00
G01 X16.9984 Y-22.3780 F50.00
G01 X17.0139 Y-22.3798 F50.00
G01 X17.0291 Y-22.3809 F50.00
G01 X17.1430 Y-22.3863 F50.00
G01 X19.4869 Y-22.3864 F50.00
G01 X19.4116 Y-22.4058 F50.00
G01 X19.3901 Y-22.4127 F50.00
G01 X19.3696 Y-22.4205 F50.00
G01 X19.3464 Y-22.4310 F50.00
G01 X19.3224 Y-22.4438 F50.00
G01 X19.3002 Y-22.4575 F50.00
G01 X19.2792 Y-22.4724 F50.00
G01 X19.2603 Y-22.4877 F50.00
G01 X19.2420 Y-22.5043 F50.00
G01 X19.1853 Y-22.5610 F50.00
G01 X19.1755 Y-22.5714 F50.00
G01 X19.1657 Y-22.5825 F50.00
G01 X19.1481 Y-22.6048 F50.00
G01 X19.1327 Y-22.6274 F50.00
G01 X19.1250 Y-22.6399 F50.00
G01 X19.1182 Y-22.6520 F50.00
G01 X19.1059 Y-22.6768 F50.00
G01 X19.0992 Y-22.6923 F50.00
G01 X19.0938 Y-22.7065 F50.00
G01 X19.0886 Y-22.7215 F50.00
G01 X19.0842 Y-22.7364 F50.00
G01 X19.0790 Y-22.7572 F50.00
G01 X19.0623 Y-22.8341 F50.00
G01 X19.0582 Y-22.8586 F50.00
G01 X19.0556 Y-22.8836 F50.00
G01 X19.0545 Y-22.9087 F50.00
G01 X19.0550 Y-22.9331 F50.00
G01 X19.0570 Y-22.9586 F50.00
G01 X19.0606 Y-22.9836 F50.00
G01 X19.0658 Y-23.0086 F50.00
G01 X19.0725 Y-23.0329 F50.00
G01 X19.0796 Y-23.0538 F50.00
G01 X19.1083 Y-23.1304 F50.00
G01 X19.1183 Y-23.1533 F50.00
G01 X19.1294 Y-23.1749 F50.00
G01 X19.0907 Y-23.1322 F50.00
G01 X19.0753 Y-23.1164 F50.00
G01 X18.9837 Y-23.0332 F50.00
G01 X18.9722 Y-23.0235 F50.00
G01 X18.9604 Y-23.0142 F50.00
G01 X18.8694 Y-22.9468 F50.00
G01 X18.8571 Y-22.9383 F50.00
G01 X18.8442 Y-22.9301 F50.00
G01 X18.7532 Y-22.8755 F50.00
G01 X18.7392 Y-22.8676 F50.00
G01 X18.7196 Y-22.8576 F50.00
G01 X18.6182 Y-22.8097 F50.00
G01 X18.6044 Y-22.8038 F50.00
G01 X18.5901 Y-22.7983 F50.00
G01 X18.4906 Y-22.7627 F50.00
G01 X18.4746 Y-22.7574 F50.00
G01 X18.4539 Y-22.7516 F50.00
G01 X18.3529 Y-22.7263 F50.00
G01 X18.3372 Y-22.7227 F50.00
G01 X18.3149 Y-22.7187 F50.00
G01 X18.2114 Y-22.7034 F50.00
G01 X18.1945 Y-22.7013 F50.00
G01 X18.1739 Y-22.6997 F50.00
G01 X18.0609 Y-22.6943 F50.00
G01 X18.0467 Y-22.6941 F50.00
G01 X18.0316 Y-22.6945 F50.00
G01 X17.9261 Y-22.6997 F50.00
G01 X17.9093 Y-22.7009 F50.00
G01 X17.8877 Y-22.7035 F50.00
G01 X17.7846 Y-22.7188 F50.00
G01 X17.7677 Y-22.7217 F50.00
G01 X17.7467 Y-22.7264 F50.00
G01 X17.6456 Y-22.7517 F50.00
G01 X17.6283 Y-22.7565 F50.00
G01 X17.6087 Y-22.7630 F50.00
G01 X17.5105 Y-22.7981 F50.00
G01 X17.4945 Y-22.8043 F50.00
G01 X17.4748 Y-22.8129 F50.00
G01 X17.3806 Y-22.8575 F50.00
G01 X17.3645 Y-22.8656 F50.00
G01 X17.3464 Y-22.8758 F50.00
G01 X17.2570 Y-22.9294 F50.00
G01 X17.2418 Y-22.9390 F50.00
G01 X17.2249 Y-22.9509 F50.00
G01 X17.1411 Y-23.0130 F50.00
G01 X17.1270 Y-23.0241 F50.00
G01 X17.1113 Y-23.0376 F50.00
G01 X17.0341 Y-23.1076 F50.00
G01 X17.0207 Y-23.1204 F50.00
G01 X17.0348 Y-23.0999 F50.00
G01 X17.0471 Y-23.0799 F50.00
G01 X17.0582 Y-23.0593 F50.00
G01 X17.0680 Y-23.0381 F50.00
G01 X17.0764 Y-23.0170 F50.00
G01 X17.0840 Y-22.9942 F50.00
G01 X17.0902 Y-22.9713 F50.00
G01 X17.0949 Y-22.9484 F50.00
G01 X17.1090 Y-22.8584 F50.00
G01 X17.1112 Y-22.8345 F50.00
G01 X17.1121 Y-22.8098 F50.00
G01 X17.1118 Y-22.7947 F50.00
G01 X17.1111 Y-22.7804 F50.00
G01 X17.1082 Y-22.7523 F50.00
G01 X17.1059 Y-22.7380 F50.00
G01 X17.1031 Y-22.7235 F50.00
G01 X17.0998 Y-22.7096 F50.00
G01 X17.0960 Y-22.6954 F50.00
G01 X17.0892 Y-22.6741 F50.00
G01 X17.0809 Y-22.6525 F50.00
G01 X17.0489 Y-22.5796 F50.00
G01 X17.0400 Y-22.5608 F50.00
G01 X17.0285 Y-22.5397 F50.00
G01 X17.0162 Y-22.5201 F50.00
G01 X17.0022 Y-22.5003 F50.00
G01 X16.9876 Y-22.4819 F50.00
G01 X16.9722 Y-22.4648 F50.00
G01 X16.9551 Y-22.4479 F50.00
G01 X16.9375 Y-22.4324 F50.00
G01 X16.9194 Y-22.4182 F50.00
G01 X16.9046 Y-22.4077 F50.00
G01 X16.8385 Y-22.3636 F50.00
G01 X16.8170 Y-22.3510 F50.00
G01 X16.7945 Y-22.3396 F50.00
G01 X17.0486 Y-22.4496 F50.00
G01 X17.1273 Y-22.4535 F50.00
G01 X17.1499 Y-22.4541 F50.00
G01 X19.1967 Y-22.4541 F50.00
G01 X19.1308 Y-22.5201 F50.00
G01 X19.1141 Y-22.5388 F50.00
G01 X19.0986 Y-22.5581 F50.00
G01 X19.0814 Y-22.5822 F50.00
G01 X19.0727 Y-22.5956 F50.00
G01 X19.0649 Y-22.6087 F50.00
G01 X19.0508 Y-22.6350 F50.00
G01 X19.0384 Y-22.6622 F50.00
G01 X19.0322 Y-22.6778 F50.00
G01 X19.0269 Y-22.6926 F50.00
G01 X19.0219 Y-22.7084 F50.00
G01 X19.0172 Y-22.7250 F50.00
G01 X19.0126 Y-22.7443 F50.00
G01 X18.9973 Y-22.8144 F50.00
G01 X18.9938 Y-22.8323 F50.00
G01 X18.9897 Y-22.8614 F50.00
G01 X18.9874 Y-22.8908 F50.00
G01 X18.9869 Y-22.9211 F50.00
G01 X18.9883 Y-22.9507 F50.00
G01 X18.9129 Y-22.8948 F50.00
G01 X18.8928 Y-22.8808 F50.00
G01 X18.8775 Y-22.8712 F50.00
G01 X18.7880 Y-22.8175 F50.00
G01 X18.7664 Y-22.8054 F50.00
G01 X18.7475 Y-22.7959 F50.00
G01 X18.6530 Y-22.7512 F50.00
G01 X18.6352 Y-22.7433 F50.00
G01 X18.6131 Y-22.7347 F50.00
G01 X18.5111 Y-22.6982 F50.00
G01 X18.4905 Y-22.6915 F50.00
G01 X18.4700 Y-22.6859 F50.00
G01 X18.3635 Y-22.6593 F50.00
G01 X18.3459 Y-22.6555 F50.00
G01 X18.3287 Y-22.6524 F50.00
G01 X18.2207 Y-22.6364 F50.00
G01 X18.1981 Y-22.6337 F50.00
G01 X18.1768 Y-22.6321 F50.00
G01 X18.0606 Y-22.6266 F50.00
G01 X18.0305 Y-22.6269 F50.00
G01 X17.9219 Y-22.6322 F50.00
G01 X17.8997 Y-22.6339 F50.00
G01 X17.8782 Y-22.6365 F50.00
G01 X17.7737 Y-22.6520 F50.00
G01 X17.7491 Y-22.6565 F50.00
G01 X17.7314 Y-22.6605 F50.00
G01 X17.6294 Y-22.6860 F50.00
G01 X17.6032 Y-22.6935 F50.00
G01 X17.5865 Y-22.6991 F50.00
G01 X17.4885 Y-22.7341 F50.00
G01 X17.4683 Y-22.7419 F50.00
G01 X17.4471 Y-22.7512 F50.00
G01 X17.3453 Y-22.7994 F50.00
G01 X17.3300 Y-22.8073 F50.00
G01 X17.3154 Y-22.8155 F50.00
G01 X17.2190 Y-22.8733 F50.00
G01 X17.1960 Y-22.8884 F50.00
G01 X17.1700 Y-22.9074 F50.00
G01 X17.1753 Y-22.8729 F50.00
G01 X17.1780 Y-22.8491 F50.00
G01 X17.1795 Y-22.8223 F50.00
G01 X17.1796 Y-22.7958 F50.00
G01 X17.1780 Y-22.7684 F50.00
G01 X17.1748 Y-22.7406 F50.00
G01 X17.1702 Y-22.7141 F50.00
G01 X17.1640 Y-22.6874 F50.00
G01 X17.1556 Y-22.6594 F50.00
G01 X17.1457 Y-22.6321 F50.00
G01 X17.1114 Y-22.5537 F50.00
G01 X17.1044 Y-22.5385 F50.00
G01 X17.0923 Y-22.5151 F50.00
G01 X17.0791 Y-22.4927 F50.00
G01 X17.0644 Y-22.4707 F50.00
G01 X17.0486 Y-22.4496 F50.00
G01 X17.1712 Y-22.5217 F50.00
G01 X19.0413 Y-22.5217 F50.00
G01 X19.0305 Y-22.5367 F50.00
G01 X19.0200 Y-22.5524 F50.00
G01 X19.0107 Y-22.5674 F50.00
G01 X19.0011 Y-22.5842 F50.00
G01 X18.9922 Y-22.6009 F50.00
G01 X18.9841 Y-22.6178 F50.00
G01 X18.9765 Y-22.6351 F50.00
G01 X18.9697 Y-22.6519 F50.00
G01 X18.9591 Y-22.6822 F50.00
G01 X18.9504 Y-22.7132 F50.00
G01 X18.9314 Y-22.7992 F50.00
G01 X18.9269 Y-22.8223 F50.00
G01 X18.9123 Y-22.8132 F50.00
G01 X18.8227 Y-22.7595 F50.00
G01 X18.8022 Y-22.7478 F50.00
G01 X18.7786 Y-22.7358 F50.00
G01 X18.6824 Y-22.6903 F50.00
G01 X18.6609 Y-22.6808 F50.00
G01 X18.6390 Y-22.6721 F50.00
G01 X18.5355 Y-22.6351 F50.00
G01 X18.5133 Y-22.6277 F50.00
G01 X18.4885 Y-22.6208 F50.00
G01 X18.3817 Y-22.5941 F50.00
G01 X18.3707 Y-22.5915 F50.00
G01 X18.3647 Y-22.5902 F50.00
G01 X18.3621 Y-22.5897 F50.00
G01 X18.3614 Y-22.5896 F50.00
G01 X18.3596 Y-22.5892 F50.00
G01 X18.3589 Y-22.5891 F50.00
G01 X18.3361 Y-22.5851 F50.00
G01 X18.2300 Y-22.5694 F50.00
G01 X18.2044 Y-22.5663 F50.00
G01 X18.1811 Y-22.5646 F50.00
G01 X18.0647 Y-22.5590 F50.00
G01 X18.0463 Y-22.5588 F50.00
G01 X18.0286 Y-22.5592 F50.00
G01 X17.9191 Y-22.5646 F50.00
G01 X17.8962 Y-22.5663 F50.00
G01 X17.8726 Y-22.5690 F50.00
G01 X17.7637 Y-22.5851 F50.00
G01 X17.7511 Y-22.5872 F50.00
G01 X17.7446 Y-22.5884 F50.00
G01 X17.7417 Y-22.5890 F50.00
G01 X17.7405 Y-22.5892 F50.00
G01 X17.7388 Y-22.5895 F50.00
G01 X17.7386 Y-22.5896 F50.00
G01 X17.7152 Y-22.5948 F50.00
G01 X17.6051 Y-22.6225 F50.00
G01 X17.5845 Y-22.6284 F50.00
G01 X17.5644 Y-22.6351 F50.00
G01 X17.4619 Y-22.6718 F50.00
G01 X17.4329 Y-22.6834 F50.00
G01 X17.4170 Y-22.6906 F50.00
G01 X17.3099 Y-22.7415 F50.00
G01 X17.2850 Y-22.7549 F50.00
G01 X17.2465 Y-22.7779 F50.00
G01 X17.2439 Y-22.7471 F50.00
G01 X17.2395 Y-22.7162 F50.00
G01 X17.2335 Y-22.6868 F50.00
G01 X17.2255 Y-22.6560 F50.00
G01 X17.2172 Y-22.6304 F50.00
G01 X17.2079 Y-22.6055 F50.00
G01 X17.1712 Y-22.5217 F50.00
G01 X17.2742 Y-22.5894 F50.00
G01 X17.4915 Y-22.5894 F50.00
G01 X17.4431 Y-22.6067 F50.00
G01 X17.4428 Y-22.6068 F50.00
G01 X17.4353 Y-22.6095 F50.00
G01 X17.4095 Y-22.6198 F50.00
G01 X17.3896 Y-22.6287 F50.00
G01 X17.2994 Y-22.6714 F50.00
G01 X17.2943 Y-22.6509 F50.00
G01 X17.2882 Y-22.6298 F50.00
G01 X17.2816 Y-22.6094 F50.00
G01 X17.2742 Y-22.5894 F50.00
G01 X18.6085 Y-22.5894 F50.00
G01 X18.9227 Y-22.5894 F50.00
G01 X18.9096 Y-22.6199 F50.00
G01 X18.8980 Y-22.6515 F50.00
G01 X18.8883 Y-22.6833 F50.00
G01 X18.8804 Y-22.7152 F50.00
G01 X18.8467 Y-22.6952 F50.00
G01 X18.8209 Y-22.6813 F50.00
G01 X18.7078 Y-22.6275 F50.00
G01 X18.6890 Y-22.6192 F50.00
G01 X18.6699 Y-22.6115 F50.00
G01 X18.6085 Y-22.5894 F50.00
G00 Z1.0000
G00 X19.1625 Y-24.0438
G01 F40.00
G01 Z-0.1001
G01 F50.00
G01 X19.1619 Y-24.0372 F50.00
G01 X19.1462 Y-23.9320 F50.00
G01 X19.1204 Y-23.8288 F50.00
G01 X19.1185 Y-23.8224 F50.00
G01 X19.0826 Y-23.7223 F50.00
G01 X19.0372 Y-23.6261 F50.00
G01 X19.0340 Y-23.6203 F50.00
G01 X18.9793 Y-23.5291 F50.00
G01 X18.9160 Y-23.4436 F50.00
G01 X18.9118 Y-23.4385 F50.00
G01 X18.8403 Y-23.3597 F50.00
G01 X18.7615 Y-23.2882 F50.00
G01 X18.7564 Y-23.2840 F50.00
G01 X18.6709 Y-23.2207 F50.00
G01 X18.5797 Y-23.1660 F50.00
G01 X18.5739 Y-23.1628 F50.00
G01 X18.4777 Y-23.1174 F50.00
G01 X18.3776 Y-23.0815 F50.00
G01 X18.3712 Y-23.0796 F50.00
G01 X18.2680 Y-23.0538 F50.00
G01 X18.1628 Y-23.0381 F50.00
G01 X18.1562 Y-23.0375 F50.00
G01 X18.0500 Y-23.0324 F50.00
G01 X17.9438 Y-23.0375 F50.00
G01 X17.9372 Y-23.0381 F50.00
G01 X17.8320 Y-23.0538 F50.00
G01 X17.7288 Y-23.0796 F50.00
G01 X17.7224 Y-23.0815 F50.00
G01 X17.6223 Y-23.1174 F50.00
G01 X17.5261 Y-23.1628 F50.00
G01 X17.5203 Y-23.1660 F50.00
G01 X17.4291 Y-23.2207 F50.00
G01 X17.3436 Y-23.2840 F50.00
G01 X17.3385 Y-23.2882 F50.00
G01 X17.2597 Y-23.3597 F50.00
G01 X17.1882 Y-23.4385 F50.00
G01 X17.1840 Y-23.4436 F50.00
G01 X17.1207 Y-23.5291 F50.00
G01 X17.0660 Y-23.6203 F50.00
G01 X17.0628 Y-23.6261 F50.00
G01 X17.0174 Y-23.7223 F50.00
G01 X16.9815 Y-23.8224 F50.00
G01 X16.9796 Y-23.8288 F50.00
G01 X16.9538 Y-23.9320 F50.00
G01 X16.9381 Y-24.0372 F50.00
G01 X16.9375 Y-24.0438 F50.00
G01 X16.9324 Y-24.1500 F50.00
G01 X16.9375 Y-24.2562 F50.00
G01 X16.9381 Y-24.2628 F50.00
G01 X16.9538 Y-24.3680 F50.00
G01 X16.9796 Y-24.4712 F50.00
G01 X16.9815 Y-24.4776 F50.00
G01 X17.0174 Y-24.5777 F50.00
G01 X17.0628 Y-24.6739 F50.00
G01 X17.0660 Y-24.6797 F50.00
G01 X17.1207 Y-24.7709 F50.00
G01 X17.1840 Y-24.8564 F50.00
G01 X17.1882 Y-24.8615 F50.00
G01 X17.2597 Y-24.9403 F50.00
G01 X17.3385 Y-25.0118 F50.00
G01 X17.3436 Y-25.0160 F50.00
