(G-CODE GENERATED BY FLATCAM v8.994 - www.flatcam.org - Version Date: 2020/11/7)

(Name: CeilingFanControl-PTH.drl_cnc)
(Type: G-code from Geometry)
(Units: MM)

(Created on Sunday, 20 August 2023 at 21:17)

(This preprocessor is the default preprocessor used by FlatCAM.)
(It is made to work with MACH3 compatible motion controllers.)


(TOOLS DIAMETER: )
(Tool: 1 -> Dia: 1.0007599999999999)
(Tool: 2 -> Dia: 1.0998199999999998)
(Tool: 3 -> Dia: 1.39954)

(FEEDRATE Z: )
(Tool: 1 -> Feedrate: 25.0)
(Tool: 2 -> Feedrate: 25.0)
(Tool: 3 -> Feedrate: 25.0)

(FEEDRATE RAPIDS: )
(Tool: 1 -> Feedrate Rapids: 1500)
(Tool: 2 -> Feedrate Rapids: 1500)
(Tool: 3 -> Feedrate Rapids: 1500)

(Z_CUT: )
(Tool: 1 -> Z_Cut: -2.5)
(Tool: 2 -> Z_Cut: -2.5)
(Tool: 3 -> Z_Cut: -2.5)

(Tools Offset: )
(Tool: 3 -> Offset Z: 0.0)

(Z_MOVE: )
(Tool: 1 -> Z_Move: 1.0)
(Tool: 2 -> Z_Move: 1.0)
(Tool: 3 -> Z_Move: 1.0)

(Z Toolchange: 5.0 mm)
(X,Y Toolchange: 0.0000, 0.0000 mm)
(Z Start: None mm)
(Z End: 5.0 mm)
(X,Y End: 0.0000, 0.0000 mm)
(Steps per circle: 64)
(Preprocessor Excellon: default)

(X range:    5.2004 ...   29.4193  mm)
(Y range:  -24.1710 ...   24.8498  mm)

(Spindle Speed: 1000 RPM)
G21
G90
G94

G01 F25.00

M5
G00 Z5.0000
T3
G00 X0.0000 Y0.0000                
M6
(MSG, Change to Tool Dia = 1.3995 ||| Total drills for tool T3 = 5)
M0
G00 Z5.0000

G01 F25.00
M03 S1000
G00 X5.9001 Y24.1500
G01 Z-2.5000
G01 Z0
G00 Z1.0000
G00 X10.8989 Y24.1500
G01 Z-2.5000
G01 Z0
G00 Z1.0000
G00 X18.0490 Y24.1500
G01 Z-2.5000
G01 Z0
G00 Z1.0000
G00 X28.0489 Y24.1500
G01 Z-2.5000
G01 Z0
G00 Z1.0000
G00 X23.0502 Y24.1500
G01 Z-2.5000
G01 Z0
G00 Z1.0000
M05
G00 Z5.00
G00 X0.0 Y0.0


