(G-CODE GENERATED BY FLATCAM v8.994 - www.flatcam.org - Version Date: 2020/11/7)

(Name: CeilingFanControl-Edge_Cuts.gbr_cutout_cnc)
(Type: G-code from Geometry)
(Units: MM)

(Created on Sunday, 20 August 2023 at 21:45)

(This preprocessor is used with a motion controller loaded with GRBL firmware.)
(It is configured to be compatible with almost any version of GRBL firmware.)

(TOOL DIAMETER: 1.0 mm)
(Feedrate_XY: 35.0 mm/min)
(Feedrate_Z: 25.0 mm/min)
(Feedrate rapids 1500.0 mm/min)

(Z_Cut: -3.0 mm)
(Z_Move: 1.0 mm)
(Z Start: None mm)
(Z End: 5.0 mm)
(X,Y End: 0.0000, 0.0000 mm)
(Steps per circle: 64)
(Steps per circle: 64)
(Preprocessor Geometry: GRBL_11_no_M6)

(X range:    1.5500 ...   32.3000  mm)
(Y range:  -28.6500 ...   29.4000  mm)

(Spindle Speed: 1000.0 RPM)
G21
G90
G17
G94


G01 F35.00

M5             
G00 Z5.0000
G00 X0.0000 Y0.0000                
T1
(MSG, Change to Tool Dia = 1.0000)
M0
G00 Z5.0000
        
M03 S1000.0
G01 F35.00
G00 X15.5250 Y-28.6500
G01 F25.00
G01 Z-3.0000
G01 F35.00
G01 X2.1500 Y-28.6500 F35.00
G01 X2.0912 Y-28.6471 F35.00
G01 X2.0329 Y-28.6385 F35.00
G01 X1.9758 Y-28.6242 F35.00
G01 X1.9204 Y-28.6044 F35.00
G01 X1.8671 Y-28.5792 F35.00
G01 X1.8166 Y-28.5489 F35.00
G01 X1.7693 Y-28.5138 F35.00
G01 X1.7257 Y-28.4743 F35.00
G01 X1.6862 Y-28.4307 F35.00
G01 X1.6511 Y-28.3834 F35.00
G01 X1.6208 Y-28.3329 F35.00
G01 X1.5956 Y-28.2796 F35.00
G01 X1.5758 Y-28.2242 F35.00
G01 X1.5615 Y-28.1671 F35.00
G01 X1.5529 Y-28.1088 F35.00
G01 X1.5500 Y-28.0500 F35.00
G01 X1.5500 Y28.8000 F35.00
G01 X1.5529 Y28.8588 F35.00
G01 X1.5615 Y28.9171 F35.00
G01 X1.5758 Y28.9742 F35.00
G01 X1.5956 Y29.0296 F35.00
G01 X1.6208 Y29.0829 F35.00
G01 X1.6511 Y29.1334 F35.00
G01 X1.6862 Y29.1807 F35.00
G01 X1.7257 Y29.2243 F35.00
G01 X1.7693 Y29.2638 F35.00
G01 X1.8166 Y29.2989 F35.00
G01 X1.8671 Y29.3292 F35.00
G01 X1.9204 Y29.3544 F35.00
G01 X1.9758 Y29.3742 F35.00
G01 X2.0329 Y29.3885 F35.00
G01 X2.0912 Y29.3971 F35.00
G01 X2.1500 Y29.4000 F35.00
G01 X15.5250 Y29.4000 F35.00
G00 Z1.0000
G00 X18.5250 Y29.4000
G01 F25.00
G01 Z-3.0000
G01 F35.00
G01 X31.7000 Y29.4000 F35.00
G01 X31.7588 Y29.3971 F35.00
G01 X31.8171 Y29.3885 F35.00
G01 X31.8742 Y29.3742 F35.00
G01 X31.9296 Y29.3544 F35.00
G01 X31.9829 Y29.3292 F35.00
G01 X32.0334 Y29.2989 F35.00
G01 X32.0807 Y29.2638 F35.00
G01 X32.1243 Y29.2243 F35.00
G01 X32.1638 Y29.1807 F35.00
G01 X32.1989 Y29.1334 F35.00
G01 X32.2292 Y29.0829 F35.00
G01 X32.2544 Y29.0296 F35.00
G01 X32.2742 Y28.9742 F35.00
G01 X32.2885 Y28.9171 F35.00
G01 X32.2971 Y28.8588 F35.00
G01 X32.3000 Y28.8000 F35.00
G01 X32.3000 Y-28.0500 F35.00
G01 X32.2971 Y-28.1088 F35.00
G01 X32.2885 Y-28.1671 F35.00
G01 X32.2742 Y-28.2242 F35.00
G01 X32.2544 Y-28.2796 F35.00
G01 X32.2292 Y-28.3329 F35.00
G01 X32.1989 Y-28.3834 F35.00
G01 X32.1638 Y-28.4307 F35.00
G01 X32.1243 Y-28.4743 F35.00
G01 X32.0807 Y-28.5138 F35.00
G01 X32.0334 Y-28.5489 F35.00
G01 X31.9829 Y-28.5792 F35.00
G01 X31.9296 Y-28.6044 F35.00
G01 X31.8742 Y-28.6242 F35.00
G01 X31.8171 Y-28.6385 F35.00
G01 X31.7588 Y-28.6471 F35.00
G01 X31.7000 Y-28.6500 F35.00
G01 X18.5250 Y-28.6500 F35.00
G00 Z1.0000
M05
G00 Z1.0000
G00 Z5.00
G00 X0.0 Y0.0


